( Made using CamBam - http://www.cambam.co.uk )
( Untitled 2/17/2019 5:11:27 PM )
( T0 : 1.5 )
G21 G90 G64 G40
G0 Z3.0
( T0 : 1.5 )
T0 M6
( 3DSurface1 )
G17
M3 S1000
G0 X-20.6874 Y-0.3
G0 Z2.0
G1 F300.0 Z0.0
G1 F800.0 X-18.2
G1 X-17.9 Z-0.0814
G1 X-17.6 Z-0.5589
G1 X-17.3 Z-0.9764
G1 X-17.0 Z-1.0
G1 X-3.2
G1 X-2.9 Z-0.73
G1 X-2.6 Z-0.2695
G1 X-2.3 Z0.0
G1 X0.4
G1 X0.6874
G0 Z3.0
G0 X-20.75 Y0.3
G0 Z2.0
G1 F300.0 Z0.0
G1 F800.0 X-18.2
G1 X-17.9 Z-0.0814
G1 X-17.6 Z-0.5589
G1 X-17.3 Z-0.9764
G1 X-17.0 Z-1.0
G1 X-3.2
G1 X-2.9 Z-0.73
G1 X-2.6 Z-0.2695
G1 X-2.3 Z0.0
G1 X0.75
G0 Z3.0
G0 X-20.75 Y0.9
G0 Z2.0
G1 F300.0 Z0.0
G1 F800.0 X-18.2
G1 X-17.9 Z-0.0814
G1 X-17.6 Z-0.5589
G1 X-17.3 Z-0.9764
G1 X-17.0 Z-1.0
G1 X-3.2
G1 X-2.9 Z-0.73
G1 X-2.6 Z-0.2695
G1 X-2.3 Z0.0
G1 X0.75
G0 Z3.0
G0 X-20.75 Y1.5
G0 Z2.0
G1 F300.0 Z0.0
G1 F800.0 X-18.2
G1 X-17.9 Z-0.0814
G1 X-17.6 Z-0.5589
G1 X-17.3 Z-0.9764
G1 X-17.0 Z-1.0
G1 X-3.2
G1 X-2.9 Z-0.73
G1 X-2.6 Z-0.2695
G1 X-2.3 Z0.0
G1 X0.75
G0 Z3.0
G0 X-20.75 Y2.1
G0 Z2.0
G1 F300.0 Z0.0
G1 F800.0 X-18.2
G1 X-17.9 Z-0.0814
G1 X-17.6 Z-0.5589
G1 X-17.3 Z-0.9764
G1 X-17.0 Z-1.0
G1 X-3.2
G1 X-2.9 Z-0.73
G1 X-2.6 Z-0.2695
G1 X-2.3 Z0.0
G1 X0.75
G0 Z3.0
G0 X-20.75 Y2.7
G0 Z2.0
G1 F300.0 Z0.0
G1 F800.0 X-18.2
G1 X-17.9 Z-0.0814
G1 X-17.6 Z-0.5589
G1 X-17.3 Z-0.9764
G1 X-17.0 Z-1.0
G1 X-3.2
G1 X-2.9 Z-0.73
G1 X-2.6 Z-0.2695
G1 X-2.3 Z0.0
G1 X0.75
G0 Z3.0
G0 X-20.75 Y3.3
G0 Z2.0
G1 F300.0 Z0.0
G1 F800.0 X-18.2
G1 X-17.9 Z-0.0814
G1 X-17.6 Z-0.5589
G1 X-17.3 Z-0.9764
G1 X-17.0 Z-1.0
G1 X-3.2
G1 X-2.9 Z-0.73
G1 X-2.6 Z-0.2695
G1 X-2.3 Z0.0
G1 X0.75
G0 Z3.0
G0 X-20.75 Y3.9
G0 Z2.0
G1 F300.0 Z0.0
G1 F800.0 X-18.2
G1 X-17.9 Z-0.0814
G1 X-17.6 Z-0.5589
G1 X-17.3 Z-0.9764
G1 X-17.0 Z-1.0
G1 X-3.2
G1 X-2.9 Z-0.73
G1 X-2.6 Z-0.2695
G1 X-2.3 Z0.0
G1 X0.75
G0 Z3.0
G0 X-20.75 Y4.5
G0 Z2.0
G1 F300.0 Z0.0
G1 F800.0 X-18.2
G1 X-17.9 Z-0.0814
G1 X-17.6 Z-0.5589
G1 X-17.3 Z-0.9764
G1 X-17.0 Z-1.0
G1 X-3.2
G1 X-2.9 Z-0.73
G1 X-2.6 Z-0.2695
G1 X-2.3 Z0.0
G1 X0.75
G0 Z3.0
G0 X-20.75 Y5.1
G0 Z2.0
G1 F300.0 Z0.0
G1 F800.0 X-18.2
G1 X-17.9 Z-0.0814
G1 X-17.6 Z-0.5589
G1 X-17.3 Z-0.9764
G1 X-17.0 Z-1.0
G1 X-3.2
G1 X-2.9 Z-0.73
G1 X-2.6 Z-0.2695
G1 X-2.3 Z0.0
G1 X0.75
G0 Z3.0
G0 X-20.75 Y5.7
G0 Z2.0
G1 F300.0 Z0.0
G1 F800.0 X-18.2
G1 X-17.9 Z-0.0814
G1 X-17.6 Z-0.5589
G1 X-17.3 Z-0.9764
G1 X-17.0 Z-1.0
G1 X-3.2
G1 X-2.9 Z-0.73
G1 X-2.6 Z-0.2695
G1 X-2.3 Z0.0
G1 X0.75
G0 Z3.0
G0 X-20.75 Y6.3
G0 Z2.0
G1 F300.0 Z0.0
G1 F800.0 X-18.2
G1 X-17.9 Z-0.0814
G1 X-17.6 Z-0.5589
G1 X-17.3 Z-0.9764
G1 X-17.0 Z-1.0
G1 X-3.2
G1 X-2.9 Z-0.73
G1 X-2.6 Z-0.2695
G1 X-2.3 Z0.0
G1 X0.75
G0 Z3.0
G0 X-20.75 Y6.9
G0 Z2.0
G1 F300.0 Z0.0
G1 F800.0 X-18.2
G1 X-17.9 Z-0.0814
G1 X-17.6 Z-0.5589
G1 X-17.3 Z-0.9764
G1 X-17.0 Z-1.0
G1 X-3.2
G1 X-2.9 Z-0.73
G1 X-2.6 Z-0.2695
G1 X-2.3 Z0.0
G1 X0.75
G0 Z3.0
G0 X-20.75 Y7.5
G0 Z2.0
G1 F300.0 Z0.0
G1 F800.0 X-18.2
G1 X-17.9 Z-0.0814
G1 X-17.6 Z-0.5589
G1 X-17.3 Z-0.9764
G1 X-17.0 Z-1.0
G1 X-3.2
G1 X-2.9 Z-0.73
G1 X-2.6 Z-0.2695
G1 X-2.3 Z0.0
G1 X0.75
G0 Z3.0
G0 X-20.75 Y8.1
G0 Z2.0
G1 F300.0 Z0.0
G1 F800.0 X-18.2
G1 X-17.9 Z-0.0814
G1 X-17.6 Z-0.5589
G1 X-17.3 Z-0.9764
G1 X-17.0 Z-1.0
G1 X-3.2
G1 X-2.9 Z-0.73
G1 X-2.6 Z-0.2695
G1 X-2.3 Z0.0
G1 X0.75
G0 Z3.0
G0 X-20.75 Y8.7
G0 Z2.0
G1 F300.0 Z0.0
G1 F800.0 X-18.2
G1 X-17.9 Z-0.0814
G1 X-17.6 Z-0.5589
G1 X-17.3 Z-0.9764
G1 X-17.0 Z-1.0
G1 X-3.2
G1 X-2.9 Z-0.73
G1 X-2.6 Z-0.2695
G1 X-2.3 Z0.0
G1 X0.75
G0 Z3.0
G0 X-20.75 Y9.3
G0 Z2.0
G1 F300.0 Z0.0
G1 F800.0 X-18.2
G1 X-17.9 Z-0.0814
G1 X-17.6 Z-0.5589
G1 X-17.3 Z-0.9764
G1 X-17.0 Z-1.0
G1 X-3.2
G1 X-2.9 Z-0.73
G1 X-2.6 Z-0.2695
G1 X-2.3 Z0.0
G1 X0.75
G0 Z3.0
G0 X-20.75 Y9.9
G0 Z2.0
G1 F300.0 Z0.0
G1 F800.0 X-18.2
G1 X-17.9 Z-0.0814
G1 X-17.6 Z-0.5589
G1 X-17.3 Z-0.9764
G1 X-17.0 Z-1.0
G1 X-3.2
G1 X-2.9 Z-0.73
G1 X-2.6 Z-0.2695
G1 X-2.3 Z0.0
G1 X0.75
G0 Z3.0
G0 X-20.75 Y10.5
G0 Z2.0
G1 F300.0 Z0.0
G1 F800.0 X-18.2
G1 X-17.9 Z-0.0814
G1 X-17.6 Z-0.5589
G1 X-17.3 Z-0.9764
G1 X-17.0 Z-1.0
G1 X-3.2
G1 X-2.9 Z-0.73
G1 X-2.6 Z-0.2695
G1 X-2.3 Z0.0
G1 X0.75
G0 Z3.0
G0 X-20.75 Y11.1
G0 Z2.0
G1 F300.0 Z0.0
G1 F800.0 X-18.2
G1 X-17.9 Z-0.0814
G1 X-17.6 Z-0.5589
G1 X-17.3 Z-0.9764
G1 X-17.0 Z-1.0
G1 X-3.2
G1 X-2.9 Z-0.73
G1 X-2.6 Z-0.2695
G1 X-2.3 Z0.0
G1 X0.75
G0 Z3.0
G0 X-20.75 Y11.7
G0 Z2.0
G1 F300.0 Z0.0
G1 F800.0 X-18.2
G1 X-17.9 Z-0.0814
G1 X-17.6 Z-0.5589
G1 X-17.3 Z-0.9764
G1 X-17.0 Z-1.0
G1 X-3.2
G1 X-2.9 Z-0.73
G1 X-2.6 Z-0.2695
G1 X-2.3 Z0.0
G1 X0.75
G0 Z3.0
G0 X-20.75 Y12.3
G0 Z2.0
G1 F300.0 Z0.0
G1 F800.0 X-18.2
G1 X-17.9 Z-0.0814
G1 X-17.6 Z-0.5589
G1 X-17.3 Z-0.9764
G1 X-17.0 Z-1.0
G1 X-3.2
G1 X-2.9 Z-0.73
G1 X-2.6 Z-0.2695
G1 X-2.3 Z0.0
G1 X0.75
G0 Z3.0
G0 X-20.75 Y12.9
G0 Z2.0
G1 F300.0 Z0.0
G1 F800.0 X-18.2
G1 X-17.9 Z-0.0814
G1 X-17.6 Z-0.5589
G1 X-17.3 Z-0.9764
G1 X-17.0 Z-1.0
G1 X-3.2
G1 X-2.9 Z-0.73
G1 X-2.6 Z-0.2695
G1 X-2.3 Z0.0
G1 X0.75
G0 Z3.0
G0 X-20.75 Y13.5
G0 Z2.0
G1 F300.0 Z0.0
G1 F800.0 X-18.2
G1 X-17.9 Z-0.0814
G1 X-17.6 Z-0.5589
G1 X-17.3 Z-0.9764
G1 X-17.0 Z-1.0
G1 X-3.2
G1 X-2.9 Z-0.73
G1 X-2.6 Z-0.2695
G1 X-2.3 Z0.0
G1 X0.75
G0 Z3.0
G0 X-20.75 Y14.1
G0 Z2.0
G1 F300.0 Z0.0
G1 F800.0 X-18.2
G1 X-17.9 Z-0.0814
G1 X-17.6 Z-0.5589
G1 X-17.3 Z-0.9764
G1 X-17.0 Z-1.0
G1 X-3.2
G1 X-2.9 Z-0.73
G1 X-2.6 Z-0.2695
G1 X-2.3 Z0.0
G1 X0.75
G0 Z3.0
G0 X-20.75 Y14.7
G0 Z2.0
G1 F300.0 Z0.0
G1 F800.0 X-18.2
G1 X-17.9 Z-0.0814
G1 X-17.6 Z-0.5589
G1 X-17.3 Z-0.9764
G1 X-17.0 Z-1.0
G1 X-3.2
G1 X-2.9 Z-0.73
G1 X-2.6 Z-0.2695
G1 X-2.3 Z0.0
G1 X0.75
G0 Z3.0
G0 X-20.75 Y15.3
G0 Z2.0
G1 F300.0 Z0.0
G1 F800.0 X-18.2
G1 X-17.9 Z-0.0814
G1 X-17.6 Z-0.5589
G1 X-17.3 Z-0.9764
G1 X-17.0 Z-1.0
G1 X-3.2
G1 X-2.9 Z-0.73
G1 X-2.6 Z-0.2695
G1 X-2.3 Z0.0
G1 X0.75
G0 Z3.0
G0 X-20.75 Y15.9
G0 Z2.0
G1 F300.0 Z0.0
G1 F800.0 X-18.2
G1 X-17.9 Z-0.0814
G1 X-17.6 Z-0.5589
G1 X-17.3 Z-0.9764
G1 X-17.0 Z-1.0
G1 X-3.2
G1 X-2.9 Z-0.73
G1 X-2.6 Z-0.2695
G1 X-2.3 Z0.0
G1 X0.75
G0 Z3.0
G0 X-20.75 Y16.5
G0 Z2.0
G1 F300.0 Z0.0
G1 F800.0 X-18.2
G1 X-17.9 Z-0.0814
G1 X-17.6 Z-0.5589
G1 X-17.3 Z-0.9764
G1 X-17.0 Z-1.0
G1 X-3.2
G1 X-2.9 Z-0.73
G1 X-2.6 Z-0.2695
G1 X-2.3 Z0.0
G1 X0.75
G0 Z3.0
G0 X-20.75 Y17.1
G0 Z2.0
G1 F300.0 Z0.0
G1 F800.0 X-18.2
G1 X-17.9 Z-0.0814
G1 X-17.6 Z-0.5589
G1 X-17.3 Z-0.9764
G1 X-17.0 Z-1.0
G1 X-3.2
G1 X-2.9 Z-0.73
G1 X-2.6 Z-0.2695
G1 X-2.3 Z0.0
G1 X0.75
G0 Z3.0
G0 X-20.75 Y17.7
G0 Z2.0
G1 F300.0 Z0.0
G1 F800.0 X-18.2
G1 X-17.9 Z-0.0814
G1 X-17.6 Z-0.5589
G1 X-17.3 Z-0.9764
G1 X-17.0 Z-1.0
G1 X-3.2
G1 X-2.9 Z-0.73
G1 X-2.6 Z-0.2695
G1 X-2.3 Z0.0
G1 X0.75
G0 Z3.0
G0 X-20.75 Y18.3
G0 Z2.0
G1 F300.0 Z0.0
G1 F800.0 X-18.2
G1 X-17.9 Z-0.0814
G1 X-17.6 Z-0.5589
G1 X-17.3 Z-0.9764
G1 X-17.0 Z-1.0
G1 X-3.2
G1 X-2.9 Z-0.73
G1 X-2.6 Z-0.2695
G1 X-2.3 Z0.0
G1 X0.75
G0 Z3.0
G0 X-20.75 Y18.9
G0 Z2.0
G1 F300.0 Z0.0
G1 F800.0 X-18.2
G1 X-17.9 Z-0.0814
G1 X-17.6 Z-0.5589
G1 X-17.3 Z-0.9764
G1 X-17.0 Z-1.0
G1 X-3.2
G1 X-2.9 Z-0.73
G1 X-2.6 Z-0.2695
G1 X-2.3 Z0.0
G1 X0.75
G0 Z3.0
G0 X-20.75 Y19.5
G0 Z2.0
G1 F300.0 Z0.0
G1 F800.0 X-18.2
G1 X-17.9 Z-0.0814
G1 X-17.6 Z-0.5589
G1 X-17.3 Z-0.9764
G1 X-17.0 Z-1.0
G1 X-3.2
G1 X-2.9 Z-0.73
G1 X-2.6 Z-0.2695
G1 X-2.3 Z0.0
G1 X0.75
G0 Z3.0
G0 X-20.75 Y20.1
G0 Z2.0
G1 F300.0 Z0.0
G1 F800.0 X-18.2
G1 X-17.9 Z-0.0814
G1 X-17.6 Z-0.5589
G1 X-17.3 Z-0.9764
G1 X-17.0 Z-1.0
G1 X-3.2
G1 X-2.9 Z-0.73
G1 X-2.6 Z-0.2695
G1 X-2.3 Z0.0
G1 X0.75
G0 Z3.0
G0 X-20.75 Y20.7
G0 Z2.0
G1 F300.0 Z0.0
G1 F800.0 X-18.2
G1 X-17.9 Z-0.0814
G1 X-17.6 Z-0.5589
G1 X-17.3 Z-0.9764
G1 X-17.0 Z-1.0
G1 X-3.2
G1 X-2.9 Z-0.73
G1 X-2.6 Z-0.2695
G1 X-2.3 Z0.0
G1 X0.75
G0 Z3.0
G0 X-20.75 Y21.3
G0 Z2.0
G1 F300.0 Z0.0
G1 F800.0 X-18.2
G1 X-17.9 Z-0.0814
G1 X-17.6 Z-0.5589
G1 X-17.3 Z-0.9764
G1 X-17.0 Z-1.0
G1 X-3.2
G1 X-2.9 Z-0.73
G1 X-2.6 Z-0.2695
G1 X-2.3 Z0.0
G1 X0.75
G0 Z3.0
G0 X-20.75 Y21.9
G0 Z2.0
G1 F300.0 Z0.0
G1 F800.0 X-18.2
G1 X-17.9 Z-0.0814
G1 X-17.6 Z-0.5589
G1 X-17.3 Z-0.9764
G1 X-17.0 Z-1.0
G1 X-3.2
G1 X-2.9 Z-0.73
G1 X-2.6 Z-0.2695
G1 X-2.3 Z0.0
G1 X0.75
G0 Z3.0
G0 X-20.75 Y22.5
G0 Z2.0
G1 F300.0 Z0.0
G1 F800.0 X-18.2
G1 X-17.9 Z-0.0814
G1 X-17.6 Z-0.5589
G1 X-17.3 Z-0.9764
G1 X-17.0 Z-1.0
G1 X-3.2
G1 X-2.9 Z-0.73
G1 X-2.6 Z-0.2695
G1 X-2.3 Z0.0
G1 X0.75
G0 Z3.0
G0 X-20.75 Y23.1
G0 Z2.0
G1 F300.0 Z0.0
G1 F800.0 X-18.2
G1 X-17.9 Z-0.0814
G1 X-17.6 Z-0.5589
G1 X-17.3 Z-0.9764
G1 X-17.0 Z-1.0
G1 X-3.2
G1 X-2.9 Z-0.73
G1 X-2.6 Z-0.2695
G1 X-2.3 Z0.0
G1 X0.75
G0 Z3.0
G0 X-20.75 Y23.7
G0 Z2.0
G1 F300.0 Z0.0
G1 F800.0 X-18.2
G1 X-17.9 Z-0.0814
G1 X-17.6 Z-0.5589
G1 X-17.3 Z-0.9764
G1 X-17.0 Z-1.0
G1 X-3.2
G1 X-2.9 Z-0.73
G1 X-2.6 Z-0.2695
G1 X-2.3 Z0.0
G1 X0.75
G0 Z3.0
G0 X-20.75 Y24.3
G0 Z2.0
G1 F300.0 Z0.0
G1 F800.0 X-18.2
G1 X-17.9 Z-0.0814
G1 X-17.6 Z-0.5589
G1 X-17.3 Z-0.9764
G1 X-17.0 Z-1.0
G1 X-3.2
G1 X-2.9 Z-0.73
G1 X-2.6 Z-0.2695
G1 X-2.3 Z0.0
G1 X0.75
G0 Z3.0
G0 X-20.75 Y24.9
G0 Z2.0
G1 F300.0 Z0.0
G1 F800.0 X-18.2
G1 X-17.9 Z-0.0814
G1 X-17.6 Z-0.5589
G1 X-17.3 Z-0.9764
G1 X-17.0 Z-1.0
G1 X-3.2
G1 X-2.9 Z-0.73
G1 X-2.6 Z-0.2695
G1 X-2.3 Z0.0
G1 X0.75
G0 Z3.0
G0 X-20.75 Y25.5
G0 Z2.0
G1 F300.0 Z0.0
G1 F800.0 X-18.2
G1 X-17.9 Z-0.0814
G1 X-17.6 Z-0.5589
G1 X-17.3 Z-0.9764
G1 X-17.0 Z-1.0
G1 X-3.2
G1 X-2.9 Z-0.73
G1 X-2.6 Z-0.2695
G1 X-2.3 Z0.0
G1 X0.75
G0 Z3.0
G0 X-20.75 Y26.1
G0 Z2.0
G1 F300.0 Z0.0
G1 F800.0 X-18.2
G1 X-17.9 Z-0.0814
G1 X-17.6 Z-0.5589
G1 X-17.3 Z-0.9764
G1 X-17.0 Z-1.0
G1 X-3.2
G1 X-2.9 Z-0.73
G1 X-2.6 Z-0.2695
G1 X-2.3 Z0.0
G1 X0.75
G0 Z3.0
G0 X-20.75 Y26.7
G0 Z2.0
G1 F300.0 Z0.0
G1 F800.0 X-18.2
G1 X-17.9 Z-0.0814
G1 X-17.6 Z-0.5589
G1 X-17.3 Z-0.9764
G1 X-17.0 Z-1.0
G1 X-3.2
G1 X-2.9 Z-0.73
G1 X-2.6 Z-0.2695
G1 X-2.3 Z0.0
G1 X0.75
G0 Z3.0
G0 X-20.75 Y27.3
G0 Z2.0
G1 F300.0 Z0.0
G1 F800.0 X-18.2
G1 X-17.9 Z-0.0814
G1 X-17.6 Z-0.5589
G1 X-17.3 Z-0.9764
G1 X-17.0 Z-1.0
G1 X-3.2
G1 X-2.9 Z-0.73
G1 X-2.6 Z-0.2695
G1 X-2.3 Z0.0
G1 X0.75
G0 Z3.0
G0 X-20.75 Y27.9
G0 Z2.0
G1 F300.0 Z0.0
G1 F800.0 X-18.2
G1 X-17.9 Z-0.0814
G1 X-17.6 Z-0.5589
G1 X-17.3 Z-0.9764
G1 X-17.0 Z-1.0
G1 X-3.2
G1 X-2.9 Z-0.73
G1 X-2.6 Z-0.2695
G1 X-2.3 Z0.0
G1 X0.75
G0 Z3.0
G0 X-20.75 Y28.5
G0 Z2.0
G1 F300.0 Z0.0
G1 F800.0 X-18.2
G1 X-17.9 Z-0.0814
G1 X-17.6 Z-0.5589
G1 X-17.3 Z-0.9764
G1 X-17.0 Z-1.0
G1 X-3.2
G1 X-2.9 Z-0.73
G1 X-2.6 Z-0.2695
G1 X-2.3 Z0.0
G1 X0.75
G0 Z3.0
G0 X-20.75 Y29.1
G0 Z2.0
G1 F300.0 Z0.0
G1 F800.0 X-18.2
G1 X-17.9 Z-0.0814
G1 X-17.6 Z-0.5589
G1 X-17.3 Z-0.9764
G1 X-17.0 Z-1.0
G1 X-3.2
G1 X-2.9 Z-0.73
G1 X-2.6 Z-0.2695
G1 X-2.3 Z0.0
G1 X0.75
G0 Z3.0
G0 X-20.75 Y29.7
G0 Z2.0
G1 F300.0 Z0.0
G1 F800.0 X-18.2
G1 X-17.9 Z-0.0814
G1 X-17.6 Z-0.5589
G1 X-17.3 Z-0.9764
G1 X-17.0 Z-1.0
G1 X-3.2
G1 X-2.9 Z-0.73
G1 X-2.6 Z-0.2695
G1 X-2.3 Z0.0
G1 X0.75
G0 Z3.0
G0 X-20.75 Y30.3
G0 Z2.0
G1 F300.0 Z0.0
G1 F800.0 X-18.2
G1 X-17.9 Z-0.0814
G1 X-17.6 Z-0.5589
G1 X-17.3 Z-0.9764
G1 X-17.0 Z-1.0
G1 X-3.2
G1 X-2.9 Z-0.73
G1 X-2.6 Z-0.2695
G1 X-2.3 Z0.0
G1 X0.75
G0 Z3.0
G0 X-20.75 Y30.9
G0 Z2.0
G1 F300.0 Z0.0
G1 F800.0 X-18.2
G1 X-17.9 Z-0.0814
G1 X-17.6 Z-0.5589
G1 X-17.3 Z-0.9764
G1 X-17.0 Z-1.0
G1 X-3.2
G1 X-2.9 Z-0.73
G1 X-2.6 Z-0.2695
G1 X-2.3 Z0.0
G1 X0.75
G0 Z3.0
G0 X-20.75 Y31.5
G0 Z2.0
G1 F300.0 Z0.0
G1 F800.0 X-18.2
G1 X-17.9 Z-0.0814
G1 X-17.6 Z-0.5589
G1 X-17.3 Z-0.9764
G1 X-17.0 Z-1.0
G1 X-3.2
G1 X-2.9 Z-0.73
G1 X-2.6 Z-0.2695
G1 X-2.3 Z0.0
G1 X0.75
G0 Z3.0
G0 X-20.75 Y32.1
G0 Z2.0
G1 F300.0 Z0.0
G1 F800.0 X-18.2
G1 X-17.9 Z-0.0814
G1 X-17.6 Z-0.5589
G1 X-17.3 Z-0.9764
G1 X-17.0 Z-1.0
G1 X-3.2
G1 X-2.9 Z-0.73
G1 X-2.6 Z-0.2695
G1 X-2.3 Z0.0
G1 X0.75
G0 Z3.0
G0 X-20.75 Y32.7
G0 Z2.0
G1 F300.0 Z0.0
G1 F800.0 X-18.2
G1 X-17.9 Z-0.0814
G1 X-17.6 Z-0.5589
G1 X-17.3 Z-0.9764
G1 X-17.0 Z-1.0
G1 X-3.2
G1 X-2.9 Z-0.73
G1 X-2.6 Z-0.2695
G1 X-2.3 Z0.0
G1 X0.75
G0 Z3.0
G0 X-20.75 Y33.3
G0 Z2.0
G1 F300.0 Z0.0
G1 F800.0 X-18.2
G1 X-17.9 Z-0.0814
G1 X-17.6 Z-0.5589
G1 X-17.3 Z-0.9764
G1 X-17.0 Z-1.0
G1 X-3.2
G1 X-2.9 Z-0.73
G1 X-2.6 Z-0.2695
G1 X-2.3 Z0.0
G1 X0.75
G0 Z3.0
G0 X-20.75 Y33.9
G0 Z2.0
G1 F300.0 Z0.0
G1 F800.0 X-18.2
G1 X-17.9 Z-0.0814
G1 X-17.6 Z-0.5589
G1 X-17.3 Z-0.9764
G1 X-17.0 Z-1.0
G1 X-3.2
G1 X-2.9 Z-0.73
G1 X-2.6 Z-0.2695
G1 X-2.3 Z0.0
G1 X0.75
G0 Z3.0
G0 X-20.75 Y34.5
G0 Z2.0
G1 F300.0 Z0.0
G1 F800.0 X-18.2
G1 X-17.9 Z-0.0814
G1 X-17.6 Z-0.5589
G1 X-17.3 Z-0.9764
G1 X-17.0 Z-1.0
G1 X-3.2
G1 X-2.9 Z-0.73
G1 X-2.6 Z-0.2695
G1 X-2.3 Z0.0
G1 X0.75
G0 Z3.0
G0 X-20.75 Y35.1
G0 Z2.0
G1 F300.0 Z0.0
G1 F800.0 X-18.2
G1 X-17.9 Z-0.0814
G1 X-17.6 Z-0.5589
G1 X-17.3 Z-0.9764
G1 X-17.0 Z-1.0
G1 X-3.2
G1 X-2.9 Z-0.73
G1 X-2.6 Z-0.2695
G1 X-2.3 Z0.0
G1 X0.75
G0 Z3.0
G0 X-20.75 Y35.7
G0 Z2.0
G1 F300.0 Z0.0
G1 F800.0 X-18.2
G1 X-17.9 Z-0.0814
G1 X-17.6 Z-0.5589
G1 X-17.3 Z-0.9764
G1 X-17.0 Z-1.0
G1 X-3.2
G1 X-2.9 Z-0.73
G1 X-2.6 Z-0.2695
G1 X-2.3 Z0.0
G1 X0.75
G0 Z3.0
G0 X-20.75 Y36.3
G0 Z2.0
G1 F300.0 Z0.0
G1 F800.0 X-18.2
G1 X-17.9 Z-0.0814
G1 X-17.6 Z-0.5589
G1 X-17.3 Z-0.9764
G1 X-17.0 Z-1.0
G1 X-3.2
G1 X-2.9 Z-0.73
G1 X-2.6 Z-0.2695
G1 X-2.3 Z0.0
G1 X0.75
G0 Z3.0
G0 X-20.75 Y36.9
G0 Z2.0
G1 F300.0 Z0.0
G1 F800.0 X-18.2
G1 X-17.9 Z-0.0814
G1 X-17.6 Z-0.5589
G1 X-17.3 Z-0.9764
G1 X-17.0 Z-1.0
G1 X-3.2
G1 X-2.9 Z-0.73
G1 X-2.6 Z-0.2695
G1 X-2.3 Z0.0
G1 X0.75
G0 Z3.0
G0 X-20.75 Y37.5
G0 Z2.0
G1 F300.0 Z0.0
G1 F800.0 X-18.2
G1 X-17.9 Z-0.0814
G1 X-17.6 Z-0.5589
G1 X-17.3 Z-0.9764
G1 X-17.0 Z-1.0
G1 X-3.2
G1 X-2.9 Z-0.73
G1 X-2.6 Z-0.2695
G1 X-2.3 Z0.0
G1 X0.75
G0 Z3.0
G0 X-20.75 Y38.1
G0 Z2.0
G1 F300.0 Z0.0
G1 F800.0 X-18.2
G1 X-17.9 Z-0.0814
G1 X-17.6 Z-0.5589
G1 X-17.3 Z-0.9764
G1 X-17.0 Z-1.0
G1 X-3.2
G1 X-2.9 Z-0.73
G1 X-2.6 Z-0.2695
G1 X-2.3 Z0.0
G1 X0.75
G0 Z3.0
G0 X-20.75 Y38.7
G0 Z2.0
G1 F300.0 Z0.0
G1 F800.0 X-18.2
G1 X-17.9 Z-0.0814
G1 X-17.6 Z-0.5589
G1 X-17.3 Z-0.9764
G1 X-17.0 Z-1.0
G1 X-3.2
G1 X-2.9 Z-0.73
G1 X-2.6 Z-0.2695
G1 X-2.3 Z0.0
G1 X0.75
G0 Z3.0
G0 X-20.75 Y39.3
G0 Z2.0
G1 F300.0 Z0.0
G1 F800.0 X-18.2
G1 X-17.9 Z-0.0814
G1 X-17.6 Z-0.5589
G1 X-17.3 Z-0.9764
G1 X-17.0 Z-1.0
G1 X-3.2
G1 X-2.9 Z-0.73
G1 X-2.6 Z-0.2695
G1 X-2.3 Z0.0
G1 X0.75
G0 Z3.0
G0 X-20.75 Y39.9
G0 Z2.0
G1 F300.0 Z0.0
G1 F800.0 X-18.2
G1 X-17.9 Z-0.0814
G1 X-17.6 Z-0.5589
G1 X-17.3 Z-0.9764
G1 X-17.0 Z-1.0
G1 X-3.2
G1 X-2.9 Z-0.73
G1 X-2.6 Z-0.2695
G1 X-2.3 Z0.0
G1 X0.75
G0 Z3.0
G0 X-20.559 Y40.5
G0 Z2.0
G1 F300.0 Z0.0
G1 F800.0 X-18.5
G1 X-18.2 Z-0.0814
G1 X-17.9 Z-0.5589
G1 X-17.6 Z-0.9764
G1 X-17.3 Z-1.0
G1 X-2.9
G1 X-2.6 Z-0.73
G1 X-2.3 Z-0.2695
G1 X-2.0 Z0.0
G1 X0.4
G1 X0.559 Z-1.0
G0 Z0.0
G1 F300.0 X0.7228 Y40.2
G1 F800.0 X-2.3
G1 X-2.6 Z-0.2695
G1 X-2.9 Z-0.73
G1 X-3.2 Z-1.1365
G1 X-3.5 Z-1.4991
G1 X-3.8 Z-1.8413
G1 X-4.1 Z-2.0
G1 X-16.4
G1 X-16.7 Z-1.7104
G1 X-17.0 Z-1.3618
G1 X-17.3 Z-0.9764
G1 X-17.6 Z-0.5589
G1 X-17.9 Z-0.0814
G1 X-18.2 Z0.0
G1 X-20.7228
G0 Z3.0
G0 X0.75 Y39.6
G0 Z2.0
G1 F300.0 Z0.0
G1 F800.0 X-2.3
G1 X-2.6 Z-0.2695
G1 X-2.9 Z-0.73
G1 X-3.2 Z-1.1365
G1 X-3.5 Z-1.4991
G1 X-3.8 Z-1.8413
G1 X-4.1 Z-2.0
G1 X-16.4
G1 X-16.7 Z-1.7104
G1 X-17.0 Z-1.3618
G1 X-17.3 Z-0.9764
G1 X-17.6 Z-0.5589
G1 X-17.9 Z-0.0814
G1 X-18.2 Z0.0
G1 X-20.75
G0 Z3.0
G0 X0.75 Y39.0
G0 Z2.0
G1 F300.0 Z0.0
G1 F800.0 X-2.3
G1 X-2.6 Z-0.2695
G1 X-2.9 Z-0.73
G1 X-3.2 Z-1.1365
G1 X-3.5 Z-1.4991
G1 X-3.8 Z-1.8413
G1 X-4.1 Z-2.0
G1 X-16.4
G1 X-16.7 Z-1.7104
G1 X-17.0 Z-1.3618
G1 X-17.3 Z-0.9764
G1 X-17.6 Z-0.5589
G1 X-17.9 Z-0.0814
G1 X-18.2 Z0.0
G1 X-20.75
G0 Z3.0
G0 X0.75 Y38.4
G0 Z2.0
G1 F300.0 Z0.0
G1 F800.0 X-2.3
G1 X-2.6 Z-0.2695
G1 X-2.9 Z-0.73
G1 X-3.2 Z-1.1365
G1 X-3.5 Z-1.4991
G1 X-3.8 Z-1.8413
G1 X-4.1 Z-2.0
G1 X-16.4
G1 X-16.7 Z-1.7104
G1 X-17.0 Z-1.3618
G1 X-17.3 Z-0.9764
G1 X-17.6 Z-0.5589
G1 X-17.9 Z-0.0814
G1 X-18.2 Z0.0
G1 X-20.75
G0 Z3.0
G0 X0.75 Y37.8
G0 Z2.0
G1 F300.0 Z0.0
G1 F800.0 X-2.3
G1 X-2.6 Z-0.2695
G1 X-2.9 Z-0.73
G1 X-3.2 Z-1.1365
G1 X-3.5 Z-1.4991
G1 X-3.8 Z-1.8413
G1 X-4.1 Z-2.0
G1 X-16.4
G1 X-16.7 Z-1.7104
G1 X-17.0 Z-1.3618
G1 X-17.3 Z-0.9764
G1 X-17.6 Z-0.5589
G1 X-17.9 Z-0.0814
G1 X-18.2 Z0.0
G1 X-20.75
G0 Z3.0
G0 X0.75 Y37.2
G0 Z2.0
G1 F300.0 Z0.0
G1 F800.0 X-2.3
G1 X-2.6 Z-0.2695
G1 X-2.9 Z-0.73
G1 X-3.2 Z-1.1365
G1 X-3.5 Z-1.4991
G1 X-3.8 Z-1.8413
G1 X-4.1 Z-2.0
G1 X-16.4
G1 X-16.7 Z-1.7104
G1 X-17.0 Z-1.3618
G1 X-17.3 Z-0.9764
G1 X-17.6 Z-0.5589
G1 X-17.9 Z-0.0814
G1 X-18.2 Z0.0
G1 X-20.75
G0 Z3.0
G0 X0.75 Y36.6
G0 Z2.0
G1 F300.0 Z0.0
G1 F800.0 X-2.3
G1 X-2.6 Z-0.2695
G1 X-2.9 Z-0.73
G1 X-3.2 Z-1.1365
G1 X-3.5 Z-1.4991
G1 X-3.8 Z-1.8413
G1 X-4.1 Z-2.0
G1 X-16.4
G1 X-16.7 Z-1.7104
G1 X-17.0 Z-1.3618
G1 X-17.3 Z-0.9764
G1 X-17.6 Z-0.5589
G1 X-17.9 Z-0.0814
G1 X-18.2 Z0.0
G1 X-20.75
G0 Z3.0
G0 X0.75 Y36.0
G0 Z2.0
G1 F300.0 Z0.0
G1 F800.0 X-2.3
G1 X-2.6 Z-0.2695
G1 X-2.9 Z-0.73
G1 X-3.2 Z-1.1365
G1 X-3.5 Z-1.4991
G1 X-3.8 Z-1.8413
G1 X-4.1 Z-2.0
G1 X-16.4
G1 X-16.7 Z-1.7104
G1 X-17.0 Z-1.3618
G1 X-17.3 Z-0.9764
G1 X-17.6 Z-0.5589
G1 X-17.9 Z-0.0814
G1 X-18.2 Z0.0
G1 X-20.75
G0 Z3.0
G0 X0.75 Y35.4
G0 Z2.0
G1 F300.0 Z0.0
G1 F800.0 X-2.3
G1 X-2.6 Z-0.2695
G1 X-2.9 Z-0.73
G1 X-3.2 Z-1.1365
G1 X-3.5 Z-1.4991
G1 X-3.8 Z-1.8413
G1 X-4.1 Z-2.0
G1 X-16.4
G1 X-16.7 Z-1.7104
G1 X-17.0 Z-1.3618
G1 X-17.3 Z-0.9764
G1 X-17.6 Z-0.5589
G1 X-17.9 Z-0.0814
G1 X-18.2 Z0.0
G1 X-20.75
G0 Z3.0
G0 X0.75 Y34.8
G0 Z2.0
G1 F300.0 Z0.0
G1 F800.0 X-2.3
G1 X-2.6 Z-0.2695
G1 X-2.9 Z-0.73
G1 X-3.2 Z-1.1365
G1 X-3.5 Z-1.4991
G1 X-3.8 Z-1.8413
G1 X-4.1 Z-2.0
G1 X-16.4
G1 X-16.7 Z-1.7104
G1 X-17.0 Z-1.3618
G1 X-17.3 Z-0.9764
G1 X-17.6 Z-0.5589
G1 X-17.9 Z-0.0814
G1 X-18.2 Z0.0
G1 X-20.75
G0 Z3.0
G0 X0.75 Y34.2
G0 Z2.0
G1 F300.0 Z0.0
G1 F800.0 X-2.3
G1 X-2.6 Z-0.2695
G1 X-2.9 Z-0.73
G1 X-3.2 Z-1.1365
G1 X-3.5 Z-1.4991
G1 X-3.8 Z-1.8413
G1 X-4.1 Z-2.0
G1 X-16.4
G1 X-16.7 Z-1.7104
G1 X-17.0 Z-1.3618
G1 X-17.3 Z-0.9764
G1 X-17.6 Z-0.5589
G1 X-17.9 Z-0.0814
G1 X-18.2 Z0.0
G1 X-20.75
G0 Z3.0
G0 X0.75 Y33.6
G0 Z2.0
G1 F300.0 Z0.0
G1 F800.0 X-2.3
G1 X-2.6 Z-0.2695
G1 X-2.9 Z-0.73
G1 X-3.2 Z-1.1365
G1 X-3.5 Z-1.4991
G1 X-3.8 Z-1.8413
G1 X-4.1 Z-2.0
G1 X-16.4
G1 X-16.7 Z-1.7104
G1 X-17.0 Z-1.3618
G1 X-17.3 Z-0.9764
G1 X-17.6 Z-0.5589
G1 X-17.9 Z-0.0814
G1 X-18.2 Z0.0
G1 X-20.75
G0 Z3.0
G0 X0.75 Y33.0
G0 Z2.0
G1 F300.0 Z0.0
G1 F800.0 X-2.3
G1 X-2.6 Z-0.2695
G1 X-2.9 Z-0.73
G1 X-3.2 Z-1.1365
G1 X-3.5 Z-1.4991
G1 X-3.8 Z-1.8413
G1 X-4.1 Z-2.0
G1 X-16.4
G1 X-16.7 Z-1.7104
G1 X-17.0 Z-1.3618
G1 X-17.3 Z-0.9764
G1 X-17.6 Z-0.5589
G1 X-17.9 Z-0.0814
G1 X-18.2 Z0.0
G1 X-20.75
G0 Z3.0
G0 X0.75 Y32.4
G0 Z2.0
G1 F300.0 Z0.0
G1 F800.0 X-2.3
G1 X-2.6 Z-0.2695
G1 X-2.9 Z-0.73
G1 X-3.2 Z-1.1365
G1 X-3.5 Z-1.4991
G1 X-3.8 Z-1.8413
G1 X-4.1 Z-2.0
G1 X-16.4
G1 X-16.7 Z-1.7104
G1 X-17.0 Z-1.3618
G1 X-17.3 Z-0.9764
G1 X-17.6 Z-0.5589
G1 X-17.9 Z-0.0814
G1 X-18.2 Z0.0
G1 X-20.75
G0 Z3.0
G0 X0.75 Y31.8
G0 Z2.0
G1 F300.0 Z0.0
G1 F800.0 X-2.3
G1 X-2.6 Z-0.2695
G1 X-2.9 Z-0.73
G1 X-3.2 Z-1.1365
G1 X-3.5 Z-1.4991
G1 X-3.8 Z-1.8413
G1 X-4.1 Z-2.0
G1 X-16.4
G1 X-16.7 Z-1.7104
G1 X-17.0 Z-1.3618
G1 X-17.3 Z-0.9764
G1 X-17.6 Z-0.5589
G1 X-17.9 Z-0.0814
G1 X-18.2 Z0.0
G1 X-20.75
G0 Z3.0
G0 X0.75 Y31.2
G0 Z2.0
G1 F300.0 Z0.0
G1 F800.0 X-2.3
G1 X-2.6 Z-0.2695
G1 X-2.9 Z-0.73
G1 X-3.2 Z-1.1365
G1 X-3.5 Z-1.4991
G1 X-3.8 Z-1.8413
G1 X-4.1 Z-2.0
G1 X-16.4
G1 X-16.7 Z-1.7104
G1 X-17.0 Z-1.3618
G1 X-17.3 Z-0.9764
G1 X-17.6 Z-0.5589
G1 X-17.9 Z-0.0814
G1 X-18.2 Z0.0
G1 X-20.75
G0 Z3.0
G0 X0.75 Y30.6
G0 Z2.0
G1 F300.0 Z0.0
G1 F800.0 X-2.3
G1 X-2.6 Z-0.2695
G1 X-2.9 Z-0.73
G1 X-3.2 Z-1.1365
G1 X-3.5 Z-1.4991
G1 X-3.8 Z-1.8413
G1 X-4.1 Z-2.0
G1 X-16.4
G1 X-16.7 Z-1.7104
G1 X-17.0 Z-1.3618
G1 X-17.3 Z-0.9764
G1 X-17.6 Z-0.5589
G1 X-17.9 Z-0.0814
G1 X-18.2 Z0.0
G1 X-20.75
G0 Z3.0
G0 X0.75 Y30.0
G0 Z2.0
G1 F300.0 Z0.0
G1 F800.0 X-2.3
G1 X-2.6 Z-0.2695
G1 X-2.9 Z-0.73
G1 X-3.2 Z-1.1365
G1 X-3.5 Z-1.4991
G1 X-3.8 Z-1.8413
G1 X-4.1 Z-2.0
G1 X-16.4
G1 X-16.7 Z-1.7104
G1 X-17.0 Z-1.3618
G1 X-17.3 Z-0.9764
G1 X-17.6 Z-0.5589
G1 X-17.9 Z-0.0814
G1 X-18.2 Z0.0
G1 X-20.75
G0 Z3.0
G0 X0.75 Y29.4
G0 Z2.0
G1 F300.0 Z0.0
G1 F800.0 X-2.3
G1 X-2.6 Z-0.2695
G1 X-2.9 Z-0.73
G1 X-3.2 Z-1.1365
G1 X-3.5 Z-1.4991
G1 X-3.8 Z-1.8413
G1 X-4.1 Z-2.0
G1 X-16.4
G1 X-16.7 Z-1.7104
G1 X-17.0 Z-1.3618
G1 X-17.3 Z-0.9764
G1 X-17.6 Z-0.5589
G1 X-17.9 Z-0.0814
G1 X-18.2 Z0.0
G1 X-20.75
G0 Z3.0
G0 X0.75 Y28.8
G0 Z2.0
G1 F300.0 Z0.0
G1 F800.0 X-2.3
G1 X-2.6 Z-0.2695
G1 X-2.9 Z-0.73
G1 X-3.2 Z-1.1365
G1 X-3.5 Z-1.4991
G1 X-3.8 Z-1.8413
G1 X-4.1 Z-2.0
G1 X-16.4
G1 X-16.7 Z-1.7104
G1 X-17.0 Z-1.3618
G1 X-17.3 Z-0.9764
G1 X-17.6 Z-0.5589
G1 X-17.9 Z-0.0814
G1 X-18.2 Z0.0
G1 X-20.75
G0 Z3.0
G0 X0.75 Y28.2
G0 Z2.0
G1 F300.0 Z0.0
G1 F800.0 X-2.3
G1 X-2.6 Z-0.2695
G1 X-2.9 Z-0.73
G1 X-3.2 Z-1.1365
G1 X-3.5 Z-1.4991
G1 X-3.8 Z-1.8413
G1 X-4.1 Z-2.0
G1 X-16.4
G1 X-16.7 Z-1.7104
G1 X-17.0 Z-1.3618
G1 X-17.3 Z-0.9764
G1 X-17.6 Z-0.5589
G1 X-17.9 Z-0.0814
G1 X-18.2 Z0.0
G1 X-20.75
G0 Z3.0
G0 X0.75 Y27.6
G0 Z2.0
G1 F300.0 Z0.0
G1 F800.0 X-2.3
G1 X-2.6 Z-0.2695
G1 X-2.9 Z-0.73
G1 X-3.2 Z-1.1365
G1 X-3.5 Z-1.4991
G1 X-3.8 Z-1.8413
G1 X-4.1 Z-2.0
G1 X-16.4
G1 X-16.7 Z-1.7104
G1 X-17.0 Z-1.3618
G1 X-17.3 Z-0.9764
G1 X-17.6 Z-0.5589
G1 X-17.9 Z-0.0814
G1 X-18.2 Z0.0
G1 X-20.75
G0 Z3.0
G0 X0.75 Y27.0
G0 Z2.0
G1 F300.0 Z0.0
G1 F800.0 X-2.3
G1 X-2.6 Z-0.2695
G1 X-2.9 Z-0.73
G1 X-3.2 Z-1.1365
G1 X-3.5 Z-1.4991
G1 X-3.8 Z-1.8413
G1 X-4.1 Z-2.0
G1 X-16.4
G1 X-16.7 Z-1.7104
G1 X-17.0 Z-1.3618
G1 X-17.3 Z-0.9764
G1 X-17.6 Z-0.5589
G1 X-17.9 Z-0.0814
G1 X-18.2 Z0.0
G1 X-20.75
G0 Z3.0
G0 X0.75 Y26.4
G0 Z2.0
G1 F300.0 Z0.0
G1 F800.0 X-2.3
G1 X-2.6 Z-0.2695
G1 X-2.9 Z-0.73
G1 X-3.2 Z-1.1365
G1 X-3.5 Z-1.4991
G1 X-3.8 Z-1.8413
G1 X-4.1 Z-2.0
G1 X-16.4
G1 X-16.7 Z-1.7104
G1 X-17.0 Z-1.3618
G1 X-17.3 Z-0.9764
G1 X-17.6 Z-0.5589
G1 X-17.9 Z-0.0814
G1 X-18.2 Z0.0
G1 X-20.75
G0 Z3.0
G0 X0.75 Y25.8
G0 Z2.0
G1 F300.0 Z0.0
G1 F800.0 X-2.3
G1 X-2.6 Z-0.2695
G1 X-2.9 Z-0.73
G1 X-3.2 Z-1.1365
G1 X-3.5 Z-1.4991
G1 X-3.8 Z-1.8413
G1 X-4.1 Z-2.0
G1 X-16.4
G1 X-16.7 Z-1.7104
G1 X-17.0 Z-1.3618
G1 X-17.3 Z-0.9764
G1 X-17.6 Z-0.5589
G1 X-17.9 Z-0.0814
G1 X-18.2 Z0.0
G1 X-20.75
G0 Z3.0
G0 X0.75 Y25.2
G0 Z2.0
G1 F300.0 Z0.0
G1 F800.0 X-2.3
G1 X-2.6 Z-0.2695
G1 X-2.9 Z-0.73
G1 X-3.2 Z-1.1365
G1 X-3.5 Z-1.4991
G1 X-3.8 Z-1.8413
G1 X-4.1 Z-2.0
G1 X-16.4
G1 X-16.7 Z-1.7104
G1 X-17.0 Z-1.3618
G1 X-17.3 Z-0.9764
G1 X-17.6 Z-0.5589
G1 X-17.9 Z-0.0814
G1 X-18.2 Z0.0
G1 X-20.75
G0 Z3.0
G0 X0.75 Y24.6
G0 Z2.0
G1 F300.0 Z0.0
G1 F800.0 X-2.3
G1 X-2.6 Z-0.2695
G1 X-2.9 Z-0.73
G1 X-3.2 Z-1.1365
G1 X-3.5 Z-1.4991
G1 X-3.8 Z-1.8413
G1 X-4.1 Z-2.0
G1 X-16.4
G1 X-16.7 Z-1.7104
G1 X-17.0 Z-1.3618
G1 X-17.3 Z-0.9764
G1 X-17.6 Z-0.5589
G1 X-17.9 Z-0.0814
G1 X-18.2 Z0.0
G1 X-20.75
G0 Z3.0
G0 X0.75 Y24.0
G0 Z2.0
G1 F300.0 Z0.0
G1 F800.0 X-2.3
G1 X-2.6 Z-0.2695
G1 X-2.9 Z-0.73
G1 X-3.2 Z-1.1365
G1 X-3.5 Z-1.4991
G1 X-3.8 Z-1.8413
G1 X-4.1 Z-2.0
G1 X-16.4
G1 X-16.7 Z-1.7104
G1 X-17.0 Z-1.3618
G1 X-17.3 Z-0.9764
G1 X-17.6 Z-0.5589
G1 X-17.9 Z-0.0814
G1 X-18.2 Z0.0
G1 X-20.75
G0 Z3.0
G0 X0.75 Y23.4
G0 Z2.0
G1 F300.0 Z0.0
G1 F800.0 X-2.3
G1 X-2.6 Z-0.2695
G1 X-2.9 Z-0.73
G1 X-3.2 Z-1.1365
G1 X-3.5 Z-1.4991
G1 X-3.8 Z-1.8413
G1 X-4.1 Z-2.0
G1 X-16.4
G1 X-16.7 Z-1.7104
G1 X-17.0 Z-1.3618
G1 X-17.3 Z-0.9764
G1 X-17.6 Z-0.5589
G1 X-17.9 Z-0.0814
G1 X-18.2 Z0.0
G1 X-20.75
G0 Z3.0
G0 X0.75 Y22.8
G0 Z2.0
G1 F300.0 Z0.0
G1 F800.0 X-2.3
G1 X-2.6 Z-0.2695
G1 X-2.9 Z-0.73
G1 X-3.2 Z-1.1365
G1 X-3.5 Z-1.4991
G1 X-3.8 Z-1.8413
G1 X-4.1 Z-2.0
G1 X-16.4
G1 X-16.7 Z-1.7104
G1 X-17.0 Z-1.3618
G1 X-17.3 Z-0.9764
G1 X-17.6 Z-0.5589
G1 X-17.9 Z-0.0814
G1 X-18.2 Z0.0
G1 X-20.75
G0 Z3.0
G0 X0.75 Y22.2
G0 Z2.0
G1 F300.0 Z0.0
G1 F800.0 X-2.3
G1 X-2.6 Z-0.2695
G1 X-2.9 Z-0.73
G1 X-3.2 Z-1.1365
G1 X-3.5 Z-1.4991
G1 X-3.8 Z-1.8413
G1 X-4.1 Z-2.0
G1 X-16.4
G1 X-16.7 Z-1.7104
G1 X-17.0 Z-1.3618
G1 X-17.3 Z-0.9764
G1 X-17.6 Z-0.5589
G1 X-17.9 Z-0.0814
G1 X-18.2 Z0.0
G1 X-20.75
G0 Z3.0
G0 X0.75 Y21.6
G0 Z2.0
G1 F300.0 Z0.0
G1 F800.0 X-2.3
G1 X-2.6 Z-0.2695
G1 X-2.9 Z-0.73
G1 X-3.2 Z-1.1365
G1 X-3.5 Z-1.4991
G1 X-3.8 Z-1.8413
G1 X-4.1 Z-2.0
G1 X-16.4
G1 X-16.7 Z-1.7104
G1 X-17.0 Z-1.3618
G1 X-17.3 Z-0.9764
G1 X-17.6 Z-0.5589
G1 X-17.9 Z-0.0814
G1 X-18.2 Z0.0
G1 X-20.75
G0 Z3.0
G0 X0.75 Y21.0
G0 Z2.0
G1 F300.0 Z0.0
G1 F800.0 X-2.3
G1 X-2.6 Z-0.2695
G1 X-2.9 Z-0.73
G1 X-3.2 Z-1.1365
G1 X-3.5 Z-1.4991
G1 X-3.8 Z-1.8413
G1 X-4.1 Z-2.0
G1 X-16.4
G1 X-16.7 Z-1.7104
G1 X-17.0 Z-1.3618
G1 X-17.3 Z-0.9764
G1 X-17.6 Z-0.5589
G1 X-17.9 Z-0.0814
G1 X-18.2 Z0.0
G1 X-20.75
G0 Z3.0
G0 X0.75 Y20.4
G0 Z2.0
G1 F300.0 Z0.0
G1 F800.0 X-2.3
G1 X-2.6 Z-0.2695
G1 X-2.9 Z-0.73
G1 X-3.2 Z-1.1365
G1 X-3.5 Z-1.4991
G1 X-3.8 Z-1.8413
G1 X-4.1 Z-2.0
G1 X-16.4
G1 X-16.7 Z-1.7104
G1 X-17.0 Z-1.3618
G1 X-17.3 Z-0.9764
G1 X-17.6 Z-0.5589
G1 X-17.9 Z-0.0814
G1 X-18.2 Z0.0
G1 X-20.75
G0 Z3.0
G0 X0.75 Y19.8
G0 Z2.0
G1 F300.0 Z0.0
G1 F800.0 X-2.3
G1 X-2.6 Z-0.2695
G1 X-2.9 Z-0.73
G1 X-3.2 Z-1.1365
G1 X-3.5 Z-1.4991
G1 X-3.8 Z-1.8413
G1 X-4.1 Z-2.0
G1 X-16.4
G1 X-16.7 Z-1.7104
G1 X-17.0 Z-1.3618
G1 X-17.3 Z-0.9764
G1 X-17.6 Z-0.5589
G1 X-17.9 Z-0.0814
G1 X-18.2 Z0.0
G1 X-20.75
G0 Z3.0
G0 X0.75 Y19.2
G0 Z2.0
G1 F300.0 Z0.0
G1 F800.0 X-2.3
G1 X-2.6 Z-0.2695
G1 X-2.9 Z-0.73
G1 X-3.2 Z-1.1365
G1 X-3.5 Z-1.4991
G1 X-3.8 Z-1.8413
G1 X-4.1 Z-2.0
G1 X-16.4
G1 X-16.7 Z-1.7104
G1 X-17.0 Z-1.3618
G1 X-17.3 Z-0.9764
G1 X-17.6 Z-0.5589
G1 X-17.9 Z-0.0814
G1 X-18.2 Z0.0
G1 X-20.75
G0 Z3.0
G0 X0.75 Y18.6
G0 Z2.0
G1 F300.0 Z0.0
G1 F800.0 X-2.3
G1 X-2.6 Z-0.2695
G1 X-2.9 Z-0.73
G1 X-3.2 Z-1.1365
G1 X-3.5 Z-1.4991
G1 X-3.8 Z-1.8413
G1 X-4.1 Z-2.0
G1 X-16.4
G1 X-16.7 Z-1.7104
G1 X-17.0 Z-1.3618
G1 X-17.3 Z-0.9764
G1 X-17.6 Z-0.5589
G1 X-17.9 Z-0.0814
G1 X-18.2 Z0.0
G1 X-20.75
G0 Z3.0
G0 X0.75 Y18.0
G0 Z2.0
G1 F300.0 Z0.0
G1 F800.0 X-2.3
G1 X-2.6 Z-0.2695
G1 X-2.9 Z-0.73
G1 X-3.2 Z-1.1365
G1 X-3.5 Z-1.4991
G1 X-3.8 Z-1.8413
G1 X-4.1 Z-2.0
G1 X-16.4
G1 X-16.7 Z-1.7104
G1 X-17.0 Z-1.3618
G1 X-17.3 Z-0.9764
G1 X-17.6 Z-0.5589
G1 X-17.9 Z-0.0814
G1 X-18.2 Z0.0
G1 X-20.75
G0 Z3.0
G0 X0.75 Y17.4
G0 Z2.0
G1 F300.0 Z0.0
G1 F800.0 X-2.3
G1 X-2.6 Z-0.2695
G1 X-2.9 Z-0.73
G1 X-3.2 Z-1.1365
G1 X-3.5 Z-1.4991
G1 X-3.8 Z-1.8413
G1 X-4.1 Z-2.0
G1 X-16.4
G1 X-16.7 Z-1.7104
G1 X-17.0 Z-1.3618
G1 X-17.3 Z-0.9764
G1 X-17.6 Z-0.5589
G1 X-17.9 Z-0.0814
G1 X-18.2 Z0.0
G1 X-20.75
G0 Z3.0
G0 X0.75 Y16.8
G0 Z2.0
G1 F300.0 Z0.0
G1 F800.0 X-2.3
G1 X-2.6 Z-0.2695
G1 X-2.9 Z-0.73
G1 X-3.2 Z-1.1365
G1 X-3.5 Z-1.4991
G1 X-3.8 Z-1.8413
G1 X-4.1 Z-2.0
G1 X-16.4
G1 X-16.7 Z-1.7104
G1 X-17.0 Z-1.3618
G1 X-17.3 Z-0.9764
G1 X-17.6 Z-0.5589
G1 X-17.9 Z-0.0814
G1 X-18.2 Z0.0
G1 X-20.75
G0 Z3.0
G0 X0.75 Y16.2
G0 Z2.0
G1 F300.0 Z0.0
G1 F800.0 X-2.3
G1 X-2.6 Z-0.2695
G1 X-2.9 Z-0.73
G1 X-3.2 Z-1.1365
G1 X-3.5 Z-1.4991
G1 X-3.8 Z-1.8413
G1 X-4.1 Z-2.0
G1 X-16.4
G1 X-16.7 Z-1.7104
G1 X-17.0 Z-1.3618
G1 X-17.3 Z-0.9764
G1 X-17.6 Z-0.5589
G1 X-17.9 Z-0.0814
G1 X-18.2 Z0.0
G1 X-20.75
G0 Z3.0
G0 X0.75 Y15.6
G0 Z2.0
G1 F300.0 Z0.0
G1 F800.0 X-2.3
G1 X-2.6 Z-0.2695
G1 X-2.9 Z-0.73
G1 X-3.2 Z-1.1365
G1 X-3.5 Z-1.4991
G1 X-3.8 Z-1.8413
G1 X-4.1 Z-2.0
G1 X-16.4
G1 X-16.7 Z-1.7104
G1 X-17.0 Z-1.3618
G1 X-17.3 Z-0.9764
G1 X-17.6 Z-0.5589
G1 X-17.9 Z-0.0814
G1 X-18.2 Z0.0
G1 X-20.75
G0 Z3.0
G0 X0.75 Y15.0
G0 Z2.0
G1 F300.0 Z0.0
G1 F800.0 X-2.3
G1 X-2.6 Z-0.2695
G1 X-2.9 Z-0.73
G1 X-3.2 Z-1.1365
G1 X-3.5 Z-1.4991
G1 X-3.8 Z-1.8413
G1 X-4.1 Z-2.0
G1 X-16.4
G1 X-16.7 Z-1.7104
G1 X-17.0 Z-1.3618
G1 X-17.3 Z-0.9764
G1 X-17.6 Z-0.5589
G1 X-17.9 Z-0.0814
G1 X-18.2 Z0.0
G1 X-20.75
G0 Z3.0
G0 X0.75 Y14.4
G0 Z2.0
G1 F300.0 Z0.0
G1 F800.0 X-2.3
G1 X-2.6 Z-0.2695
G1 X-2.9 Z-0.73
G1 X-3.2 Z-1.1365
G1 X-3.5 Z-1.4991
G1 X-3.8 Z-1.8413
G1 X-4.1 Z-2.0
G1 X-16.4
G1 X-16.7 Z-1.7104
G1 X-17.0 Z-1.3618
G1 X-17.3 Z-0.9764
G1 X-17.6 Z-0.5589
G1 X-17.9 Z-0.0814
G1 X-18.2 Z0.0
G1 X-20.75
G0 Z3.0
G0 X0.75 Y13.8
G0 Z2.0
G1 F300.0 Z0.0
G1 F800.0 X-2.3
G1 X-2.6 Z-0.2695
G1 X-2.9 Z-0.73
G1 X-3.2 Z-1.1365
G1 X-3.5 Z-1.4991
G1 X-3.8 Z-1.8413
G1 X-4.1 Z-2.0
G1 X-16.4
G1 X-16.7 Z-1.7104
G1 X-17.0 Z-1.3618
G1 X-17.3 Z-0.9764
G1 X-17.6 Z-0.5589
G1 X-17.9 Z-0.0814
G1 X-18.2 Z0.0
G1 X-20.75
G0 Z3.0
G0 X0.75 Y13.2
G0 Z2.0
G1 F300.0 Z0.0
G1 F800.0 X-2.3
G1 X-2.6 Z-0.2695
G1 X-2.9 Z-0.73
G1 X-3.2 Z-1.1365
G1 X-3.5 Z-1.4991
G1 X-3.8 Z-1.8413
G1 X-4.1 Z-2.0
G1 X-16.4
G1 X-16.7 Z-1.7104
G1 X-17.0 Z-1.3618
G1 X-17.3 Z-0.9764
G1 X-17.6 Z-0.5589
G1 X-17.9 Z-0.0814
G1 X-18.2 Z0.0
G1 X-20.75
G0 Z3.0
G0 X0.75 Y12.6
G0 Z2.0
G1 F300.0 Z0.0
G1 F800.0 X-2.3
G1 X-2.6 Z-0.2695
G1 X-2.9 Z-0.73
G1 X-3.2 Z-1.1365
G1 X-3.5 Z-1.4991
G1 X-3.8 Z-1.8413
G1 X-4.1 Z-2.0
G1 X-16.4
G1 X-16.7 Z-1.7104
G1 X-17.0 Z-1.3618
G1 X-17.3 Z-0.9764
G1 X-17.6 Z-0.5589
G1 X-17.9 Z-0.0814
G1 X-18.2 Z0.0
G1 X-20.75
G0 Z3.0
G0 X0.75 Y12.0
G0 Z2.0
G1 F300.0 Z0.0
G1 F800.0 X-2.3
G1 X-2.6 Z-0.2695
G1 X-2.9 Z-0.73
G1 X-3.2 Z-1.1365
G1 X-3.5 Z-1.4991
G1 X-3.8 Z-1.8413
G1 X-4.1 Z-2.0
G1 X-16.4
G1 X-16.7 Z-1.7104
G1 X-17.0 Z-1.3618
G1 X-17.3 Z-0.9764
G1 X-17.6 Z-0.5589
G1 X-17.9 Z-0.0814
G1 X-18.2 Z0.0
G1 X-20.75
G0 Z3.0
G0 X0.75 Y11.4
G0 Z2.0
G1 F300.0 Z0.0
G1 F800.0 X-2.3
G1 X-2.6 Z-0.2695
G1 X-2.9 Z-0.73
G1 X-3.2 Z-1.1365
G1 X-3.5 Z-1.4991
G1 X-3.8 Z-1.8413
G1 X-4.1 Z-2.0
G1 X-16.4
G1 X-16.7 Z-1.7104
G1 X-17.0 Z-1.3618
G1 X-17.3 Z-0.9764
G1 X-17.6 Z-0.5589
G1 X-17.9 Z-0.0814
G1 X-18.2 Z0.0
G1 X-20.75
G0 Z3.0
G0 X0.75 Y10.8
G0 Z2.0
G1 F300.0 Z0.0
G1 F800.0 X-2.3
G1 X-2.6 Z-0.2695
G1 X-2.9 Z-0.73
G1 X-3.2 Z-1.1365
G1 X-3.5 Z-1.4991
G1 X-3.8 Z-1.8413
G1 X-4.1 Z-2.0
G1 X-16.4
G1 X-16.7 Z-1.7104
G1 X-17.0 Z-1.3618
G1 X-17.3 Z-0.9764
G1 X-17.6 Z-0.5589
G1 X-17.9 Z-0.0814
G1 X-18.2 Z0.0
G1 X-20.75
G0 Z3.0
G0 X0.75 Y10.2
G0 Z2.0
G1 F300.0 Z0.0
G1 F800.0 X-2.3
G1 X-2.6 Z-0.2695
G1 X-2.9 Z-0.73
G1 X-3.2 Z-1.1365
G1 X-3.5 Z-1.4991
G1 X-3.8 Z-1.8413
G1 X-4.1 Z-2.0
G1 X-16.4
G1 X-16.7 Z-1.7104
G1 X-17.0 Z-1.3618
G1 X-17.3 Z-0.9764
G1 X-17.6 Z-0.5589
G1 X-17.9 Z-0.0814
G1 X-18.2 Z0.0
G1 X-20.75
G0 Z3.0
G0 X0.75 Y9.6
G0 Z2.0
G1 F300.0 Z0.0
G1 F800.0 X-2.3
G1 X-2.6 Z-0.2695
G1 X-2.9 Z-0.73
G1 X-3.2 Z-1.1365
G1 X-3.5 Z-1.4991
G1 X-3.8 Z-1.8413
G1 X-4.1 Z-2.0
G1 X-16.4
G1 X-16.7 Z-1.7104
G1 X-17.0 Z-1.3618
G1 X-17.3 Z-0.9764
G1 X-17.6 Z-0.5589
G1 X-17.9 Z-0.0814
G1 X-18.2 Z0.0
G1 X-20.75
G0 Z3.0
G0 X0.75 Y9.0
G0 Z2.0
G1 F300.0 Z0.0
G1 F800.0 X-2.3
G1 X-2.6 Z-0.2695
G1 X-2.9 Z-0.73
G1 X-3.2 Z-1.1365
G1 X-3.5 Z-1.4991
G1 X-3.8 Z-1.8413
G1 X-4.1 Z-2.0
G1 X-16.4
G1 X-16.7 Z-1.7104
G1 X-17.0 Z-1.3618
G1 X-17.3 Z-0.9764
G1 X-17.6 Z-0.5589
G1 X-17.9 Z-0.0814
G1 X-18.2 Z0.0
G1 X-20.75
G0 Z3.0
G0 X0.75 Y8.4
G0 Z2.0
G1 F300.0 Z0.0
G1 F800.0 X-2.3
G1 X-2.6 Z-0.2695
G1 X-2.9 Z-0.73
G1 X-3.2 Z-1.1365
G1 X-3.5 Z-1.4991
G1 X-3.8 Z-1.8413
G1 X-4.1 Z-2.0
G1 X-16.4
G1 X-16.7 Z-1.7104
G1 X-17.0 Z-1.3618
G1 X-17.3 Z-0.9764
G1 X-17.6 Z-0.5589
G1 X-17.9 Z-0.0814
G1 X-18.2 Z0.0
G1 X-20.75
G0 Z3.0
G0 X0.75 Y7.8
G0 Z2.0
G1 F300.0 Z0.0
G1 F800.0 X-2.3
G1 X-2.6 Z-0.2695
G1 X-2.9 Z-0.73
G1 X-3.2 Z-1.1365
G1 X-3.5 Z-1.4991
G1 X-3.8 Z-1.8413
G1 X-4.1 Z-2.0
G1 X-16.4
G1 X-16.7 Z-1.7104
G1 X-17.0 Z-1.3618
G1 X-17.3 Z-0.9764
G1 X-17.6 Z-0.5589
G1 X-17.9 Z-0.0814
G1 X-18.2 Z0.0
G1 X-20.75
G0 Z3.0
G0 X0.75 Y7.2
G0 Z2.0
G1 F300.0 Z0.0
G1 F800.0 X-2.3
G1 X-2.6 Z-0.2695
G1 X-2.9 Z-0.73
G1 X-3.2 Z-1.1365
G1 X-3.5 Z-1.4991
G1 X-3.8 Z-1.8413
G1 X-4.1 Z-2.0
G1 X-16.4
G1 X-16.7 Z-1.7104
G1 X-17.0 Z-1.3618
G1 X-17.3 Z-0.9764
G1 X-17.6 Z-0.5589
G1 X-17.9 Z-0.0814
G1 X-18.2 Z0.0
G1 X-20.75
G0 Z3.0
G0 X0.75 Y6.6
G0 Z2.0
G1 F300.0 Z0.0
G1 F800.0 X-2.3
G1 X-2.6 Z-0.2695
G1 X-2.9 Z-0.73
G1 X-3.2 Z-1.1365
G1 X-3.5 Z-1.4991
G1 X-3.8 Z-1.8413
G1 X-4.1 Z-2.0
G1 X-16.4
G1 X-16.7 Z-1.7104
G1 X-17.0 Z-1.3618
G1 X-17.3 Z-0.9764
G1 X-17.6 Z-0.5589
G1 X-17.9 Z-0.0814
G1 X-18.2 Z0.0
G1 X-20.75
G0 Z3.0
G0 X0.75 Y6.0
G0 Z2.0
G1 F300.0 Z0.0
G1 F800.0 X-2.3
G1 X-2.6 Z-0.2695
G1 X-2.9 Z-0.73
G1 X-3.2 Z-1.1365
G1 X-3.5 Z-1.4991
G1 X-3.8 Z-1.8413
G1 X-4.1 Z-2.0
G1 X-16.4
G1 X-16.7 Z-1.7104
G1 X-17.0 Z-1.3618
G1 X-17.3 Z-0.9764
G1 X-17.6 Z-0.5589
G1 X-17.9 Z-0.0814
G1 X-18.2 Z0.0
G1 X-20.75
G0 Z3.0
G0 X0.75 Y5.4
G0 Z2.0
G1 F300.0 Z0.0
G1 F800.0 X-2.3
G1 X-2.6 Z-0.2695
G1 X-2.9 Z-0.73
G1 X-3.2 Z-1.1365
G1 X-3.5 Z-1.4991
G1 X-3.8 Z-1.8413
G1 X-4.1 Z-2.0
G1 X-16.4
G1 X-16.7 Z-1.7104
G1 X-17.0 Z-1.3618
G1 X-17.3 Z-0.9764
G1 X-17.6 Z-0.5589
G1 X-17.9 Z-0.0814
G1 X-18.2 Z0.0
G1 X-20.75
G0 Z3.0
G0 X0.75 Y4.8
G0 Z2.0
G1 F300.0 Z0.0
G1 F800.0 X-2.3
G1 X-2.6 Z-0.2695
G1 X-2.9 Z-0.73
G1 X-3.2 Z-1.1365
G1 X-3.5 Z-1.4991
G1 X-3.8 Z-1.8413
G1 X-4.1 Z-2.0
G1 X-16.4
G1 X-16.7 Z-1.7104
G1 X-17.0 Z-1.3618
G1 X-17.3 Z-0.9764
G1 X-17.6 Z-0.5589
G1 X-17.9 Z-0.0814
G1 X-18.2 Z0.0
G1 X-20.75
G0 Z3.0
G0 X0.75 Y4.2
G0 Z2.0
G1 F300.0 Z0.0
G1 F800.0 X-2.3
G1 X-2.6 Z-0.2695
G1 X-2.9 Z-0.73
G1 X-3.2 Z-1.1365
G1 X-3.5 Z-1.4991
G1 X-3.8 Z-1.8413
G1 X-4.1 Z-2.0
G1 X-16.4
G1 X-16.7 Z-1.7104
G1 X-17.0 Z-1.3618
G1 X-17.3 Z-0.9764
G1 X-17.6 Z-0.5589
G1 X-17.9 Z-0.0814
G1 X-18.2 Z0.0
G1 X-20.75
G0 Z3.0
G0 X0.75 Y3.6
G0 Z2.0
G1 F300.0 Z0.0
G1 F800.0 X-2.3
G1 X-2.6 Z-0.2695
G1 X-2.9 Z-0.73
G1 X-3.2 Z-1.1365
G1 X-3.5 Z-1.4991
G1 X-3.8 Z-1.8413
G1 X-4.1 Z-2.0
G1 X-16.4
G1 X-16.7 Z-1.7104
G1 X-17.0 Z-1.3618
G1 X-17.3 Z-0.9764
G1 X-17.6 Z-0.5589
G1 X-17.9 Z-0.0814
G1 X-18.2 Z0.0
G1 X-20.75
G0 Z3.0
G0 X0.75 Y3.0
G0 Z2.0
G1 F300.0 Z0.0
G1 F800.0 X-2.3
G1 X-2.6 Z-0.2695
G1 X-2.9 Z-0.73
G1 X-3.2 Z-1.1365
G1 X-3.5 Z-1.4991
G1 X-3.8 Z-1.8413
G1 X-4.1 Z-2.0
G1 X-16.4
G1 X-16.7 Z-1.7104
G1 X-17.0 Z-1.3618
G1 X-17.3 Z-0.9764
G1 X-17.6 Z-0.5589
G1 X-17.9 Z-0.0814
G1 X-18.2 Z0.0
G1 X-20.75
G0 Z3.0
G0 X0.75 Y2.4
G0 Z2.0
G1 F300.0 Z0.0
G1 F800.0 X-2.3
G1 X-2.6 Z-0.2695
G1 X-2.9 Z-0.73
G1 X-3.2 Z-1.1365
G1 X-3.5 Z-1.4991
G1 X-3.8 Z-1.8413
G1 X-4.1 Z-2.0
G1 X-16.4
G1 X-16.7 Z-1.7104
G1 X-17.0 Z-1.3618
G1 X-17.3 Z-0.9764
G1 X-17.6 Z-0.5589
G1 X-17.9 Z-0.0814
G1 X-18.2 Z0.0
G1 X-20.75
G0 Z3.0
G0 X0.75 Y1.8
G0 Z2.0
G1 F300.0 Z0.0
G1 F800.0 X-2.3
G1 X-2.6 Z-0.2695
G1 X-2.9 Z-0.73
G1 X-3.2 Z-1.1365
G1 X-3.5 Z-1.4991
G1 X-3.8 Z-1.8413
G1 X-4.1 Z-2.0
G1 X-16.4
G1 X-16.7 Z-1.7104
G1 X-17.0 Z-1.3618
G1 X-17.3 Z-0.9764
G1 X-17.6 Z-0.5589
G1 X-17.9 Z-0.0814
G1 X-18.2 Z0.0
G1 X-20.75
G0 Z3.0
G0 X0.75 Y1.2
G0 Z2.0
G1 F300.0 Z0.0
G1 F800.0 X-2.3
G1 X-2.6 Z-0.2695
G1 X-2.9 Z-0.73
G1 X-3.2 Z-1.1365
G1 X-3.5 Z-1.4991
G1 X-3.8 Z-1.8413
G1 X-4.1 Z-2.0
G1 X-16.4
G1 X-16.7 Z-1.7104
G1 X-17.0 Z-1.3618
G1 X-17.3 Z-0.9764
G1 X-17.6 Z-0.5589
G1 X-17.9 Z-0.0814
G1 X-18.2 Z0.0
G1 X-20.75
G0 Z3.0
G0 X0.75 Y0.6
G0 Z2.0
G1 F300.0 Z0.0
G1 F800.0 X-2.3
G1 X-2.6 Z-0.2695
G1 X-2.9 Z-0.73
G1 X-3.2 Z-1.1365
G1 X-3.5 Z-1.4991
G1 X-3.8 Z-1.8413
G1 X-4.1 Z-2.0
G1 X-16.4
G1 X-16.7 Z-1.7104
G1 X-17.0 Z-1.3618
G1 X-17.3 Z-0.9764
G1 X-17.6 Z-0.5589
G1 X-17.9 Z-0.0814
G1 X-18.2 Z0.0
G1 X-20.75
G0 Z3.0
G0 X0.75 Y0.0
G0 Z2.0
G1 F300.0 Z0.0
G1 F800.0 X-2.3
G1 X-2.6 Z-0.2695
G1 X-2.9 Z-0.73
G1 X-3.2 Z-1.1365
G1 X-3.5 Z-1.4991
G1 X-3.8 Z-1.8413
G1 X-4.1 Z-2.0
G1 X-16.4
G1 X-16.7 Z-1.7104
G1 X-17.0 Z-1.3618
G1 X-17.3 Z-0.9764
G1 X-17.6 Z-0.5589
G1 X-17.9 Z-0.0814
G1 X-18.2 Z0.0
G1 X-20.75
G0 Z3.0
G0 X0.45 Y-0.6
G0 Z2.0
G1 F300.0 Z0.0
G1 F800.0 X-2.0
G1 X-2.3 Z-0.2695
G1 X-2.6 Z-0.73
G1 X-2.9 Z-1.1365
G1 X-3.2 Z-1.4991
G1 X-3.5 Z-1.8413
G1 X-3.8 Z-2.0
G1 X-16.7
G1 X-17.0 Z-1.7104
G1 X-17.3 Z-1.3618
G1 X-17.6 Z-0.9764
G1 X-17.9 Z-0.5589
G1 X-18.2 Z-0.0814
G1 X-18.5 Z0.0
G1 X-20.45
G1 F300.0 X-20.6874 Y-0.3
G1 F800.0 X-18.2
G1 X-17.9 Z-0.0814
G1 X-17.6 Z-0.5589
G1 X-17.3 Z-0.9764
G1 X-17.0 Z-1.3618
G1 X-16.7 Z-1.7104
G1 X-16.4 Z-2.0232
G1 X-16.1 Z-2.3232
G1 X-15.8 Z-2.5824
G1 X-15.5 Z-2.8374
G1 X-15.2 Z-3.0
G1 X-5.3
G1 X-5.0 Z-2.9246
G1 X-4.7 Z-2.684
G1 X-4.4 Z-2.4259
G1 X-4.1 Z-2.1413
G1 X-3.8 Z-1.8413
G1 X-3.5 Z-1.4991
G1 X-3.2 Z-1.1365
G1 X-2.9 Z-0.73
G1 X-2.6 Z-0.2695
G1 X-2.3 Z0.0
G1 X0.4
G1 X0.6874
G0 Z3.0
G0 X-20.75 Y0.3
G0 Z1.0
G1 F300.0 Z0.0
G1 F800.0 X-18.2
G1 X-17.9 Z-0.0814
G1 X-17.6 Z-0.5589
G1 X-17.3 Z-0.9764
G1 X-17.0 Z-1.3618
G1 X-16.7 Z-1.7104
G1 X-16.4 Z-2.0232
G1 X-16.1 Z-2.3232
G1 X-15.8 Z-2.5824
G1 X-15.5 Z-2.8374
G1 X-15.2 Z-3.0
G1 X-5.3
G1 X-5.0 Z-2.9246
G1 X-4.7 Z-2.684
G1 X-4.4 Z-2.4259
G1 X-4.1 Z-2.1413
G1 X-3.8 Z-1.8413
G1 X-3.5 Z-1.4991
G1 X-3.2 Z-1.1365
G1 X-2.9 Z-0.73
G1 X-2.6 Z-0.2695
G1 X-2.3 Z0.0
G1 X0.75
G0 Z3.0
G0 X-20.75 Y0.9
G0 Z1.0
G1 F300.0 Z0.0
G1 F800.0 X-18.2
G1 X-17.9 Z-0.0814
G1 X-17.6 Z-0.5589
G1 X-17.3 Z-0.9764
G1 X-17.0 Z-1.3618
G1 X-16.7 Z-1.7104
G1 X-16.4 Z-2.0232
G1 X-16.1 Z-2.3232
G1 X-15.8 Z-2.5824
G1 X-15.5 Z-2.8374
G1 X-15.2 Z-3.0
G1 X-5.3
G1 X-5.0 Z-2.9246
G1 X-4.7 Z-2.684
G1 X-4.4 Z-2.4259
G1 X-4.1 Z-2.1413
G1 X-3.8 Z-1.8413
G1 X-3.5 Z-1.4991
G1 X-3.2 Z-1.1365
G1 X-2.9 Z-0.73
G1 X-2.6 Z-0.2695
G1 X-2.3 Z0.0
G1 X0.75
G0 Z3.0
G0 X-20.75 Y1.5
G0 Z1.0
G1 F300.0 Z0.0
G1 F800.0 X-18.2
G1 X-17.9 Z-0.0814
G1 X-17.6 Z-0.5589
G1 X-17.3 Z-0.9764
G1 X-17.0 Z-1.3618
G1 X-16.7 Z-1.7104
G1 X-16.4 Z-2.0232
G1 X-16.1 Z-2.3232
G1 X-15.8 Z-2.5824
G1 X-15.5 Z-2.8374
G1 X-15.2 Z-3.0
G1 X-5.3
G1 X-5.0 Z-2.9246
G1 X-4.7 Z-2.684
G1 X-4.4 Z-2.4259
G1 X-4.1 Z-2.1413
G1 X-3.8 Z-1.8413
G1 X-3.5 Z-1.4991
G1 X-3.2 Z-1.1365
G1 X-2.9 Z-0.73
G1 X-2.6 Z-0.2695
G1 X-2.3 Z0.0
G1 X0.75
G0 Z3.0
G0 X-20.75 Y2.1
G0 Z1.0
G1 F300.0 Z0.0
G1 F800.0 X-18.2
G1 X-17.9 Z-0.0814
G1 X-17.6 Z-0.5589
G1 X-17.3 Z-0.9764
G1 X-17.0 Z-1.3618
G1 X-16.7 Z-1.7104
G1 X-16.4 Z-2.0232
G1 X-16.1 Z-2.3232
G1 X-15.8 Z-2.5824
G1 X-15.5 Z-2.8374
G1 X-15.2 Z-3.0
G1 X-5.3
G1 X-5.0 Z-2.9246
G1 X-4.7 Z-2.684
G1 X-4.4 Z-2.4259
G1 X-4.1 Z-2.1413
G1 X-3.8 Z-1.8413
G1 X-3.5 Z-1.4991
G1 X-3.2 Z-1.1365
G1 X-2.9 Z-0.73
G1 X-2.6 Z-0.2695
G1 X-2.3 Z0.0
G1 X0.75
G0 Z3.0
G0 X-20.75 Y2.7
G0 Z1.0
G1 F300.0 Z0.0
G1 F800.0 X-18.2
G1 X-17.9 Z-0.0814
G1 X-17.6 Z-0.5589
G1 X-17.3 Z-0.9764
G1 X-17.0 Z-1.3618
G1 X-16.7 Z-1.7104
G1 X-16.4 Z-2.0232
G1 X-16.1 Z-2.3232
G1 X-15.8 Z-2.5824
G1 X-15.5 Z-2.8374
G1 X-15.2 Z-3.0
G1 X-5.3
G1 X-5.0 Z-2.9246
G1 X-4.7 Z-2.684
G1 X-4.4 Z-2.4259
G1 X-4.1 Z-2.1413
G1 X-3.8 Z-1.8413
G1 X-3.5 Z-1.4991
G1 X-3.2 Z-1.1365
G1 X-2.9 Z-0.73
G1 X-2.6 Z-0.2695
G1 X-2.3 Z0.0
G1 X0.75
G0 Z3.0
G0 X-20.75 Y3.3
G0 Z1.0
G1 F300.0 Z0.0
G1 F800.0 X-18.2
G1 X-17.9 Z-0.0814
G1 X-17.6 Z-0.5589
G1 X-17.3 Z-0.9764
G1 X-17.0 Z-1.3618
G1 X-16.7 Z-1.7104
G1 X-16.4 Z-2.0232
G1 X-16.1 Z-2.3232
G1 X-15.8 Z-2.5824
G1 X-15.5 Z-2.8374
G1 X-15.2 Z-3.0
G1 X-5.3
G1 X-5.0 Z-2.9246
G1 X-4.7 Z-2.684
G1 X-4.4 Z-2.4259
G1 X-4.1 Z-2.1413
G1 X-3.8 Z-1.8413
G1 X-3.5 Z-1.4991
G1 X-3.2 Z-1.1365
G1 X-2.9 Z-0.73
G1 X-2.6 Z-0.2695
G1 X-2.3 Z0.0
G1 X0.75
G0 Z3.0
G0 X-20.75 Y3.9
G0 Z1.0
G1 F300.0 Z0.0
G1 F800.0 X-18.2
G1 X-17.9 Z-0.0814
G1 X-17.6 Z-0.5589
G1 X-17.3 Z-0.9764
G1 X-17.0 Z-1.3618
G1 X-16.7 Z-1.7104
G1 X-16.4 Z-2.0232
G1 X-16.1 Z-2.3232
G1 X-15.8 Z-2.5824
G1 X-15.5 Z-2.8374
G1 X-15.2 Z-3.0
G1 X-5.3
G1 X-5.0 Z-2.9246
G1 X-4.7 Z-2.684
G1 X-4.4 Z-2.4259
G1 X-4.1 Z-2.1413
G1 X-3.8 Z-1.8413
G1 X-3.5 Z-1.4991
G1 X-3.2 Z-1.1365
G1 X-2.9 Z-0.73
G1 X-2.6 Z-0.2695
G1 X-2.3 Z0.0
G1 X0.75
G0 Z3.0
G0 X-20.75 Y4.5
G0 Z1.0
G1 F300.0 Z0.0
G1 F800.0 X-18.2
G1 X-17.9 Z-0.0814
G1 X-17.6 Z-0.5589
G1 X-17.3 Z-0.9764
G1 X-17.0 Z-1.3618
G1 X-16.7 Z-1.7104
G1 X-16.4 Z-2.0232
G1 X-16.1 Z-2.3232
G1 X-15.8 Z-2.5824
G1 X-15.5 Z-2.8374
G1 X-15.2 Z-3.0
G1 X-5.3
G1 X-5.0 Z-2.9246
G1 X-4.7 Z-2.684
G1 X-4.4 Z-2.4259
G1 X-4.1 Z-2.1413
G1 X-3.8 Z-1.8413
G1 X-3.5 Z-1.4991
G1 X-3.2 Z-1.1365
G1 X-2.9 Z-0.73
G1 X-2.6 Z-0.2695
G1 X-2.3 Z0.0
G1 X0.75
G0 Z3.0
G0 X-20.75 Y5.1
G0 Z1.0
G1 F300.0 Z0.0
G1 F800.0 X-18.2
G1 X-17.9 Z-0.0814
G1 X-17.6 Z-0.5589
G1 X-17.3 Z-0.9764
G1 X-17.0 Z-1.3618
G1 X-16.7 Z-1.7104
G1 X-16.4 Z-2.0232
G1 X-16.1 Z-2.3232
G1 X-15.8 Z-2.5824
G1 X-15.5 Z-2.8374
G1 X-15.2 Z-3.0
G1 X-5.3
G1 X-5.0 Z-2.9246
G1 X-4.7 Z-2.684
G1 X-4.4 Z-2.4259
G1 X-4.1 Z-2.1413
G1 X-3.8 Z-1.8413
G1 X-3.5 Z-1.4991
G1 X-3.2 Z-1.1365
G1 X-2.9 Z-0.73
G1 X-2.6 Z-0.2695
G1 X-2.3 Z0.0
G1 X0.75
G0 Z3.0
G0 X-20.75 Y5.7
G0 Z1.0
G1 F300.0 Z0.0
G1 F800.0 X-18.2
G1 X-17.9 Z-0.0814
G1 X-17.6 Z-0.5589
G1 X-17.3 Z-0.9764
G1 X-17.0 Z-1.3618
G1 X-16.7 Z-1.7104
G1 X-16.4 Z-2.0232
G1 X-16.1 Z-2.3232
G1 X-15.8 Z-2.5824
G1 X-15.5 Z-2.8374
G1 X-15.2 Z-3.0
G1 X-5.3
G1 X-5.0 Z-2.9246
G1 X-4.7 Z-2.684
G1 X-4.4 Z-2.4259
G1 X-4.1 Z-2.1413
G1 X-3.8 Z-1.8413
G1 X-3.5 Z-1.4991
G1 X-3.2 Z-1.1365
G1 X-2.9 Z-0.73
G1 X-2.6 Z-0.2695
G1 X-2.3 Z0.0
G1 X0.75
G0 Z3.0
G0 X-20.75 Y6.3
G0 Z1.0
G1 F300.0 Z0.0
G1 F800.0 X-18.2
G1 X-17.9 Z-0.0814
G1 X-17.6 Z-0.5589
G1 X-17.3 Z-0.9764
G1 X-17.0 Z-1.3618
G1 X-16.7 Z-1.7104
G1 X-16.4 Z-2.0232
G1 X-16.1 Z-2.3232
G1 X-15.8 Z-2.5824
G1 X-15.5 Z-2.8374
G1 X-15.2 Z-3.0
G1 X-5.3
G1 X-5.0 Z-2.9246
G1 X-4.7 Z-2.684
G1 X-4.4 Z-2.4259
G1 X-4.1 Z-2.1413
G1 X-3.8 Z-1.8413
G1 X-3.5 Z-1.4991
G1 X-3.2 Z-1.1365
G1 X-2.9 Z-0.73
G1 X-2.6 Z-0.2695
G1 X-2.3 Z0.0
G1 X0.75
G0 Z3.0
G0 X-20.75 Y6.9
G0 Z1.0
G1 F300.0 Z0.0
G1 F800.0 X-18.2
G1 X-17.9 Z-0.0814
G1 X-17.6 Z-0.5589
G1 X-17.3 Z-0.9764
G1 X-17.0 Z-1.3618
G1 X-16.7 Z-1.7104
G1 X-16.4 Z-2.0232
G1 X-16.1 Z-2.3232
G1 X-15.8 Z-2.5824
G1 X-15.5 Z-2.8374
G1 X-15.2 Z-3.0
G1 X-5.3
G1 X-5.0 Z-2.9246
G1 X-4.7 Z-2.684
G1 X-4.4 Z-2.4259
G1 X-4.1 Z-2.1413
G1 X-3.8 Z-1.8413
G1 X-3.5 Z-1.4991
G1 X-3.2 Z-1.1365
G1 X-2.9 Z-0.73
G1 X-2.6 Z-0.2695
G1 X-2.3 Z0.0
G1 X0.75
G0 Z3.0
G0 X-20.75 Y7.5
G0 Z1.0
G1 F300.0 Z0.0
G1 F800.0 X-18.2
G1 X-17.9 Z-0.0814
G1 X-17.6 Z-0.5589
G1 X-17.3 Z-0.9764
G1 X-17.0 Z-1.3618
G1 X-16.7 Z-1.7104
G1 X-16.4 Z-2.0232
G1 X-16.1 Z-2.3232
G1 X-15.8 Z-2.5824
G1 X-15.5 Z-2.8374
G1 X-15.2 Z-3.0
G1 X-5.3
G1 X-5.0 Z-2.9246
G1 X-4.7 Z-2.684
G1 X-4.4 Z-2.4259
G1 X-4.1 Z-2.1413
G1 X-3.8 Z-1.8413
G1 X-3.5 Z-1.4991
G1 X-3.2 Z-1.1365
G1 X-2.9 Z-0.73
G1 X-2.6 Z-0.2695
G1 X-2.3 Z0.0
G1 X0.75
G0 Z3.0
G0 X-20.75 Y8.1
G0 Z1.0
G1 F300.0 Z0.0
G1 F800.0 X-18.2
G1 X-17.9 Z-0.0814
G1 X-17.6 Z-0.5589
G1 X-17.3 Z-0.9764
G1 X-17.0 Z-1.3618
G1 X-16.7 Z-1.7104
G1 X-16.4 Z-2.0232
G1 X-16.1 Z-2.3232
G1 X-15.8 Z-2.5824
G1 X-15.5 Z-2.8374
G1 X-15.2 Z-3.0
G1 X-5.3
G1 X-5.0 Z-2.9246
G1 X-4.7 Z-2.684
G1 X-4.4 Z-2.4259
G1 X-4.1 Z-2.1413
G1 X-3.8 Z-1.8413
G1 X-3.5 Z-1.4991
G1 X-3.2 Z-1.1365
G1 X-2.9 Z-0.73
G1 X-2.6 Z-0.2695
G1 X-2.3 Z0.0
G1 X0.75
G0 Z3.0
G0 X-20.75 Y8.7
G0 Z1.0
G1 F300.0 Z0.0
G1 F800.0 X-18.2
G1 X-17.9 Z-0.0814
G1 X-17.6 Z-0.5589
G1 X-17.3 Z-0.9764
G1 X-17.0 Z-1.3618
G1 X-16.7 Z-1.7104
G1 X-16.4 Z-2.0232
G1 X-16.1 Z-2.3232
G1 X-15.8 Z-2.5824
G1 X-15.5 Z-2.8374
G1 X-15.2 Z-3.0
G1 X-5.3
G1 X-5.0 Z-2.9246
G1 X-4.7 Z-2.684
G1 X-4.4 Z-2.4259
G1 X-4.1 Z-2.1413
G1 X-3.8 Z-1.8413
G1 X-3.5 Z-1.4991
G1 X-3.2 Z-1.1365
G1 X-2.9 Z-0.73
G1 X-2.6 Z-0.2695
G1 X-2.3 Z0.0
G1 X0.75
G0 Z3.0
G0 X-20.75 Y9.3
G0 Z1.0
G1 F300.0 Z0.0
G1 F800.0 X-18.2
G1 X-17.9 Z-0.0814
G1 X-17.6 Z-0.5589
G1 X-17.3 Z-0.9764
G1 X-17.0 Z-1.3618
G1 X-16.7 Z-1.7104
G1 X-16.4 Z-2.0232
G1 X-16.1 Z-2.3232
G1 X-15.8 Z-2.5824
G1 X-15.5 Z-2.8374
G1 X-15.2 Z-3.0
G1 X-5.3
G1 X-5.0 Z-2.9246
G1 X-4.7 Z-2.684
G1 X-4.4 Z-2.4259
G1 X-4.1 Z-2.1413
G1 X-3.8 Z-1.8413
G1 X-3.5 Z-1.4991
G1 X-3.2 Z-1.1365
G1 X-2.9 Z-0.73
G1 X-2.6 Z-0.2695
G1 X-2.3 Z0.0
G1 X0.75
G0 Z3.0
G0 X-20.75 Y9.9
G0 Z1.0
G1 F300.0 Z0.0
G1 F800.0 X-18.2
G1 X-17.9 Z-0.0814
G1 X-17.6 Z-0.5589
G1 X-17.3 Z-0.9764
G1 X-17.0 Z-1.3618
G1 X-16.7 Z-1.7104
G1 X-16.4 Z-2.0232
G1 X-16.1 Z-2.3232
G1 X-15.8 Z-2.5824
G1 X-15.5 Z-2.8374
G1 X-15.2 Z-3.0
G1 X-5.3
G1 X-5.0 Z-2.9246
G1 X-4.7 Z-2.684
G1 X-4.4 Z-2.4259
G1 X-4.1 Z-2.1413
G1 X-3.8 Z-1.8413
G1 X-3.5 Z-1.4991
G1 X-3.2 Z-1.1365
G1 X-2.9 Z-0.73
G1 X-2.6 Z-0.2695
G1 X-2.3 Z0.0
G1 X0.75
G0 Z3.0
G0 X-20.75 Y10.5
G0 Z1.0
G1 F300.0 Z0.0
G1 F800.0 X-18.2
G1 X-17.9 Z-0.0814
G1 X-17.6 Z-0.5589
G1 X-17.3 Z-0.9764
G1 X-17.0 Z-1.3618
G1 X-16.7 Z-1.7104
G1 X-16.4 Z-2.0232
G1 X-16.1 Z-2.3232
G1 X-15.8 Z-2.5824
G1 X-15.5 Z-2.8374
G1 X-15.2 Z-3.0
G1 X-5.3
G1 X-5.0 Z-2.9246
G1 X-4.7 Z-2.684
G1 X-4.4 Z-2.4259
G1 X-4.1 Z-2.1413
G1 X-3.8 Z-1.8413
G1 X-3.5 Z-1.4991
G1 X-3.2 Z-1.1365
G1 X-2.9 Z-0.73
G1 X-2.6 Z-0.2695
G1 X-2.3 Z0.0
G1 X0.75
G0 Z3.0
G0 X-20.75 Y11.1
G0 Z1.0
G1 F300.0 Z0.0
G1 F800.0 X-18.2
G1 X-17.9 Z-0.0814
G1 X-17.6 Z-0.5589
G1 X-17.3 Z-0.9764
G1 X-17.0 Z-1.3618
G1 X-16.7 Z-1.7104
G1 X-16.4 Z-2.0232
G1 X-16.1 Z-2.3232
G1 X-15.8 Z-2.5824
G1 X-15.5 Z-2.8374
G1 X-15.2 Z-3.0
G1 X-5.3
G1 X-5.0 Z-2.9246
G1 X-4.7 Z-2.684
G1 X-4.4 Z-2.4259
G1 X-4.1 Z-2.1413
G1 X-3.8 Z-1.8413
G1 X-3.5 Z-1.4991
G1 X-3.2 Z-1.1365
G1 X-2.9 Z-0.73
G1 X-2.6 Z-0.2695
G1 X-2.3 Z0.0
G1 X0.75
G0 Z3.0
G0 X-20.75 Y11.7
G0 Z1.0
G1 F300.0 Z0.0
G1 F800.0 X-18.2
G1 X-17.9 Z-0.0814
G1 X-17.6 Z-0.5589
G1 X-17.3 Z-0.9764
G1 X-17.0 Z-1.3618
G1 X-16.7 Z-1.7104
G1 X-16.4 Z-2.0232
G1 X-16.1 Z-2.3232
G1 X-15.8 Z-2.5824
G1 X-15.5 Z-2.8374
G1 X-15.2 Z-3.0
G1 X-5.3
G1 X-5.0 Z-2.9246
G1 X-4.7 Z-2.684
G1 X-4.4 Z-2.4259
G1 X-4.1 Z-2.1413
G1 X-3.8 Z-1.8413
G1 X-3.5 Z-1.4991
G1 X-3.2 Z-1.1365
G1 X-2.9 Z-0.73
G1 X-2.6 Z-0.2695
G1 X-2.3 Z0.0
G1 X0.75
G0 Z3.0
G0 X-20.75 Y12.3
G0 Z1.0
G1 F300.0 Z0.0
G1 F800.0 X-18.2
G1 X-17.9 Z-0.0814
G1 X-17.6 Z-0.5589
G1 X-17.3 Z-0.9764
G1 X-17.0 Z-1.3618
G1 X-16.7 Z-1.7104
G1 X-16.4 Z-2.0232
G1 X-16.1 Z-2.3232
G1 X-15.8 Z-2.5824
G1 X-15.5 Z-2.8374
G1 X-15.2 Z-3.0
G1 X-5.3
G1 X-5.0 Z-2.9246
G1 X-4.7 Z-2.684
G1 X-4.4 Z-2.4259
G1 X-4.1 Z-2.1413
G1 X-3.8 Z-1.8413
G1 X-3.5 Z-1.4991
G1 X-3.2 Z-1.1365
G1 X-2.9 Z-0.73
G1 X-2.6 Z-0.2695
G1 X-2.3 Z0.0
G1 X0.75
G0 Z3.0
G0 X-20.75 Y12.9
G0 Z1.0
G1 F300.0 Z0.0
G1 F800.0 X-18.2
G1 X-17.9 Z-0.0814
G1 X-17.6 Z-0.5589
G1 X-17.3 Z-0.9764
G1 X-17.0 Z-1.3618
G1 X-16.7 Z-1.7104
G1 X-16.4 Z-2.0232
G1 X-16.1 Z-2.3232
G1 X-15.8 Z-2.5824
G1 X-15.5 Z-2.8374
G1 X-15.2 Z-3.0
G1 X-5.3
G1 X-5.0 Z-2.9246
G1 X-4.7 Z-2.684
G1 X-4.4 Z-2.4259
G1 X-4.1 Z-2.1413
G1 X-3.8 Z-1.8413
G1 X-3.5 Z-1.4991
G1 X-3.2 Z-1.1365
G1 X-2.9 Z-0.73
G1 X-2.6 Z-0.2695
G1 X-2.3 Z0.0
G1 X0.75
G0 Z3.0
G0 X-20.75 Y13.5
G0 Z1.0
G1 F300.0 Z0.0
G1 F800.0 X-18.2
G1 X-17.9 Z-0.0814
G1 X-17.6 Z-0.5589
G1 X-17.3 Z-0.9764
G1 X-17.0 Z-1.3618
G1 X-16.7 Z-1.7104
G1 X-16.4 Z-2.0232
G1 X-16.1 Z-2.3232
G1 X-15.8 Z-2.5824
G1 X-15.5 Z-2.8374
G1 X-15.2 Z-3.0
G1 X-5.3
G1 X-5.0 Z-2.9246
G1 X-4.7 Z-2.684
G1 X-4.4 Z-2.4259
G1 X-4.1 Z-2.1413
G1 X-3.8 Z-1.8413
G1 X-3.5 Z-1.4991
G1 X-3.2 Z-1.1365
G1 X-2.9 Z-0.73
G1 X-2.6 Z-0.2695
G1 X-2.3 Z0.0
G1 X0.75
G0 Z3.0
G0 X-20.75 Y14.1
G0 Z1.0
G1 F300.0 Z0.0
G1 F800.0 X-18.2
G1 X-17.9 Z-0.0814
G1 X-17.6 Z-0.5589
G1 X-17.3 Z-0.9764
G1 X-17.0 Z-1.3618
G1 X-16.7 Z-1.7104
G1 X-16.4 Z-2.0232
G1 X-16.1 Z-2.3232
G1 X-15.8 Z-2.5824
G1 X-15.5 Z-2.8374
G1 X-15.2 Z-3.0
G1 X-5.3
G1 X-5.0 Z-2.9246
G1 X-4.7 Z-2.684
G1 X-4.4 Z-2.4259
G1 X-4.1 Z-2.1413
G1 X-3.8 Z-1.8413
G1 X-3.5 Z-1.4991
G1 X-3.2 Z-1.1365
G1 X-2.9 Z-0.73
G1 X-2.6 Z-0.2695
G1 X-2.3 Z0.0
G1 X0.75
G0 Z3.0
G0 X-20.75 Y14.7
G0 Z1.0
G1 F300.0 Z0.0
G1 F800.0 X-18.2
G1 X-17.9 Z-0.0814
G1 X-17.6 Z-0.5589
G1 X-17.3 Z-0.9764
G1 X-17.0 Z-1.3618
G1 X-16.7 Z-1.7104
G1 X-16.4 Z-2.0232
G1 X-16.1 Z-2.3232
G1 X-15.8 Z-2.5824
G1 X-15.5 Z-2.8374
G1 X-15.2 Z-3.0
G1 X-5.3
G1 X-5.0 Z-2.9246
G1 X-4.7 Z-2.684
G1 X-4.4 Z-2.4259
G1 X-4.1 Z-2.1413
G1 X-3.8 Z-1.8413
G1 X-3.5 Z-1.4991
G1 X-3.2 Z-1.1365
G1 X-2.9 Z-0.73
G1 X-2.6 Z-0.2695
G1 X-2.3 Z0.0
G1 X0.75
G0 Z3.0
G0 X-20.75 Y15.3
G0 Z1.0
G1 F300.0 Z0.0
G1 F800.0 X-18.2
G1 X-17.9 Z-0.0814
G1 X-17.6 Z-0.5589
G1 X-17.3 Z-0.9764
G1 X-17.0 Z-1.3618
G1 X-16.7 Z-1.7104
G1 X-16.4 Z-2.0232
G1 X-16.1 Z-2.3232
G1 X-15.8 Z-2.5824
G1 X-15.5 Z-2.8374
G1 X-15.2 Z-3.0
G1 X-5.3
G1 X-5.0 Z-2.9246
G1 X-4.7 Z-2.684
G1 X-4.4 Z-2.4259
G1 X-4.1 Z-2.1413
G1 X-3.8 Z-1.8413
G1 X-3.5 Z-1.4991
G1 X-3.2 Z-1.1365
G1 X-2.9 Z-0.73
G1 X-2.6 Z-0.2695
G1 X-2.3 Z0.0
G1 X0.75
G0 Z3.0
G0 X-20.75 Y15.9
G0 Z1.0
G1 F300.0 Z0.0
G1 F800.0 X-18.2
G1 X-17.9 Z-0.0814
G1 X-17.6 Z-0.5589
G1 X-17.3 Z-0.9764
G1 X-17.0 Z-1.3618
G1 X-16.7 Z-1.7104
G1 X-16.4 Z-2.0232
G1 X-16.1 Z-2.3232
G1 X-15.8 Z-2.5824
G1 X-15.5 Z-2.8374
G1 X-15.2 Z-3.0
G1 X-5.3
G1 X-5.0 Z-2.9246
G1 X-4.7 Z-2.684
G1 X-4.4 Z-2.4259
G1 X-4.1 Z-2.1413
G1 X-3.8 Z-1.8413
G1 X-3.5 Z-1.4991
G1 X-3.2 Z-1.1365
G1 X-2.9 Z-0.73
G1 X-2.6 Z-0.2695
G1 X-2.3 Z0.0
G1 X0.75
G0 Z3.0
G0 X-20.75 Y16.5
G0 Z1.0
G1 F300.0 Z0.0
G1 F800.0 X-18.2
G1 X-17.9 Z-0.0814
G1 X-17.6 Z-0.5589
G1 X-17.3 Z-0.9764
G1 X-17.0 Z-1.3618
G1 X-16.7 Z-1.7104
G1 X-16.4 Z-2.0232
G1 X-16.1 Z-2.3232
G1 X-15.8 Z-2.5824
G1 X-15.5 Z-2.8374
G1 X-15.2 Z-3.0
G1 X-5.3
G1 X-5.0 Z-2.9246
G1 X-4.7 Z-2.684
G1 X-4.4 Z-2.4259
G1 X-4.1 Z-2.1413
G1 X-3.8 Z-1.8413
G1 X-3.5 Z-1.4991
G1 X-3.2 Z-1.1365
G1 X-2.9 Z-0.73
G1 X-2.6 Z-0.2695
G1 X-2.3 Z0.0
G1 X0.75
G0 Z3.0
G0 X-20.75 Y17.1
G0 Z1.0
G1 F300.0 Z0.0
G1 F800.0 X-18.2
G1 X-17.9 Z-0.0814
G1 X-17.6 Z-0.5589
G1 X-17.3 Z-0.9764
G1 X-17.0 Z-1.3618
G1 X-16.7 Z-1.7104
G1 X-16.4 Z-2.0232
G1 X-16.1 Z-2.3232
G1 X-15.8 Z-2.5824
G1 X-15.5 Z-2.8374
G1 X-15.2 Z-3.0
G1 X-5.3
G1 X-5.0 Z-2.9246
G1 X-4.7 Z-2.684
G1 X-4.4 Z-2.4259
G1 X-4.1 Z-2.1413
G1 X-3.8 Z-1.8413
G1 X-3.5 Z-1.4991
G1 X-3.2 Z-1.1365
G1 X-2.9 Z-0.73
G1 X-2.6 Z-0.2695
G1 X-2.3 Z0.0
G1 X0.75
G0 Z3.0
G0 X-20.75 Y17.7
G0 Z1.0
G1 F300.0 Z0.0
G1 F800.0 X-18.2
G1 X-17.9 Z-0.0814
G1 X-17.6 Z-0.5589
G1 X-17.3 Z-0.9764
G1 X-17.0 Z-1.3618
G1 X-16.7 Z-1.7104
G1 X-16.4 Z-2.0232
G1 X-16.1 Z-2.3232
G1 X-15.8 Z-2.5824
G1 X-15.5 Z-2.8374
G1 X-15.2 Z-3.0
G1 X-5.3
G1 X-5.0 Z-2.9246
G1 X-4.7 Z-2.684
G1 X-4.4 Z-2.4259
G1 X-4.1 Z-2.1413
G1 X-3.8 Z-1.8413
G1 X-3.5 Z-1.4991
G1 X-3.2 Z-1.1365
G1 X-2.9 Z-0.73
G1 X-2.6 Z-0.2695
G1 X-2.3 Z0.0
G1 X0.75
G0 Z3.0
G0 X-20.75 Y18.3
G0 Z1.0
G1 F300.0 Z0.0
G1 F800.0 X-18.2
G1 X-17.9 Z-0.0814
G1 X-17.6 Z-0.5589
G1 X-17.3 Z-0.9764
G1 X-17.0 Z-1.3618
G1 X-16.7 Z-1.7104
G1 X-16.4 Z-2.0232
G1 X-16.1 Z-2.3232
G1 X-15.8 Z-2.5824
G1 X-15.5 Z-2.8374
G1 X-15.2 Z-3.0
G1 X-5.3
G1 X-5.0 Z-2.9246
G1 X-4.7 Z-2.684
G1 X-4.4 Z-2.4259
G1 X-4.1 Z-2.1413
G1 X-3.8 Z-1.8413
G1 X-3.5 Z-1.4991
G1 X-3.2 Z-1.1365
G1 X-2.9 Z-0.73
G1 X-2.6 Z-0.2695
G1 X-2.3 Z0.0
G1 X0.75
G0 Z3.0
G0 X-20.75 Y18.9
G0 Z1.0
G1 F300.0 Z0.0
G1 F800.0 X-18.2
G1 X-17.9 Z-0.0814
G1 X-17.6 Z-0.5589
G1 X-17.3 Z-0.9764
G1 X-17.0 Z-1.3618
G1 X-16.7 Z-1.7104
G1 X-16.4 Z-2.0232
G1 X-16.1 Z-2.3232
G1 X-15.8 Z-2.5824
G1 X-15.5 Z-2.8374
G1 X-15.2 Z-3.0
G1 X-5.3
G1 X-5.0 Z-2.9246
G1 X-4.7 Z-2.684
G1 X-4.4 Z-2.4259
G1 X-4.1 Z-2.1413
G1 X-3.8 Z-1.8413
G1 X-3.5 Z-1.4991
G1 X-3.2 Z-1.1365
G1 X-2.9 Z-0.73
G1 X-2.6 Z-0.2695
G1 X-2.3 Z0.0
G1 X0.75
G0 Z3.0
G0 X-20.75 Y19.5
G0 Z1.0
G1 F300.0 Z0.0
G1 F800.0 X-18.2
G1 X-17.9 Z-0.0814
G1 X-17.6 Z-0.5589
G1 X-17.3 Z-0.9764
G1 X-17.0 Z-1.3618
G1 X-16.7 Z-1.7104
G1 X-16.4 Z-2.0232
G1 X-16.1 Z-2.3232
G1 X-15.8 Z-2.5824
G1 X-15.5 Z-2.8374
G1 X-15.2 Z-3.0
G1 X-5.3
G1 X-5.0 Z-2.9246
G1 X-4.7 Z-2.684
G1 X-4.4 Z-2.4259
G1 X-4.1 Z-2.1413
G1 X-3.8 Z-1.8413
G1 X-3.5 Z-1.4991
G1 X-3.2 Z-1.1365
G1 X-2.9 Z-0.73
G1 X-2.6 Z-0.2695
G1 X-2.3 Z0.0
G1 X0.75
G0 Z3.0
G0 X-20.75 Y20.1
G0 Z1.0
G1 F300.0 Z0.0
G1 F800.0 X-18.2
G1 X-17.9 Z-0.0814
G1 X-17.6 Z-0.5589
G1 X-17.3 Z-0.9764
G1 X-17.0 Z-1.3618
G1 X-16.7 Z-1.7104
G1 X-16.4 Z-2.0232
G1 X-16.1 Z-2.3232
G1 X-15.8 Z-2.5824
G1 X-15.5 Z-2.8374
G1 X-15.2 Z-3.0
G1 X-5.3
G1 X-5.0 Z-2.9246
G1 X-4.7 Z-2.684
G1 X-4.4 Z-2.4259
G1 X-4.1 Z-2.1413
G1 X-3.8 Z-1.8413
G1 X-3.5 Z-1.4991
G1 X-3.2 Z-1.1365
G1 X-2.9 Z-0.73
G1 X-2.6 Z-0.2695
G1 X-2.3 Z0.0
G1 X0.75
G0 Z3.0
G0 X-20.75 Y20.7
G0 Z1.0
G1 F300.0 Z0.0
G1 F800.0 X-18.2
G1 X-17.9 Z-0.0814
G1 X-17.6 Z-0.5589
G1 X-17.3 Z-0.9764
G1 X-17.0 Z-1.3618
G1 X-16.7 Z-1.7104
G1 X-16.4 Z-2.0232
G1 X-16.1 Z-2.3232
G1 X-15.8 Z-2.5824
G1 X-15.5 Z-2.8374
G1 X-15.2 Z-3.0
G1 X-5.3
G1 X-5.0 Z-2.9246
G1 X-4.7 Z-2.684
G1 X-4.4 Z-2.4259
G1 X-4.1 Z-2.1413
G1 X-3.8 Z-1.8413
G1 X-3.5 Z-1.4991
G1 X-3.2 Z-1.1365
G1 X-2.9 Z-0.73
G1 X-2.6 Z-0.2695
G1 X-2.3 Z0.0
G1 X0.75
G0 Z3.0
G0 X-20.75 Y21.3
G0 Z1.0
G1 F300.0 Z0.0
G1 F800.0 X-18.2
G1 X-17.9 Z-0.0814
G1 X-17.6 Z-0.5589
G1 X-17.3 Z-0.9764
G1 X-17.0 Z-1.3618
G1 X-16.7 Z-1.7104
G1 X-16.4 Z-2.0232
G1 X-16.1 Z-2.3232
G1 X-15.8 Z-2.5824
G1 X-15.5 Z-2.8374
G1 X-15.2 Z-3.0
G1 X-5.3
G1 X-5.0 Z-2.9246
G1 X-4.7 Z-2.684
G1 X-4.4 Z-2.4259
G1 X-4.1 Z-2.1413
G1 X-3.8 Z-1.8413
G1 X-3.5 Z-1.4991
G1 X-3.2 Z-1.1365
G1 X-2.9 Z-0.73
G1 X-2.6 Z-0.2695
G1 X-2.3 Z0.0
G1 X0.75
G0 Z3.0
G0 X-20.75 Y21.9
G0 Z1.0
G1 F300.0 Z0.0
G1 F800.0 X-18.2
G1 X-17.9 Z-0.0814
G1 X-17.6 Z-0.5589
G1 X-17.3 Z-0.9764
G1 X-17.0 Z-1.3618
G1 X-16.7 Z-1.7104
G1 X-16.4 Z-2.0232
G1 X-16.1 Z-2.3232
G1 X-15.8 Z-2.5824
G1 X-15.5 Z-2.8374
G1 X-15.2 Z-3.0
G1 X-5.3
G1 X-5.0 Z-2.9246
G1 X-4.7 Z-2.684
G1 X-4.4 Z-2.4259
G1 X-4.1 Z-2.1413
G1 X-3.8 Z-1.8413
G1 X-3.5 Z-1.4991
G1 X-3.2 Z-1.1365
G1 X-2.9 Z-0.73
G1 X-2.6 Z-0.2695
G1 X-2.3 Z0.0
G1 X0.75
G0 Z3.0
G0 X-20.75 Y22.5
G0 Z1.0
G1 F300.0 Z0.0
G1 F800.0 X-18.2
G1 X-17.9 Z-0.0814
G1 X-17.6 Z-0.5589
G1 X-17.3 Z-0.9764
G1 X-17.0 Z-1.3618
G1 X-16.7 Z-1.7104
G1 X-16.4 Z-2.0232
G1 X-16.1 Z-2.3232
G1 X-15.8 Z-2.5824
G1 X-15.5 Z-2.8374
G1 X-15.2 Z-3.0
G1 X-5.3
G1 X-5.0 Z-2.9246
G1 X-4.7 Z-2.684
G1 X-4.4 Z-2.4259
G1 X-4.1 Z-2.1413
G1 X-3.8 Z-1.8413
G1 X-3.5 Z-1.4991
G1 X-3.2 Z-1.1365
G1 X-2.9 Z-0.73
G1 X-2.6 Z-0.2695
G1 X-2.3 Z0.0
G1 X0.75
G0 Z3.0
G0 X-20.75 Y23.1
G0 Z1.0
G1 F300.0 Z0.0
G1 F800.0 X-18.2
G1 X-17.9 Z-0.0814
G1 X-17.6 Z-0.5589
G1 X-17.3 Z-0.9764
G1 X-17.0 Z-1.3618
G1 X-16.7 Z-1.7104
G1 X-16.4 Z-2.0232
G1 X-16.1 Z-2.3232
G1 X-15.8 Z-2.5824
G1 X-15.5 Z-2.8374
G1 X-15.2 Z-3.0
G1 X-5.3
G1 X-5.0 Z-2.9246
G1 X-4.7 Z-2.684
G1 X-4.4 Z-2.4259
G1 X-4.1 Z-2.1413
G1 X-3.8 Z-1.8413
G1 X-3.5 Z-1.4991
G1 X-3.2 Z-1.1365
G1 X-2.9 Z-0.73
G1 X-2.6 Z-0.2695
G1 X-2.3 Z0.0
G1 X0.75
G0 Z3.0
G0 X-20.75 Y23.7
G0 Z1.0
G1 F300.0 Z0.0
G1 F800.0 X-18.2
G1 X-17.9 Z-0.0814
G1 X-17.6 Z-0.5589
G1 X-17.3 Z-0.9764
G1 X-17.0 Z-1.3618
G1 X-16.7 Z-1.7104
G1 X-16.4 Z-2.0232
G1 X-16.1 Z-2.3232
G1 X-15.8 Z-2.5824
G1 X-15.5 Z-2.8374
G1 X-15.2 Z-3.0
G1 X-5.3
G1 X-5.0 Z-2.9246
G1 X-4.7 Z-2.684
G1 X-4.4 Z-2.4259
G1 X-4.1 Z-2.1413
G1 X-3.8 Z-1.8413
G1 X-3.5 Z-1.4991
G1 X-3.2 Z-1.1365
G1 X-2.9 Z-0.73
G1 X-2.6 Z-0.2695
G1 X-2.3 Z0.0
G1 X0.75
G0 Z3.0
G0 X-20.75 Y24.3
G0 Z1.0
G1 F300.0 Z0.0
G1 F800.0 X-18.2
G1 X-17.9 Z-0.0814
G1 X-17.6 Z-0.5589
G1 X-17.3 Z-0.9764
G1 X-17.0 Z-1.3618
G1 X-16.7 Z-1.7104
G1 X-16.4 Z-2.0232
G1 X-16.1 Z-2.3232
G1 X-15.8 Z-2.5824
G1 X-15.5 Z-2.8374
G1 X-15.2 Z-3.0
G1 X-5.3
G1 X-5.0 Z-2.9246
G1 X-4.7 Z-2.684
G1 X-4.4 Z-2.4259
G1 X-4.1 Z-2.1413
G1 X-3.8 Z-1.8413
G1 X-3.5 Z-1.4991
G1 X-3.2 Z-1.1365
G1 X-2.9 Z-0.73
G1 X-2.6 Z-0.2695
G1 X-2.3 Z0.0
G1 X0.75
G0 Z3.0
G0 X-20.75 Y24.9
G0 Z1.0
G1 F300.0 Z0.0
G1 F800.0 X-18.2
G1 X-17.9 Z-0.0814
G1 X-17.6 Z-0.5589
G1 X-17.3 Z-0.9764
G1 X-17.0 Z-1.3618
G1 X-16.7 Z-1.7104
G1 X-16.4 Z-2.0232
G1 X-16.1 Z-2.3232
G1 X-15.8 Z-2.5824
G1 X-15.5 Z-2.8374
G1 X-15.2 Z-3.0
G1 X-5.3
G1 X-5.0 Z-2.9246
G1 X-4.7 Z-2.684
G1 X-4.4 Z-2.4259
G1 X-4.1 Z-2.1413
G1 X-3.8 Z-1.8413
G1 X-3.5 Z-1.4991
G1 X-3.2 Z-1.1365
G1 X-2.9 Z-0.73
G1 X-2.6 Z-0.2695
G1 X-2.3 Z0.0
G1 X0.75
G0 Z3.0
G0 X-20.75 Y25.5
G0 Z1.0
G1 F300.0 Z0.0
G1 F800.0 X-18.2
G1 X-17.9 Z-0.0814
G1 X-17.6 Z-0.5589
G1 X-17.3 Z-0.9764
G1 X-17.0 Z-1.3618
G1 X-16.7 Z-1.7104
G1 X-16.4 Z-2.0232
G1 X-16.1 Z-2.3232
G1 X-15.8 Z-2.5824
G1 X-15.5 Z-2.8374
G1 X-15.2 Z-3.0
G1 X-5.3
G1 X-5.0 Z-2.9246
G1 X-4.7 Z-2.684
G1 X-4.4 Z-2.4259
G1 X-4.1 Z-2.1413
G1 X-3.8 Z-1.8413
G1 X-3.5 Z-1.4991
G1 X-3.2 Z-1.1365
G1 X-2.9 Z-0.73
G1 X-2.6 Z-0.2695
G1 X-2.3 Z0.0
G1 X0.75
G0 Z3.0
G0 X-20.75 Y26.1
G0 Z1.0
G1 F300.0 Z0.0
G1 F800.0 X-18.2
G1 X-17.9 Z-0.0814
G1 X-17.6 Z-0.5589
G1 X-17.3 Z-0.9764
G1 X-17.0 Z-1.3618
G1 X-16.7 Z-1.7104
G1 X-16.4 Z-2.0232
G1 X-16.1 Z-2.3232
G1 X-15.8 Z-2.5824
G1 X-15.5 Z-2.8374
G1 X-15.2 Z-3.0
G1 X-5.3
G1 X-5.0 Z-2.9246
G1 X-4.7 Z-2.684
G1 X-4.4 Z-2.4259
G1 X-4.1 Z-2.1413
G1 X-3.8 Z-1.8413
G1 X-3.5 Z-1.4991
G1 X-3.2 Z-1.1365
G1 X-2.9 Z-0.73
G1 X-2.6 Z-0.2695
G1 X-2.3 Z0.0
G1 X0.75
G0 Z3.0
G0 X-20.75 Y26.7
G0 Z1.0
G1 F300.0 Z0.0
G1 F800.0 X-18.2
G1 X-17.9 Z-0.0814
G1 X-17.6 Z-0.5589
G1 X-17.3 Z-0.9764
G1 X-17.0 Z-1.3618
G1 X-16.7 Z-1.7104
G1 X-16.4 Z-2.0232
G1 X-16.1 Z-2.3232
G1 X-15.8 Z-2.5824
G1 X-15.5 Z-2.8374
G1 X-15.2 Z-3.0
G1 X-5.3
G1 X-5.0 Z-2.9246
G1 X-4.7 Z-2.684
G1 X-4.4 Z-2.4259
G1 X-4.1 Z-2.1413
G1 X-3.8 Z-1.8413
G1 X-3.5 Z-1.4991
G1 X-3.2 Z-1.1365
G1 X-2.9 Z-0.73
G1 X-2.6 Z-0.2695
G1 X-2.3 Z0.0
G1 X0.75
G0 Z3.0
G0 X-20.75 Y27.3
G0 Z1.0
G1 F300.0 Z0.0
G1 F800.0 X-18.2
G1 X-17.9 Z-0.0814
G1 X-17.6 Z-0.5589
G1 X-17.3 Z-0.9764
G1 X-17.0 Z-1.3618
G1 X-16.7 Z-1.7104
G1 X-16.4 Z-2.0232
G1 X-16.1 Z-2.3232
G1 X-15.8 Z-2.5824
G1 X-15.5 Z-2.8374
G1 X-15.2 Z-3.0
G1 X-5.3
G1 X-5.0 Z-2.9246
G1 X-4.7 Z-2.684
G1 X-4.4 Z-2.4259
G1 X-4.1 Z-2.1413
G1 X-3.8 Z-1.8413
G1 X-3.5 Z-1.4991
G1 X-3.2 Z-1.1365
G1 X-2.9 Z-0.73
G1 X-2.6 Z-0.2695
G1 X-2.3 Z0.0
G1 X0.75
G0 Z3.0
G0 X-20.75 Y27.9
G0 Z1.0
G1 F300.0 Z0.0
G1 F800.0 X-18.2
G1 X-17.9 Z-0.0814
G1 X-17.6 Z-0.5589
G1 X-17.3 Z-0.9764
G1 X-17.0 Z-1.3618
G1 X-16.7 Z-1.7104
G1 X-16.4 Z-2.0232
G1 X-16.1 Z-2.3232
G1 X-15.8 Z-2.5824
G1 X-15.5 Z-2.8374
G1 X-15.2 Z-3.0
G1 X-5.3
G1 X-5.0 Z-2.9246
G1 X-4.7 Z-2.684
G1 X-4.4 Z-2.4259
G1 X-4.1 Z-2.1413
G1 X-3.8 Z-1.8413
G1 X-3.5 Z-1.4991
G1 X-3.2 Z-1.1365
G1 X-2.9 Z-0.73
G1 X-2.6 Z-0.2695
G1 X-2.3 Z0.0
G1 X0.75
G0 Z3.0
G0 X-20.75 Y28.5
G0 Z1.0
G1 F300.0 Z0.0
G1 F800.0 X-18.2
G1 X-17.9 Z-0.0814
G1 X-17.6 Z-0.5589
G1 X-17.3 Z-0.9764
G1 X-17.0 Z-1.3618
G1 X-16.7 Z-1.7104
G1 X-16.4 Z-2.0232
G1 X-16.1 Z-2.3232
G1 X-15.8 Z-2.5824
G1 X-15.5 Z-2.8374
G1 X-15.2 Z-3.0
G1 X-5.3
G1 X-5.0 Z-2.9246
G1 X-4.7 Z-2.684
G1 X-4.4 Z-2.4259
G1 X-4.1 Z-2.1413
G1 X-3.8 Z-1.8413
G1 X-3.5 Z-1.4991
G1 X-3.2 Z-1.1365
G1 X-2.9 Z-0.73
G1 X-2.6 Z-0.2695
G1 X-2.3 Z0.0
G1 X0.75
G0 Z3.0
G0 X-20.75 Y29.1
G0 Z1.0
G1 F300.0 Z0.0
G1 F800.0 X-18.2
G1 X-17.9 Z-0.0814
G1 X-17.6 Z-0.5589
G1 X-17.3 Z-0.9764
G1 X-17.0 Z-1.3618
G1 X-16.7 Z-1.7104
G1 X-16.4 Z-2.0232
G1 X-16.1 Z-2.3232
G1 X-15.8 Z-2.5824
G1 X-15.5 Z-2.8374
G1 X-15.2 Z-3.0
G1 X-5.3
G1 X-5.0 Z-2.9246
G1 X-4.7 Z-2.684
G1 X-4.4 Z-2.4259
G1 X-4.1 Z-2.1413
G1 X-3.8 Z-1.8413
G1 X-3.5 Z-1.4991
G1 X-3.2 Z-1.1365
G1 X-2.9 Z-0.73
G1 X-2.6 Z-0.2695
G1 X-2.3 Z0.0
G1 X0.75
G0 Z3.0
G0 X-20.75 Y29.7
G0 Z1.0
G1 F300.0 Z0.0
G1 F800.0 X-18.2
G1 X-17.9 Z-0.0814
G1 X-17.6 Z-0.5589
G1 X-17.3 Z-0.9764
G1 X-17.0 Z-1.3618
G1 X-16.7 Z-1.7104
G1 X-16.4 Z-2.0232
G1 X-16.1 Z-2.3232
G1 X-15.8 Z-2.5824
G1 X-15.5 Z-2.8374
G1 X-15.2 Z-3.0
G1 X-5.3
G1 X-5.0 Z-2.9246
G1 X-4.7 Z-2.684
G1 X-4.4 Z-2.4259
G1 X-4.1 Z-2.1413
G1 X-3.8 Z-1.8413
G1 X-3.5 Z-1.4991
G1 X-3.2 Z-1.1365
G1 X-2.9 Z-0.73
G1 X-2.6 Z-0.2695
G1 X-2.3 Z0.0
G1 X0.75
G0 Z3.0
G0 X-20.75 Y30.3
G0 Z1.0
G1 F300.0 Z0.0
G1 F800.0 X-18.2
G1 X-17.9 Z-0.0814
G1 X-17.6 Z-0.5589
G1 X-17.3 Z-0.9764
G1 X-17.0 Z-1.3618
G1 X-16.7 Z-1.7104
G1 X-16.4 Z-2.0232
G1 X-16.1 Z-2.3232
G1 X-15.8 Z-2.5824
G1 X-15.5 Z-2.8374
G1 X-15.2 Z-3.0
G1 X-5.3
G1 X-5.0 Z-2.9246
G1 X-4.7 Z-2.684
G1 X-4.4 Z-2.4259
G1 X-4.1 Z-2.1413
G1 X-3.8 Z-1.8413
G1 X-3.5 Z-1.4991
G1 X-3.2 Z-1.1365
G1 X-2.9 Z-0.73
G1 X-2.6 Z-0.2695
G1 X-2.3 Z0.0
G1 X0.75
G0 Z3.0
G0 X-20.75 Y30.9
G0 Z1.0
G1 F300.0 Z0.0
G1 F800.0 X-18.2
G1 X-17.9 Z-0.0814
G1 X-17.6 Z-0.5589
G1 X-17.3 Z-0.9764
G1 X-17.0 Z-1.3618
G1 X-16.7 Z-1.7104
G1 X-16.4 Z-2.0232
G1 X-16.1 Z-2.3232
G1 X-15.8 Z-2.5824
G1 X-15.5 Z-2.8374
G1 X-15.2 Z-3.0
G1 X-5.3
G1 X-5.0 Z-2.9246
G1 X-4.7 Z-2.684
G1 X-4.4 Z-2.4259
G1 X-4.1 Z-2.1413
G1 X-3.8 Z-1.8413
G1 X-3.5 Z-1.4991
G1 X-3.2 Z-1.1365
G1 X-2.9 Z-0.73
G1 X-2.6 Z-0.2695
G1 X-2.3 Z0.0
G1 X0.75
G0 Z3.0
G0 X-20.75 Y31.5
G0 Z1.0
G1 F300.0 Z0.0
G1 F800.0 X-18.2
G1 X-17.9 Z-0.0814
G1 X-17.6 Z-0.5589
G1 X-17.3 Z-0.9764
G1 X-17.0 Z-1.3618
G1 X-16.7 Z-1.7104
G1 X-16.4 Z-2.0232
G1 X-16.1 Z-2.3232
G1 X-15.8 Z-2.5824
G1 X-15.5 Z-2.8374
G1 X-15.2 Z-3.0
G1 X-5.3
G1 X-5.0 Z-2.9246
G1 X-4.7 Z-2.684
G1 X-4.4 Z-2.4259
G1 X-4.1 Z-2.1413
G1 X-3.8 Z-1.8413
G1 X-3.5 Z-1.4991
G1 X-3.2 Z-1.1365
G1 X-2.9 Z-0.73
G1 X-2.6 Z-0.2695
G1 X-2.3 Z0.0
G1 X0.75
G0 Z3.0
G0 X-20.75 Y32.1
G0 Z1.0
G1 F300.0 Z0.0
G1 F800.0 X-18.2
G1 X-17.9 Z-0.0814
G1 X-17.6 Z-0.5589
G1 X-17.3 Z-0.9764
G1 X-17.0 Z-1.3618
G1 X-16.7 Z-1.7104
G1 X-16.4 Z-2.0232
G1 X-16.1 Z-2.3232
G1 X-15.8 Z-2.5824
G1 X-15.5 Z-2.8374
G1 X-15.2 Z-3.0
G1 X-5.3
G1 X-5.0 Z-2.9246
G1 X-4.7 Z-2.684
G1 X-4.4 Z-2.4259
G1 X-4.1 Z-2.1413
G1 X-3.8 Z-1.8413
G1 X-3.5 Z-1.4991
G1 X-3.2 Z-1.1365
G1 X-2.9 Z-0.73
G1 X-2.6 Z-0.2695
G1 X-2.3 Z0.0
G1 X0.75
G0 Z3.0
G0 X-20.75 Y32.7
G0 Z1.0
G1 F300.0 Z0.0
G1 F800.0 X-18.2
G1 X-17.9 Z-0.0814
G1 X-17.6 Z-0.5589
G1 X-17.3 Z-0.9764
G1 X-17.0 Z-1.3618
G1 X-16.7 Z-1.7104
G1 X-16.4 Z-2.0232
G1 X-16.1 Z-2.3232
G1 X-15.8 Z-2.5824
G1 X-15.5 Z-2.8374
G1 X-15.2 Z-3.0
G1 X-5.3
G1 X-5.0 Z-2.9246
G1 X-4.7 Z-2.684
G1 X-4.4 Z-2.4259
G1 X-4.1 Z-2.1413
G1 X-3.8 Z-1.8413
G1 X-3.5 Z-1.4991
G1 X-3.2 Z-1.1365
G1 X-2.9 Z-0.73
G1 X-2.6 Z-0.2695
G1 X-2.3 Z0.0
G1 X0.75
G0 Z3.0
G0 X-20.75 Y33.3
G0 Z1.0
G1 F300.0 Z0.0
G1 F800.0 X-18.2
G1 X-17.9 Z-0.0814
G1 X-17.6 Z-0.5589
G1 X-17.3 Z-0.9764
G1 X-17.0 Z-1.3618
G1 X-16.7 Z-1.7104
G1 X-16.4 Z-2.0232
G1 X-16.1 Z-2.3232
G1 X-15.8 Z-2.5824
G1 X-15.5 Z-2.8374
G1 X-15.2 Z-3.0
G1 X-5.3
G1 X-5.0 Z-2.9246
G1 X-4.7 Z-2.684
G1 X-4.4 Z-2.4259
G1 X-4.1 Z-2.1413
G1 X-3.8 Z-1.8413
G1 X-3.5 Z-1.4991
G1 X-3.2 Z-1.1365
G1 X-2.9 Z-0.73
G1 X-2.6 Z-0.2695
G1 X-2.3 Z0.0
G1 X0.75
G0 Z3.0
G0 X-20.75 Y33.9
G0 Z1.0
G1 F300.0 Z0.0
G1 F800.0 X-18.2
G1 X-17.9 Z-0.0814
G1 X-17.6 Z-0.5589
G1 X-17.3 Z-0.9764
G1 X-17.0 Z-1.3618
G1 X-16.7 Z-1.7104
G1 X-16.4 Z-2.0232
G1 X-16.1 Z-2.3232
G1 X-15.8 Z-2.5824
G1 X-15.5 Z-2.8374
G1 X-15.2 Z-3.0
G1 X-5.3
G1 X-5.0 Z-2.9246
G1 X-4.7 Z-2.684
G1 X-4.4 Z-2.4259
G1 X-4.1 Z-2.1413
G1 X-3.8 Z-1.8413
G1 X-3.5 Z-1.4991
G1 X-3.2 Z-1.1365
G1 X-2.9 Z-0.73
G1 X-2.6 Z-0.2695
G1 X-2.3 Z0.0
G1 X0.75
G0 Z3.0
G0 X-20.75 Y34.5
G0 Z1.0
G1 F300.0 Z0.0
G1 F800.0 X-18.2
G1 X-17.9 Z-0.0814
G1 X-17.6 Z-0.5589
G1 X-17.3 Z-0.9764
G1 X-17.0 Z-1.3618
G1 X-16.7 Z-1.7104
G1 X-16.4 Z-2.0232
G1 X-16.1 Z-2.3232
G1 X-15.8 Z-2.5824
G1 X-15.5 Z-2.8374
G1 X-15.2 Z-3.0
G1 X-5.3
G1 X-5.0 Z-2.9246
G1 X-4.7 Z-2.684
G1 X-4.4 Z-2.4259
G1 X-4.1 Z-2.1413
G1 X-3.8 Z-1.8413
G1 X-3.5 Z-1.4991
G1 X-3.2 Z-1.1365
G1 X-2.9 Z-0.73
G1 X-2.6 Z-0.2695
G1 X-2.3 Z0.0
G1 X0.75
G0 Z3.0
G0 X-20.75 Y35.1
G0 Z1.0
G1 F300.0 Z0.0
G1 F800.0 X-18.2
G1 X-17.9 Z-0.0814
G1 X-17.6 Z-0.5589
G1 X-17.3 Z-0.9764
G1 X-17.0 Z-1.3618
G1 X-16.7 Z-1.7104
G1 X-16.4 Z-2.0232
G1 X-16.1 Z-2.3232
G1 X-15.8 Z-2.5824
G1 X-15.5 Z-2.8374
G1 X-15.2 Z-3.0
G1 X-5.3
G1 X-5.0 Z-2.9246
G1 X-4.7 Z-2.684
G1 X-4.4 Z-2.4259
G1 X-4.1 Z-2.1413
G1 X-3.8 Z-1.8413
G1 X-3.5 Z-1.4991
G1 X-3.2 Z-1.1365
G1 X-2.9 Z-0.73
G1 X-2.6 Z-0.2695
G1 X-2.3 Z0.0
G1 X0.75
G0 Z3.0
G0 X-20.75 Y35.7
G0 Z1.0
G1 F300.0 Z0.0
G1 F800.0 X-18.2
G1 X-17.9 Z-0.0814
G1 X-17.6 Z-0.5589
G1 X-17.3 Z-0.9764
G1 X-17.0 Z-1.3618
G1 X-16.7 Z-1.7104
G1 X-16.4 Z-2.0232
G1 X-16.1 Z-2.3232
G1 X-15.8 Z-2.5824
G1 X-15.5 Z-2.8374
G1 X-15.2 Z-3.0
G1 X-5.3
G1 X-5.0 Z-2.9246
G1 X-4.7 Z-2.684
G1 X-4.4 Z-2.4259
G1 X-4.1 Z-2.1413
G1 X-3.8 Z-1.8413
G1 X-3.5 Z-1.4991
G1 X-3.2 Z-1.1365
G1 X-2.9 Z-0.73
G1 X-2.6 Z-0.2695
G1 X-2.3 Z0.0
G1 X0.75
G0 Z3.0
G0 X-20.75 Y36.3
G0 Z1.0
G1 F300.0 Z0.0
G1 F800.0 X-18.2
G1 X-17.9 Z-0.0814
G1 X-17.6 Z-0.5589
G1 X-17.3 Z-0.9764
G1 X-17.0 Z-1.3618
G1 X-16.7 Z-1.7104
G1 X-16.4 Z-2.0232
G1 X-16.1 Z-2.3232
G1 X-15.8 Z-2.5824
G1 X-15.5 Z-2.8374
G1 X-15.2 Z-3.0
G1 X-5.3
G1 X-5.0 Z-2.9246
G1 X-4.7 Z-2.684
G1 X-4.4 Z-2.4259
G1 X-4.1 Z-2.1413
G1 X-3.8 Z-1.8413
G1 X-3.5 Z-1.4991
G1 X-3.2 Z-1.1365
G1 X-2.9 Z-0.73
G1 X-2.6 Z-0.2695
G1 X-2.3 Z0.0
G1 X0.75
G0 Z3.0
G0 X-20.75 Y36.9
G0 Z1.0
G1 F300.0 Z0.0
G1 F800.0 X-18.2
G1 X-17.9 Z-0.0814
G1 X-17.6 Z-0.5589
G1 X-17.3 Z-0.9764
G1 X-17.0 Z-1.3618
G1 X-16.7 Z-1.7104
G1 X-16.4 Z-2.0232
G1 X-16.1 Z-2.3232
G1 X-15.8 Z-2.5824
G1 X-15.5 Z-2.8374
G1 X-15.2 Z-3.0
G1 X-5.3
G1 X-5.0 Z-2.9246
G1 X-4.7 Z-2.684
G1 X-4.4 Z-2.4259
G1 X-4.1 Z-2.1413
G1 X-3.8 Z-1.8413
G1 X-3.5 Z-1.4991
G1 X-3.2 Z-1.1365
G1 X-2.9 Z-0.73
G1 X-2.6 Z-0.2695
G1 X-2.3 Z0.0
G1 X0.75
G0 Z3.0
G0 X-20.75 Y37.5
G0 Z1.0
G1 F300.0 Z0.0
G1 F800.0 X-18.2
G1 X-17.9 Z-0.0814
G1 X-17.6 Z-0.5589
G1 X-17.3 Z-0.9764
G1 X-17.0 Z-1.3618
G1 X-16.7 Z-1.7104
G1 X-16.4 Z-2.0232
G1 X-16.1 Z-2.3232
G1 X-15.8 Z-2.5824
G1 X-15.5 Z-2.8374
G1 X-15.2 Z-3.0
G1 X-5.3
G1 X-5.0 Z-2.9246
G1 X-4.7 Z-2.684
G1 X-4.4 Z-2.4259
G1 X-4.1 Z-2.1413
G1 X-3.8 Z-1.8413
G1 X-3.5 Z-1.4991
G1 X-3.2 Z-1.1365
G1 X-2.9 Z-0.73
G1 X-2.6 Z-0.2695
G1 X-2.3 Z0.0
G1 X0.75
G0 Z3.0
G0 X-20.75 Y38.1
G0 Z1.0
G1 F300.0 Z0.0
G1 F800.0 X-18.2
G1 X-17.9 Z-0.0814
G1 X-17.6 Z-0.5589
G1 X-17.3 Z-0.9764
G1 X-17.0 Z-1.3618
G1 X-16.7 Z-1.7104
G1 X-16.4 Z-2.0232
G1 X-16.1 Z-2.3232
G1 X-15.8 Z-2.5824
G1 X-15.5 Z-2.8374
G1 X-15.2 Z-3.0
G1 X-5.3
G1 X-5.0 Z-2.9246
G1 X-4.7 Z-2.684
G1 X-4.4 Z-2.4259
G1 X-4.1 Z-2.1413
G1 X-3.8 Z-1.8413
G1 X-3.5 Z-1.4991
G1 X-3.2 Z-1.1365
G1 X-2.9 Z-0.73
G1 X-2.6 Z-0.2695
G1 X-2.3 Z0.0
G1 X0.75
G0 Z3.0
G0 X-20.75 Y38.7
G0 Z1.0
G1 F300.0 Z0.0
G1 F800.0 X-18.2
G1 X-17.9 Z-0.0814
G1 X-17.6 Z-0.5589
G1 X-17.3 Z-0.9764
G1 X-17.0 Z-1.3618
G1 X-16.7 Z-1.7104
G1 X-16.4 Z-2.0232
G1 X-16.1 Z-2.3232
G1 X-15.8 Z-2.5824
G1 X-15.5 Z-2.8374
G1 X-15.2 Z-3.0
G1 X-5.3
G1 X-5.0 Z-2.9246
G1 X-4.7 Z-2.684
G1 X-4.4 Z-2.4259
G1 X-4.1 Z-2.1413
G1 X-3.8 Z-1.8413
G1 X-3.5 Z-1.4991
G1 X-3.2 Z-1.1365
G1 X-2.9 Z-0.73
G1 X-2.6 Z-0.2695
G1 X-2.3 Z0.0
G1 X0.75
G0 Z3.0
G0 X-20.75 Y39.3
G0 Z1.0
G1 F300.0 Z0.0
G1 F800.0 X-18.2
G1 X-17.9 Z-0.0814
G1 X-17.6 Z-0.5589
G1 X-17.3 Z-0.9764
G1 X-17.0 Z-1.3618
G1 X-16.7 Z-1.7104
G1 X-16.4 Z-2.0232
G1 X-16.1 Z-2.3232
G1 X-15.8 Z-2.5824
G1 X-15.5 Z-2.8374
G1 X-15.2 Z-3.0
G1 X-5.3
G1 X-5.0 Z-2.9246
G1 X-4.7 Z-2.684
G1 X-4.4 Z-2.4259
G1 X-4.1 Z-2.1413
G1 X-3.8 Z-1.8413
G1 X-3.5 Z-1.4991
G1 X-3.2 Z-1.1365
G1 X-2.9 Z-0.73
G1 X-2.6 Z-0.2695
G1 X-2.3 Z0.0
G1 X0.75
G0 Z3.0
G0 X-20.75 Y39.9
G0 Z1.0
G1 F300.0 Z0.0
G1 F800.0 X-18.2
G1 X-17.9 Z-0.0814
G1 X-17.6 Z-0.5589
G1 X-17.3 Z-0.9764
G1 X-17.0 Z-1.3618
G1 X-16.7 Z-1.7104
G1 X-16.4 Z-2.0232
G1 X-16.1 Z-2.3232
G1 X-15.8 Z-2.5824
G1 X-15.5 Z-2.8374
G1 X-15.2 Z-3.0
G1 X-5.3
G1 X-5.0 Z-2.9246
G1 X-4.7 Z-2.684
G1 X-4.4 Z-2.4259
G1 X-4.1 Z-2.1413
G1 X-3.8 Z-1.8413
G1 X-3.5 Z-1.4991
G1 X-3.2 Z-1.1365
G1 X-2.9 Z-0.73
G1 X-2.6 Z-0.2695
G1 X-2.3 Z0.0
G1 X0.75
G0 Z3.0
G0 X-20.559 Y40.5
G0 Z1.0
G1 F300.0 Z0.0
G1 F800.0 X-18.5
G1 X-18.2 Z-0.0814
G1 X-17.9 Z-0.5589
G1 X-17.6 Z-0.9764
G1 X-17.3 Z-1.3618
G1 X-17.0 Z-1.7104
G1 X-16.7 Z-2.0232
G1 X-16.4 Z-2.3232
G1 X-16.1 Z-2.5824
G1 X-15.8 Z-2.8374
G1 X-15.5 Z-3.0
G1 X-5.0
G1 X-4.7 Z-2.9246
G1 X-4.4 Z-2.684
G1 X-4.1 Z-2.4259
G1 X-3.8 Z-2.1413
G1 X-3.5 Z-1.8413
G1 X-3.2 Z-1.4991
G1 X-2.9 Z-1.1365
G1 X-2.6 Z-0.73
G1 X-2.3 Z-0.2695
G1 X-2.0 Z0.0
G1 X0.4
G1 X0.559 Z-3.0
G0 Z0.0
G1 F300.0 X0.7228 Y40.2
G1 F800.0 X-2.3
G1 X-2.6 Z-0.2695
G1 X-2.9 Z-0.73
G1 X-3.2 Z-1.1365
G1 X-3.5 Z-1.4991
G1 X-3.8 Z-1.8413
G1 X-4.1 Z-2.1413
G1 X-4.4 Z-2.4259
G1 X-4.7 Z-2.684
G1 X-5.0 Z-2.9246
G1 X-5.3 Z-3.146
G1 X-5.6 Z-3.3518
G1 X-5.9 Z-3.5403
G1 X-6.2 Z-3.7179
G1 X-6.5 Z-3.8765
G1 X-6.8 Z-4.0
G1 X-13.4
G1 X-13.7 Z-3.9726
G1 X-14.0 Z-3.814
G1 X-14.3 Z-3.6546
G1 X-14.9 Z-3.2775
G1 X-15.2 Z-3.0588
G1 X-15.5 Z-2.8374
G1 X-15.8 Z-2.5824
G1 X-16.1 Z-2.3232
G1 X-16.4 Z-2.0232
G1 X-16.7 Z-1.7104
G1 X-17.0 Z-1.3618
G1 X-17.3 Z-0.9764
G1 X-17.6 Z-0.5589
G1 X-17.9 Z-0.0814
G1 X-18.2 Z0.0
G1 X-20.7228
G0 Z3.0
G0 X0.75 Y39.6
G0 Z1.0
G1 F300.0 Z0.0
G1 F800.0 X-2.3
G1 X-2.6 Z-0.2695
G1 X-2.9 Z-0.73
G1 X-3.2 Z-1.1365
G1 X-3.5 Z-1.4991
G1 X-3.8 Z-1.8413
G1 X-4.1 Z-2.1413
G1 X-4.4 Z-2.4259
G1 X-4.7 Z-2.684
G1 X-5.0 Z-2.9246
G1 X-5.3 Z-3.146
G1 X-5.6 Z-3.3518
G1 X-5.9 Z-3.5403
G1 X-6.2 Z-3.7179
G1 X-6.5 Z-3.8765
G1 X-6.8 Z-4.0
G1 X-13.4
G1 X-13.7 Z-3.9726
G1 X-14.0 Z-3.814
G1 X-14.3 Z-3.6546
G1 X-14.9 Z-3.2775
G1 X-15.2 Z-3.0588
G1 X-15.5 Z-2.8374
G1 X-15.8 Z-2.5824
G1 X-16.1 Z-2.3232
G1 X-16.4 Z-2.0232
G1 X-16.7 Z-1.7104
G1 X-17.0 Z-1.3618
G1 X-17.3 Z-0.9764
G1 X-17.6 Z-0.5589
G1 X-17.9 Z-0.0814
G1 X-18.2 Z0.0
G1 X-20.75
G0 Z3.0
G0 X0.75 Y39.0
G0 Z1.0
G1 F300.0 Z0.0
G1 F800.0 X-2.3
G1 X-2.6 Z-0.2695
G1 X-2.9 Z-0.73
G1 X-3.2 Z-1.1365
G1 X-3.5 Z-1.4991
G1 X-3.8 Z-1.8413
G1 X-4.1 Z-2.1413
G1 X-4.4 Z-2.4259
G1 X-4.7 Z-2.684
G1 X-5.0 Z-2.9246
G1 X-5.3 Z-3.146
G1 X-5.6 Z-3.3518
G1 X-5.9 Z-3.5403
G1 X-6.2 Z-3.7179
G1 X-6.5 Z-3.8765
G1 X-6.8 Z-4.0
G1 X-13.4
G1 X-13.7 Z-3.9726
G1 X-14.0 Z-3.814
G1 X-14.3 Z-3.6546
G1 X-14.9 Z-3.2775
G1 X-15.2 Z-3.0588
G1 X-15.5 Z-2.8374
G1 X-15.8 Z-2.5824
G1 X-16.1 Z-2.3232
G1 X-16.4 Z-2.0232
G1 X-16.7 Z-1.7104
G1 X-17.0 Z-1.3618
G1 X-17.3 Z-0.9764
G1 X-17.6 Z-0.5589
G1 X-17.9 Z-0.0814
G1 X-18.2 Z0.0
G1 X-20.75
G0 Z3.0
G0 X0.75 Y38.4
G0 Z1.0
G1 F300.0 Z0.0
G1 F800.0 X-2.3
G1 X-2.6 Z-0.2695
G1 X-2.9 Z-0.73
G1 X-3.2 Z-1.1365
G1 X-3.5 Z-1.4991
G1 X-3.8 Z-1.8413
G1 X-4.1 Z-2.1413
G1 X-4.4 Z-2.4259
G1 X-4.7 Z-2.684
G1 X-5.0 Z-2.9246
G1 X-5.3 Z-3.146
G1 X-5.6 Z-3.3518
G1 X-5.9 Z-3.5403
G1 X-6.2 Z-3.7179
G1 X-6.5 Z-3.8765
G1 X-6.8 Z-4.0
G1 X-13.4
G1 X-13.7 Z-3.9726
G1 X-14.0 Z-3.814
G1 X-14.3 Z-3.6546
G1 X-14.9 Z-3.2775
G1 X-15.2 Z-3.0588
G1 X-15.5 Z-2.8374
G1 X-15.8 Z-2.5824
G1 X-16.1 Z-2.3232
G1 X-16.4 Z-2.0232
G1 X-16.7 Z-1.7104
G1 X-17.0 Z-1.3618
G1 X-17.3 Z-0.9764
G1 X-17.6 Z-0.5589
G1 X-17.9 Z-0.0814
G1 X-18.2 Z0.0
G1 X-20.75
G0 Z3.0
G0 X0.75 Y37.8
G0 Z1.0
G1 F300.0 Z0.0
G1 F800.0 X-2.3
G1 X-2.6 Z-0.2695
G1 X-2.9 Z-0.73
G1 X-3.2 Z-1.1365
G1 X-3.5 Z-1.4991
G1 X-3.8 Z-1.8413
G1 X-4.1 Z-2.1413
G1 X-4.4 Z-2.4259
G1 X-4.7 Z-2.684
G1 X-5.0 Z-2.9246
G1 X-5.3 Z-3.146
G1 X-5.6 Z-3.3518
G1 X-5.9 Z-3.5403
G1 X-6.2 Z-3.7179
G1 X-6.5 Z-3.8765
G1 X-6.8 Z-4.0
G1 X-13.4
G1 X-13.7 Z-3.9726
G1 X-14.0 Z-3.814
G1 X-14.3 Z-3.6546
G1 X-14.9 Z-3.2775
G1 X-15.2 Z-3.0588
G1 X-15.5 Z-2.8374
G1 X-15.8 Z-2.5824
G1 X-16.1 Z-2.3232
G1 X-16.4 Z-2.0232
G1 X-16.7 Z-1.7104
G1 X-17.0 Z-1.3618
G1 X-17.3 Z-0.9764
G1 X-17.6 Z-0.5589
G1 X-17.9 Z-0.0814
G1 X-18.2 Z0.0
G1 X-20.75
G0 Z3.0
G0 X0.75 Y37.2
G0 Z1.0
G1 F300.0 Z0.0
G1 F800.0 X-2.3
G1 X-2.6 Z-0.2695
G1 X-2.9 Z-0.73
G1 X-3.2 Z-1.1365
G1 X-3.5 Z-1.4991
G1 X-3.8 Z-1.8413
G1 X-4.1 Z-2.1413
G1 X-4.4 Z-2.4259
G1 X-4.7 Z-2.684
G1 X-5.0 Z-2.9246
G1 X-5.3 Z-3.146
G1 X-5.6 Z-3.3518
G1 X-5.9 Z-3.5403
G1 X-6.2 Z-3.7179
G1 X-6.5 Z-3.8765
G1 X-6.8 Z-4.0
G1 X-13.4
G1 X-13.7 Z-3.9726
G1 X-14.0 Z-3.814
G1 X-14.3 Z-3.6546
G1 X-14.9 Z-3.2775
G1 X-15.2 Z-3.0588
G1 X-15.5 Z-2.8374
G1 X-15.8 Z-2.5824
G1 X-16.1 Z-2.3232
G1 X-16.4 Z-2.0232
G1 X-16.7 Z-1.7104
G1 X-17.0 Z-1.3618
G1 X-17.3 Z-0.9764
G1 X-17.6 Z-0.5589
G1 X-17.9 Z-0.0814
G1 X-18.2 Z0.0
G1 X-20.75
G0 Z3.0
G0 X0.75 Y36.6
G0 Z1.0
G1 F300.0 Z0.0
G1 F800.0 X-2.3
G1 X-2.6 Z-0.2695
G1 X-2.9 Z-0.73
G1 X-3.2 Z-1.1365
G1 X-3.5 Z-1.4991
G1 X-3.8 Z-1.8413
G1 X-4.1 Z-2.1413
G1 X-4.4 Z-2.4259
G1 X-4.7 Z-2.684
G1 X-5.0 Z-2.9246
G1 X-5.3 Z-3.146
G1 X-5.6 Z-3.3518
G1 X-5.9 Z-3.5403
G1 X-6.2 Z-3.7179
G1 X-6.5 Z-3.8765
G1 X-6.8 Z-4.0
G1 X-13.4
G1 X-13.7 Z-3.9726
G1 X-14.0 Z-3.814
G1 X-14.3 Z-3.6546
G1 X-14.9 Z-3.2775
G1 X-15.2 Z-3.0588
G1 X-15.5 Z-2.8374
G1 X-15.8 Z-2.5824
G1 X-16.1 Z-2.3232
G1 X-16.4 Z-2.0232
G1 X-16.7 Z-1.7104
G1 X-17.0 Z-1.3618
G1 X-17.3 Z-0.9764
G1 X-17.6 Z-0.5589
G1 X-17.9 Z-0.0814
G1 X-18.2 Z0.0
G1 X-20.75
G0 Z3.0
G0 X0.75 Y36.0
G0 Z1.0
G1 F300.0 Z0.0
G1 F800.0 X-2.3
G1 X-2.6 Z-0.2695
G1 X-2.9 Z-0.73
G1 X-3.2 Z-1.1365
G1 X-3.5 Z-1.4991
G1 X-3.8 Z-1.8413
G1 X-4.1 Z-2.1413
G1 X-4.4 Z-2.4259
G1 X-4.7 Z-2.684
G1 X-5.0 Z-2.9246
G1 X-5.3 Z-3.146
G1 X-5.6 Z-3.3518
G1 X-5.9 Z-3.5403
G1 X-6.2 Z-3.7179
G1 X-6.5 Z-3.8765
G1 X-6.8 Z-4.0
G1 X-13.4
G1 X-13.7 Z-3.9726
G1 X-14.0 Z-3.814
G1 X-14.3 Z-3.6546
G1 X-14.9 Z-3.2775
G1 X-15.2 Z-3.0588
G1 X-15.5 Z-2.8374
G1 X-15.8 Z-2.5824
G1 X-16.1 Z-2.3232
G1 X-16.4 Z-2.0232
G1 X-16.7 Z-1.7104
G1 X-17.0 Z-1.3618
G1 X-17.3 Z-0.9764
G1 X-17.6 Z-0.5589
G1 X-17.9 Z-0.0814
G1 X-18.2 Z0.0
G1 X-20.75
G0 Z3.0
G0 X0.75 Y35.4
G0 Z1.0
G1 F300.0 Z0.0
G1 F800.0 X-2.3
G1 X-2.6 Z-0.2695
G1 X-2.9 Z-0.73
G1 X-3.2 Z-1.1365
G1 X-3.5 Z-1.4991
G1 X-3.8 Z-1.8413
G1 X-4.1 Z-2.1413
G1 X-4.4 Z-2.4259
G1 X-4.7 Z-2.684
G1 X-5.0 Z-2.9246
G1 X-5.3 Z-3.146
G1 X-5.6 Z-3.3518
G1 X-5.9 Z-3.5403
G1 X-6.2 Z-3.7179
G1 X-6.5 Z-3.8765
G1 X-6.8 Z-4.0
G1 X-13.4
G1 X-13.7 Z-3.9726
G1 X-14.0 Z-3.814
G1 X-14.3 Z-3.6546
G1 X-14.9 Z-3.2775
G1 X-15.2 Z-3.0588
G1 X-15.5 Z-2.8374
G1 X-15.8 Z-2.5824
G1 X-16.1 Z-2.3232
G1 X-16.4 Z-2.0232
G1 X-16.7 Z-1.7104
G1 X-17.0 Z-1.3618
G1 X-17.3 Z-0.9764
G1 X-17.6 Z-0.5589
G1 X-17.9 Z-0.0814
G1 X-18.2 Z0.0
G1 X-20.75
G0 Z3.0
G0 X0.75 Y34.8
G0 Z1.0
G1 F300.0 Z0.0
G1 F800.0 X-2.3
G1 X-2.6 Z-0.2695
G1 X-2.9 Z-0.73
G1 X-3.2 Z-1.1365
G1 X-3.5 Z-1.4991
G1 X-3.8 Z-1.8413
G1 X-4.1 Z-2.1413
G1 X-4.4 Z-2.4259
G1 X-4.7 Z-2.684
G1 X-5.0 Z-2.9246
G1 X-5.3 Z-3.146
G1 X-5.6 Z-3.3518
G1 X-5.9 Z-3.5403
G1 X-6.2 Z-3.7179
G1 X-6.5 Z-3.8765
G1 X-6.8 Z-4.0
G1 X-13.4
G1 X-13.7 Z-3.9726
G1 X-14.0 Z-3.814
G1 X-14.3 Z-3.6546
G1 X-14.9 Z-3.2775
G1 X-15.2 Z-3.0588
G1 X-15.5 Z-2.8374
G1 X-15.8 Z-2.5824
G1 X-16.1 Z-2.3232
G1 X-16.4 Z-2.0232
G1 X-16.7 Z-1.7104
G1 X-17.0 Z-1.3618
G1 X-17.3 Z-0.9764
G1 X-17.6 Z-0.5589
G1 X-17.9 Z-0.0814
G1 X-18.2 Z0.0
G1 X-20.75
G0 Z3.0
G0 X0.75 Y34.2
G0 Z1.0
G1 F300.0 Z0.0
G1 F800.0 X-2.3
G1 X-2.6 Z-0.2695
G1 X-2.9 Z-0.73
G1 X-3.2 Z-1.1365
G1 X-3.5 Z-1.4991
G1 X-3.8 Z-1.8413
G1 X-4.1 Z-2.1413
G1 X-4.4 Z-2.4259
G1 X-4.7 Z-2.684
G1 X-5.0 Z-2.9246
G1 X-5.3 Z-3.146
G1 X-5.6 Z-3.3518
G1 X-5.9 Z-3.5403
G1 X-6.2 Z-3.7179
G1 X-6.5 Z-3.8765
G1 X-6.8 Z-4.0
G1 X-13.4
G1 X-13.7 Z-3.9726
G1 X-14.0 Z-3.814
G1 X-14.3 Z-3.6546
G1 X-14.9 Z-3.2775
G1 X-15.2 Z-3.0588
G1 X-15.5 Z-2.8374
G1 X-15.8 Z-2.5824
G1 X-16.1 Z-2.3232
G1 X-16.4 Z-2.0232
G1 X-16.7 Z-1.7104
G1 X-17.0 Z-1.3618
G1 X-17.3 Z-0.9764
G1 X-17.6 Z-0.5589
G1 X-17.9 Z-0.0814
G1 X-18.2 Z0.0
G1 X-20.75
G0 Z3.0
G0 X0.75 Y33.6
G0 Z1.0
G1 F300.0 Z0.0
G1 F800.0 X-2.3
G1 X-2.6 Z-0.2695
G1 X-2.9 Z-0.73
G1 X-3.2 Z-1.1365
G1 X-3.5 Z-1.4991
G1 X-3.8 Z-1.8413
G1 X-4.1 Z-2.1413
G1 X-4.4 Z-2.4259
G1 X-4.7 Z-2.684
G1 X-5.0 Z-2.9246
G1 X-5.3 Z-3.146
G1 X-5.6 Z-3.3518
G1 X-5.9 Z-3.5403
G1 X-6.2 Z-3.7179
G1 X-6.5 Z-3.8765
G1 X-6.8 Z-4.0
G1 X-13.4
G1 X-13.7 Z-3.9726
G1 X-14.0 Z-3.814
G1 X-14.3 Z-3.6546
G1 X-14.9 Z-3.2775
G1 X-15.2 Z-3.0588
G1 X-15.5 Z-2.8374
G1 X-15.8 Z-2.5824
G1 X-16.1 Z-2.3232
G1 X-16.4 Z-2.0232
G1 X-16.7 Z-1.7104
G1 X-17.0 Z-1.3618
G1 X-17.3 Z-0.9764
G1 X-17.6 Z-0.5589
G1 X-17.9 Z-0.0814
G1 X-18.2 Z0.0
G1 X-20.75
G0 Z3.0
G0 X0.75 Y33.0
G0 Z1.0
G1 F300.0 Z0.0
G1 F800.0 X-2.3
G1 X-2.6 Z-0.2695
G1 X-2.9 Z-0.73
G1 X-3.2 Z-1.1365
G1 X-3.5 Z-1.4991
G1 X-3.8 Z-1.8413
G1 X-4.1 Z-2.1413
G1 X-4.4 Z-2.4259
G1 X-4.7 Z-2.684
G1 X-5.0 Z-2.9246
G1 X-5.3 Z-3.146
G1 X-5.6 Z-3.3518
G1 X-5.9 Z-3.5403
G1 X-6.2 Z-3.7179
G1 X-6.5 Z-3.8765
G1 X-6.8 Z-4.0
G1 X-13.4
G1 X-13.7 Z-3.9726
G1 X-14.0 Z-3.814
G1 X-14.3 Z-3.6546
G1 X-14.9 Z-3.2775
G1 X-15.2 Z-3.0588
G1 X-15.5 Z-2.8374
G1 X-15.8 Z-2.5824
G1 X-16.1 Z-2.3232
G1 X-16.4 Z-2.0232
G1 X-16.7 Z-1.7104
G1 X-17.0 Z-1.3618
G1 X-17.3 Z-0.9764
G1 X-17.6 Z-0.5589
G1 X-17.9 Z-0.0814
G1 X-18.2 Z0.0
G1 X-20.75
G0 Z3.0
G0 X0.75 Y32.4
G0 Z1.0
G1 F300.0 Z0.0
G1 F800.0 X-2.3
G1 X-2.6 Z-0.2695
G1 X-2.9 Z-0.73
G1 X-3.2 Z-1.1365
G1 X-3.5 Z-1.4991
G1 X-3.8 Z-1.8413
G1 X-4.1 Z-2.1413
G1 X-4.4 Z-2.4259
G1 X-4.7 Z-2.684
G1 X-5.0 Z-2.9246
G1 X-5.3 Z-3.146
G1 X-5.6 Z-3.3518
G1 X-5.9 Z-3.5403
G1 X-6.2 Z-3.7179
G1 X-6.5 Z-3.8765
G1 X-6.8 Z-4.0
G1 X-13.4
G1 X-13.7 Z-3.9726
G1 X-14.0 Z-3.814
G1 X-14.3 Z-3.6546
G1 X-14.9 Z-3.2775
G1 X-15.2 Z-3.0588
G1 X-15.5 Z-2.8374
G1 X-15.8 Z-2.5824
G1 X-16.1 Z-2.3232
G1 X-16.4 Z-2.0232
G1 X-16.7 Z-1.7104
G1 X-17.0 Z-1.3618
G1 X-17.3 Z-0.9764
G1 X-17.6 Z-0.5589
G1 X-17.9 Z-0.0814
G1 X-18.2 Z0.0
G1 X-20.75
G0 Z3.0
G0 X0.75 Y31.8
G0 Z1.0
G1 F300.0 Z0.0
G1 F800.0 X-2.3
G1 X-2.6 Z-0.2695
G1 X-2.9 Z-0.73
G1 X-3.2 Z-1.1365
G1 X-3.5 Z-1.4991
G1 X-3.8 Z-1.8413
G1 X-4.1 Z-2.1413
G1 X-4.4 Z-2.4259
G1 X-4.7 Z-2.684
G1 X-5.0 Z-2.9246
G1 X-5.3 Z-3.146
G1 X-5.6 Z-3.3518
G1 X-5.9 Z-3.5403
G1 X-6.2 Z-3.7179
G1 X-6.5 Z-3.8765
G1 X-6.8 Z-4.0
G1 X-13.4
G1 X-13.7 Z-3.9726
G1 X-14.0 Z-3.814
G1 X-14.3 Z-3.6546
G1 X-14.9 Z-3.2775
G1 X-15.2 Z-3.0588
G1 X-15.5 Z-2.8374
G1 X-15.8 Z-2.5824
G1 X-16.1 Z-2.3232
G1 X-16.4 Z-2.0232
G1 X-16.7 Z-1.7104
G1 X-17.0 Z-1.3618
G1 X-17.3 Z-0.9764
G1 X-17.6 Z-0.5589
G1 X-17.9 Z-0.0814
G1 X-18.2 Z0.0
G1 X-20.75
G0 Z3.0
G0 X0.75 Y31.2
G0 Z1.0
G1 F300.0 Z0.0
G1 F800.0 X-2.3
G1 X-2.6 Z-0.2695
G1 X-2.9 Z-0.73
G1 X-3.2 Z-1.1365
G1 X-3.5 Z-1.4991
G1 X-3.8 Z-1.8413
G1 X-4.1 Z-2.1413
G1 X-4.4 Z-2.4259
G1 X-4.7 Z-2.684
G1 X-5.0 Z-2.9246
G1 X-5.3 Z-3.146
G1 X-5.6 Z-3.3518
G1 X-5.9 Z-3.5403
G1 X-6.2 Z-3.7179
G1 X-6.5 Z-3.8765
G1 X-6.8 Z-4.0
G1 X-13.4
G1 X-13.7 Z-3.9726
G1 X-14.0 Z-3.814
G1 X-14.3 Z-3.6546
G1 X-14.9 Z-3.2775
G1 X-15.2 Z-3.0588
G1 X-15.5 Z-2.8374
G1 X-15.8 Z-2.5824
G1 X-16.1 Z-2.3232
G1 X-16.4 Z-2.0232
G1 X-16.7 Z-1.7104
G1 X-17.0 Z-1.3618
G1 X-17.3 Z-0.9764
G1 X-17.6 Z-0.5589
G1 X-17.9 Z-0.0814
G1 X-18.2 Z0.0
G1 X-20.75
G0 Z3.0
G0 X0.75 Y30.6
G0 Z1.0
G1 F300.0 Z0.0
G1 F800.0 X-2.3
G1 X-2.6 Z-0.2695
G1 X-2.9 Z-0.73
G1 X-3.2 Z-1.1365
G1 X-3.5 Z-1.4991
G1 X-3.8 Z-1.8413
G1 X-4.1 Z-2.1413
G1 X-4.4 Z-2.4259
G1 X-4.7 Z-2.684
G1 X-5.0 Z-2.9246
G1 X-5.3 Z-3.146
G1 X-5.6 Z-3.3518
G1 X-5.9 Z-3.5403
G1 X-6.2 Z-3.7179
G1 X-6.5 Z-3.8765
G1 X-6.8 Z-4.0
G1 X-13.4
G1 X-13.7 Z-3.9726
G1 X-14.0 Z-3.814
G1 X-14.3 Z-3.6546
G1 X-14.9 Z-3.2775
G1 X-15.2 Z-3.0588
G1 X-15.5 Z-2.8374
G1 X-15.8 Z-2.5824
G1 X-16.1 Z-2.3232
G1 X-16.4 Z-2.0232
G1 X-16.7 Z-1.7104
G1 X-17.0 Z-1.3618
G1 X-17.3 Z-0.9764
G1 X-17.6 Z-0.5589
G1 X-17.9 Z-0.0814
G1 X-18.2 Z0.0
G1 X-20.75
G0 Z3.0
G0 X0.75 Y30.0
G0 Z1.0
G1 F300.0 Z0.0
G1 F800.0 X-2.3
G1 X-2.6 Z-0.2695
G1 X-2.9 Z-0.73
G1 X-3.2 Z-1.1365
G1 X-3.5 Z-1.4991
G1 X-3.8 Z-1.8413
G1 X-4.1 Z-2.1413
G1 X-4.4 Z-2.4259
G1 X-4.7 Z-2.684
G1 X-5.0 Z-2.9246
G1 X-5.3 Z-3.146
G1 X-5.6 Z-3.3518
G1 X-5.9 Z-3.5403
G1 X-6.2 Z-3.7179
G1 X-6.5 Z-3.8765
G1 X-6.8 Z-4.0
G1 X-13.4
G1 X-13.7 Z-3.9726
G1 X-14.0 Z-3.814
G1 X-14.3 Z-3.6546
G1 X-14.9 Z-3.2775
G1 X-15.2 Z-3.0588
G1 X-15.5 Z-2.8374
G1 X-15.8 Z-2.5824
G1 X-16.1 Z-2.3232
G1 X-16.4 Z-2.0232
G1 X-16.7 Z-1.7104
G1 X-17.0 Z-1.3618
G1 X-17.3 Z-0.9764
G1 X-17.6 Z-0.5589
G1 X-17.9 Z-0.0814
G1 X-18.2 Z0.0
G1 X-20.75
G0 Z3.0
G0 X0.75 Y29.4
G0 Z1.0
G1 F300.0 Z0.0
G1 F800.0 X-2.3
G1 X-2.6 Z-0.2695
G1 X-2.9 Z-0.73
G1 X-3.2 Z-1.1365
G1 X-3.5 Z-1.4991
G1 X-3.8 Z-1.8413
G1 X-4.1 Z-2.1413
G1 X-4.4 Z-2.4259
G1 X-4.7 Z-2.684
G1 X-5.0 Z-2.9246
G1 X-5.3 Z-3.146
G1 X-5.6 Z-3.3518
G1 X-5.9 Z-3.5403
G1 X-6.2 Z-3.7179
G1 X-6.5 Z-3.8765
G1 X-6.8 Z-4.0
G1 X-13.4
G1 X-13.7 Z-3.9726
G1 X-14.0 Z-3.814
G1 X-14.3 Z-3.6546
G1 X-14.9 Z-3.2775
G1 X-15.2 Z-3.0588
G1 X-15.5 Z-2.8374
G1 X-15.8 Z-2.5824
G1 X-16.1 Z-2.3232
G1 X-16.4 Z-2.0232
G1 X-16.7 Z-1.7104
G1 X-17.0 Z-1.3618
G1 X-17.3 Z-0.9764
G1 X-17.6 Z-0.5589
G1 X-17.9 Z-0.0814
G1 X-18.2 Z0.0
G1 X-20.75
G0 Z3.0
G0 X0.75 Y28.8
G0 Z1.0
G1 F300.0 Z0.0
G1 F800.0 X-2.3
G1 X-2.6 Z-0.2695
G1 X-2.9 Z-0.73
G1 X-3.2 Z-1.1365
G1 X-3.5 Z-1.4991
G1 X-3.8 Z-1.8413
G1 X-4.1 Z-2.1413
G1 X-4.4 Z-2.4259
G1 X-4.7 Z-2.684
G1 X-5.0 Z-2.9246
G1 X-5.3 Z-3.146
G1 X-5.6 Z-3.3518
G1 X-5.9 Z-3.5403
G1 X-6.2 Z-3.7179
G1 X-6.5 Z-3.8765
G1 X-6.8 Z-4.0
G1 X-13.4
G1 X-13.7 Z-3.9726
G1 X-14.0 Z-3.814
G1 X-14.3 Z-3.6546
G1 X-14.9 Z-3.2775
G1 X-15.2 Z-3.0588
G1 X-15.5 Z-2.8374
G1 X-15.8 Z-2.5824
G1 X-16.1 Z-2.3232
G1 X-16.4 Z-2.0232
G1 X-16.7 Z-1.7104
G1 X-17.0 Z-1.3618
G1 X-17.3 Z-0.9764
G1 X-17.6 Z-0.5589
G1 X-17.9 Z-0.0814
G1 X-18.2 Z0.0
G1 X-20.75
G0 Z3.0
G0 X0.75 Y28.2
G0 Z1.0
G1 F300.0 Z0.0
G1 F800.0 X-2.3
G1 X-2.6 Z-0.2695
G1 X-2.9 Z-0.73
G1 X-3.2 Z-1.1365
G1 X-3.5 Z-1.4991
G1 X-3.8 Z-1.8413
G1 X-4.1 Z-2.1413
G1 X-4.4 Z-2.4259
G1 X-4.7 Z-2.684
G1 X-5.0 Z-2.9246
G1 X-5.3 Z-3.146
G1 X-5.6 Z-3.3518
G1 X-5.9 Z-3.5403
G1 X-6.2 Z-3.7179
G1 X-6.5 Z-3.8765
G1 X-6.8 Z-4.0
G1 X-13.4
G1 X-13.7 Z-3.9726
G1 X-14.0 Z-3.814
G1 X-14.3 Z-3.6546
G1 X-14.9 Z-3.2775
G1 X-15.2 Z-3.0588
G1 X-15.5 Z-2.8374
G1 X-15.8 Z-2.5824
G1 X-16.1 Z-2.3232
G1 X-16.4 Z-2.0232
G1 X-16.7 Z-1.7104
G1 X-17.0 Z-1.3618
G1 X-17.3 Z-0.9764
G1 X-17.6 Z-0.5589
G1 X-17.9 Z-0.0814
G1 X-18.2 Z0.0
G1 X-20.75
G0 Z3.0
G0 X0.75 Y27.6
G0 Z1.0
G1 F300.0 Z0.0
G1 F800.0 X-2.3
G1 X-2.6 Z-0.2695
G1 X-2.9 Z-0.73
G1 X-3.2 Z-1.1365
G1 X-3.5 Z-1.4991
G1 X-3.8 Z-1.8413
G1 X-4.1 Z-2.1413
G1 X-4.4 Z-2.4259
G1 X-4.7 Z-2.684
G1 X-5.0 Z-2.9246
G1 X-5.3 Z-3.146
G1 X-5.6 Z-3.3518
G1 X-5.9 Z-3.5403
G1 X-6.2 Z-3.7179
G1 X-6.5 Z-3.8765
G1 X-6.8 Z-4.0
G1 X-13.4
G1 X-13.7 Z-3.9726
G1 X-14.0 Z-3.814
G1 X-14.3 Z-3.6546
G1 X-14.9 Z-3.2775
G1 X-15.2 Z-3.0588
G1 X-15.5 Z-2.8374
G1 X-15.8 Z-2.5824
G1 X-16.1 Z-2.3232
G1 X-16.4 Z-2.0232
G1 X-16.7 Z-1.7104
G1 X-17.0 Z-1.3618
G1 X-17.3 Z-0.9764
G1 X-17.6 Z-0.5589
G1 X-17.9 Z-0.0814
G1 X-18.2 Z0.0
G1 X-20.75
G0 Z3.0
G0 X0.75 Y27.0
G0 Z1.0
G1 F300.0 Z0.0
G1 F800.0 X-2.3
G1 X-2.6 Z-0.2695
G1 X-2.9 Z-0.73
G1 X-3.2 Z-1.1365
G1 X-3.5 Z-1.4991
G1 X-3.8 Z-1.8413
G1 X-4.1 Z-2.1413
G1 X-4.4 Z-2.4259
G1 X-4.7 Z-2.684
G1 X-5.0 Z-2.9246
G1 X-5.3 Z-3.146
G1 X-5.6 Z-3.3518
G1 X-5.9 Z-3.5403
G1 X-6.2 Z-3.7179
G1 X-6.5 Z-3.8765
G1 X-6.8 Z-4.0
G1 X-13.4
G1 X-13.7 Z-3.9726
G1 X-14.0 Z-3.814
G1 X-14.3 Z-3.6546
G1 X-14.9 Z-3.2775
G1 X-15.2 Z-3.0588
G1 X-15.5 Z-2.8374
G1 X-15.8 Z-2.5824
G1 X-16.1 Z-2.3232
G1 X-16.4 Z-2.0232
G1 X-16.7 Z-1.7104
G1 X-17.0 Z-1.3618
G1 X-17.3 Z-0.9764
G1 X-17.6 Z-0.5589
G1 X-17.9 Z-0.0814
G1 X-18.2 Z0.0
G1 X-20.75
G0 Z3.0
G0 X0.75 Y26.4
G0 Z1.0
G1 F300.0 Z0.0
G1 F800.0 X-2.3
G1 X-2.6 Z-0.2695
G1 X-2.9 Z-0.73
G1 X-3.2 Z-1.1365
G1 X-3.5 Z-1.4991
G1 X-3.8 Z-1.8413
G1 X-4.1 Z-2.1413
G1 X-4.4 Z-2.4259
G1 X-4.7 Z-2.684
G1 X-5.0 Z-2.9246
G1 X-5.3 Z-3.146
G1 X-5.6 Z-3.3518
G1 X-5.9 Z-3.5403
G1 X-6.2 Z-3.7179
G1 X-6.5 Z-3.8765
G1 X-6.8 Z-4.0
G1 X-13.4
G1 X-13.7 Z-3.9726
G1 X-14.0 Z-3.814
G1 X-14.3 Z-3.6546
G1 X-14.9 Z-3.2775
G1 X-15.2 Z-3.0588
G1 X-15.5 Z-2.8374
G1 X-15.8 Z-2.5824
G1 X-16.1 Z-2.3232
G1 X-16.4 Z-2.0232
G1 X-16.7 Z-1.7104
G1 X-17.0 Z-1.3618
G1 X-17.3 Z-0.9764
G1 X-17.6 Z-0.5589
G1 X-17.9 Z-0.0814
G1 X-18.2 Z0.0
G1 X-20.75
G0 Z3.0
G0 X0.75 Y25.8
G0 Z1.0
G1 F300.0 Z0.0
G1 F800.0 X-2.3
G1 X-2.6 Z-0.2695
G1 X-2.9 Z-0.73
G1 X-3.2 Z-1.1365
G1 X-3.5 Z-1.4991
G1 X-3.8 Z-1.8413
G1 X-4.1 Z-2.1413
G1 X-4.4 Z-2.4259
G1 X-4.7 Z-2.684
G1 X-5.0 Z-2.9246
G1 X-5.3 Z-3.146
G1 X-5.6 Z-3.3518
G1 X-5.9 Z-3.5403
G1 X-6.2 Z-3.7179
G1 X-6.5 Z-3.8765
G1 X-6.8 Z-4.0
G1 X-13.4
G1 X-13.7 Z-3.9726
G1 X-14.0 Z-3.814
G1 X-14.3 Z-3.6546
G1 X-14.9 Z-3.2775
G1 X-15.2 Z-3.0588
G1 X-15.5 Z-2.8374
G1 X-15.8 Z-2.5824
G1 X-16.1 Z-2.3232
G1 X-16.4 Z-2.0232
G1 X-16.7 Z-1.7104
G1 X-17.0 Z-1.3618
G1 X-17.3 Z-0.9764
G1 X-17.6 Z-0.5589
G1 X-17.9 Z-0.0814
G1 X-18.2 Z0.0
G1 X-20.75
G0 Z3.0
G0 X0.75 Y25.2
G0 Z1.0
G1 F300.0 Z0.0
G1 F800.0 X-2.3
G1 X-2.6 Z-0.2695
G1 X-2.9 Z-0.73
G1 X-3.2 Z-1.1365
G1 X-3.5 Z-1.4991
G1 X-3.8 Z-1.8413
G1 X-4.1 Z-2.1413
G1 X-4.4 Z-2.4259
G1 X-4.7 Z-2.684
G1 X-5.0 Z-2.9246
G1 X-5.3 Z-3.146
G1 X-5.6 Z-3.3518
G1 X-5.9 Z-3.5403
G1 X-6.2 Z-3.7179
G1 X-6.5 Z-3.8765
G1 X-6.8 Z-4.0
G1 X-13.4
G1 X-13.7 Z-3.9726
G1 X-14.0 Z-3.814
G1 X-14.3 Z-3.6546
G1 X-14.9 Z-3.2775
G1 X-15.2 Z-3.0588
G1 X-15.5 Z-2.8374
G1 X-15.8 Z-2.5824
G1 X-16.1 Z-2.3232
G1 X-16.4 Z-2.0232
G1 X-16.7 Z-1.7104
G1 X-17.0 Z-1.3618
G1 X-17.3 Z-0.9764
G1 X-17.6 Z-0.5589
G1 X-17.9 Z-0.0814
G1 X-18.2 Z0.0
G1 X-20.75
G0 Z3.0
G0 X0.75 Y24.6
G0 Z1.0
G1 F300.0 Z0.0
G1 F800.0 X-2.3
G1 X-2.6 Z-0.2695
G1 X-2.9 Z-0.73
G1 X-3.2 Z-1.1365
G1 X-3.5 Z-1.4991
G1 X-3.8 Z-1.8413
G1 X-4.1 Z-2.1413
G1 X-4.4 Z-2.4259
G1 X-4.7 Z-2.684
G1 X-5.0 Z-2.9246
G1 X-5.3 Z-3.146
G1 X-5.6 Z-3.3518
G1 X-5.9 Z-3.5403
G1 X-6.2 Z-3.7179
G1 X-6.5 Z-3.8765
G1 X-6.8 Z-4.0
G1 X-13.4
G1 X-13.7 Z-3.9726
G1 X-14.0 Z-3.814
G1 X-14.3 Z-3.6546
G1 X-14.9 Z-3.2775
G1 X-15.2 Z-3.0588
G1 X-15.5 Z-2.8374
G1 X-15.8 Z-2.5824
G1 X-16.1 Z-2.3232
G1 X-16.4 Z-2.0232
G1 X-16.7 Z-1.7104
G1 X-17.0 Z-1.3618
G1 X-17.3 Z-0.9764
G1 X-17.6 Z-0.5589
G1 X-17.9 Z-0.0814
G1 X-18.2 Z0.0
G1 X-20.75
G0 Z3.0
G0 X0.75 Y24.0
G0 Z1.0
G1 F300.0 Z0.0
G1 F800.0 X-2.3
G1 X-2.6 Z-0.2695
G1 X-2.9 Z-0.73
G1 X-3.2 Z-1.1365
G1 X-3.5 Z-1.4991
G1 X-3.8 Z-1.8413
G1 X-4.1 Z-2.1413
G1 X-4.4 Z-2.4259
G1 X-4.7 Z-2.684
G1 X-5.0 Z-2.9246
G1 X-5.3 Z-3.146
G1 X-5.6 Z-3.3518
G1 X-5.9 Z-3.5403
G1 X-6.2 Z-3.7179
G1 X-6.5 Z-3.8765
G1 X-6.8 Z-4.0
G1 X-13.4
G1 X-13.7 Z-3.9726
G1 X-14.0 Z-3.814
G1 X-14.3 Z-3.6546
G1 X-14.9 Z-3.2775
G1 X-15.2 Z-3.0588
G1 X-15.5 Z-2.8374
G1 X-15.8 Z-2.5824
G1 X-16.1 Z-2.3232
G1 X-16.4 Z-2.0232
G1 X-16.7 Z-1.7104
G1 X-17.0 Z-1.3618
G1 X-17.3 Z-0.9764
G1 X-17.6 Z-0.5589
G1 X-17.9 Z-0.0814
G1 X-18.2 Z0.0
G1 X-20.75
G0 Z3.0
G0 X0.75 Y23.4
G0 Z1.0
G1 F300.0 Z0.0
G1 F800.0 X-2.3
G1 X-2.6 Z-0.2695
G1 X-2.9 Z-0.73
G1 X-3.2 Z-1.1365
G1 X-3.5 Z-1.4991
G1 X-3.8 Z-1.8413
G1 X-4.1 Z-2.1413
G1 X-4.4 Z-2.4259
G1 X-4.7 Z-2.684
G1 X-5.0 Z-2.9246
G1 X-5.3 Z-3.146
G1 X-5.6 Z-3.3518
G1 X-5.9 Z-3.5403
G1 X-6.2 Z-3.7179
G1 X-6.5 Z-3.8765
G1 X-6.8 Z-4.0
G1 X-13.4
G1 X-13.7 Z-3.9726
G1 X-14.0 Z-3.814
G1 X-14.3 Z-3.6546
G1 X-14.9 Z-3.2775
G1 X-15.2 Z-3.0588
G1 X-15.5 Z-2.8374
G1 X-15.8 Z-2.5824
G1 X-16.1 Z-2.3232
G1 X-16.4 Z-2.0232
G1 X-16.7 Z-1.7104
G1 X-17.0 Z-1.3618
G1 X-17.3 Z-0.9764
G1 X-17.6 Z-0.5589
G1 X-17.9 Z-0.0814
G1 X-18.2 Z0.0
G1 X-20.75
G0 Z3.0
G0 X0.75 Y22.8
G0 Z1.0
G1 F300.0 Z0.0
G1 F800.0 X-2.3
G1 X-2.6 Z-0.2695
G1 X-2.9 Z-0.73
G1 X-3.2 Z-1.1365
G1 X-3.5 Z-1.4991
G1 X-3.8 Z-1.8413
G1 X-4.1 Z-2.1413
G1 X-4.4 Z-2.4259
G1 X-4.7 Z-2.684
G1 X-5.0 Z-2.9246
G1 X-5.3 Z-3.146
G1 X-5.6 Z-3.3518
G1 X-5.9 Z-3.5403
G1 X-6.2 Z-3.7179
G1 X-6.5 Z-3.8765
G1 X-6.8 Z-4.0
G1 X-13.4
G1 X-13.7 Z-3.9726
G1 X-14.0 Z-3.814
G1 X-14.3 Z-3.6546
G1 X-14.9 Z-3.2775
G1 X-15.2 Z-3.0588
G1 X-15.5 Z-2.8374
G1 X-15.8 Z-2.5824
G1 X-16.1 Z-2.3232
G1 X-16.4 Z-2.0232
G1 X-16.7 Z-1.7104
G1 X-17.0 Z-1.3618
G1 X-17.3 Z-0.9764
G1 X-17.6 Z-0.5589
G1 X-17.9 Z-0.0814
G1 X-18.2 Z0.0
G1 X-20.75
G0 Z3.0
G0 X0.75 Y22.2
G0 Z1.0
G1 F300.0 Z0.0
G1 F800.0 X-2.3
G1 X-2.6 Z-0.2695
G1 X-2.9 Z-0.73
G1 X-3.2 Z-1.1365
G1 X-3.5 Z-1.4991
G1 X-3.8 Z-1.8413
G1 X-4.1 Z-2.1413
G1 X-4.4 Z-2.4259
G1 X-4.7 Z-2.684
G1 X-5.0 Z-2.9246
G1 X-5.3 Z-3.146
G1 X-5.6 Z-3.3518
G1 X-5.9 Z-3.5403
G1 X-6.2 Z-3.7179
G1 X-6.5 Z-3.8765
G1 X-6.8 Z-4.0
G1 X-13.4
G1 X-13.7 Z-3.9726
G1 X-14.0 Z-3.814
G1 X-14.3 Z-3.6546
G1 X-14.9 Z-3.2775
G1 X-15.2 Z-3.0588
G1 X-15.5 Z-2.8374
G1 X-15.8 Z-2.5824
G1 X-16.1 Z-2.3232
G1 X-16.4 Z-2.0232
G1 X-16.7 Z-1.7104
G1 X-17.0 Z-1.3618
G1 X-17.3 Z-0.9764
G1 X-17.6 Z-0.5589
G1 X-17.9 Z-0.0814
G1 X-18.2 Z0.0
G1 X-20.75
G0 Z3.0
G0 X0.75 Y21.6
G0 Z1.0
G1 F300.0 Z0.0
G1 F800.0 X-2.3
G1 X-2.6 Z-0.2695
G1 X-2.9 Z-0.73
G1 X-3.2 Z-1.1365
G1 X-3.5 Z-1.4991
G1 X-3.8 Z-1.8413
G1 X-4.1 Z-2.1413
G1 X-4.4 Z-2.4259
G1 X-4.7 Z-2.684
G1 X-5.0 Z-2.9246
G1 X-5.3 Z-3.146
G1 X-5.6 Z-3.3518
G1 X-5.9 Z-3.5403
G1 X-6.2 Z-3.7179
G1 X-6.5 Z-3.8765
G1 X-6.8 Z-4.0
G1 X-13.4
G1 X-13.7 Z-3.9726
G1 X-14.0 Z-3.814
G1 X-14.3 Z-3.6546
G1 X-14.9 Z-3.2775
G1 X-15.2 Z-3.0588
G1 X-15.5 Z-2.8374
G1 X-15.8 Z-2.5824
G1 X-16.1 Z-2.3232
G1 X-16.4 Z-2.0232
G1 X-16.7 Z-1.7104
G1 X-17.0 Z-1.3618
G1 X-17.3 Z-0.9764
G1 X-17.6 Z-0.5589
G1 X-17.9 Z-0.0814
G1 X-18.2 Z0.0
G1 X-20.75
G0 Z3.0
G0 X0.75 Y21.0
G0 Z1.0
G1 F300.0 Z0.0
G1 F800.0 X-2.3
G1 X-2.6 Z-0.2695
G1 X-2.9 Z-0.73
G1 X-3.2 Z-1.1365
G1 X-3.5 Z-1.4991
G1 X-3.8 Z-1.8413
G1 X-4.1 Z-2.1413
G1 X-4.4 Z-2.4259
G1 X-4.7 Z-2.684
G1 X-5.0 Z-2.9246
G1 X-5.3 Z-3.146
G1 X-5.6 Z-3.3518
G1 X-5.9 Z-3.5403
G1 X-6.2 Z-3.7179
G1 X-6.5 Z-3.8765
G1 X-6.8 Z-4.0
G1 X-13.4
G1 X-13.7 Z-3.9726
G1 X-14.0 Z-3.814
G1 X-14.3 Z-3.6546
G1 X-14.9 Z-3.2775
G1 X-15.2 Z-3.0588
G1 X-15.5 Z-2.8374
G1 X-15.8 Z-2.5824
G1 X-16.1 Z-2.3232
G1 X-16.4 Z-2.0232
G1 X-16.7 Z-1.7104
G1 X-17.0 Z-1.3618
G1 X-17.3 Z-0.9764
G1 X-17.6 Z-0.5589
G1 X-17.9 Z-0.0814
G1 X-18.2 Z0.0
G1 X-20.75
G0 Z3.0
G0 X0.75 Y20.4
G0 Z1.0
G1 F300.0 Z0.0
G1 F800.0 X-2.3
G1 X-2.6 Z-0.2695
G1 X-2.9 Z-0.73
G1 X-3.2 Z-1.1365
G1 X-3.5 Z-1.4991
G1 X-3.8 Z-1.8413
G1 X-4.1 Z-2.1413
G1 X-4.4 Z-2.4259
G1 X-4.7 Z-2.684
G1 X-5.0 Z-2.9246
G1 X-5.3 Z-3.146
G1 X-5.6 Z-3.3518
G1 X-5.9 Z-3.5403
G1 X-6.2 Z-3.7179
G1 X-6.5 Z-3.8765
G1 X-6.8 Z-4.0
G1 X-13.4
G1 X-13.7 Z-3.9726
G1 X-14.0 Z-3.814
G1 X-14.3 Z-3.6546
G1 X-14.9 Z-3.2775
G1 X-15.2 Z-3.0588
G1 X-15.5 Z-2.8374
G1 X-15.8 Z-2.5824
G1 X-16.1 Z-2.3232
G1 X-16.4 Z-2.0232
G1 X-16.7 Z-1.7104
G1 X-17.0 Z-1.3618
G1 X-17.3 Z-0.9764
G1 X-17.6 Z-0.5589
G1 X-17.9 Z-0.0814
G1 X-18.2 Z0.0
G1 X-20.75
G0 Z3.0
G0 X0.75 Y19.8
G0 Z1.0
G1 F300.0 Z0.0
G1 F800.0 X-2.3
G1 X-2.6 Z-0.2695
G1 X-2.9 Z-0.73
G1 X-3.2 Z-1.1365
G1 X-3.5 Z-1.4991
G1 X-3.8 Z-1.8413
G1 X-4.1 Z-2.1413
G1 X-4.4 Z-2.4259
G1 X-4.7 Z-2.684
G1 X-5.0 Z-2.9246
G1 X-5.3 Z-3.146
G1 X-5.6 Z-3.3518
G1 X-5.9 Z-3.5403
G1 X-6.2 Z-3.7179
G1 X-6.5 Z-3.8765
G1 X-6.8 Z-4.0
G1 X-13.4
G1 X-13.7 Z-3.9726
G1 X-14.0 Z-3.814
G1 X-14.3 Z-3.6546
G1 X-14.9 Z-3.2775
G1 X-15.2 Z-3.0588
G1 X-15.5 Z-2.8374
G1 X-15.8 Z-2.5824
G1 X-16.1 Z-2.3232
G1 X-16.4 Z-2.0232
G1 X-16.7 Z-1.7104
G1 X-17.0 Z-1.3618
G1 X-17.3 Z-0.9764
G1 X-17.6 Z-0.5589
G1 X-17.9 Z-0.0814
G1 X-18.2 Z0.0
G1 X-20.75
G0 Z3.0
G0 X0.75 Y19.2
G0 Z1.0
G1 F300.0 Z0.0
G1 F800.0 X-2.3
G1 X-2.6 Z-0.2695
G1 X-2.9 Z-0.73
G1 X-3.2 Z-1.1365
G1 X-3.5 Z-1.4991
G1 X-3.8 Z-1.8413
G1 X-4.1 Z-2.1413
G1 X-4.4 Z-2.4259
G1 X-4.7 Z-2.684
G1 X-5.0 Z-2.9246
G1 X-5.3 Z-3.146
G1 X-5.6 Z-3.3518
G1 X-5.9 Z-3.5403
G1 X-6.2 Z-3.7179
G1 X-6.5 Z-3.8765
G1 X-6.8 Z-4.0
G1 X-13.4
G1 X-13.7 Z-3.9726
G1 X-14.0 Z-3.814
G1 X-14.3 Z-3.6546
G1 X-14.9 Z-3.2775
G1 X-15.2 Z-3.0588
G1 X-15.5 Z-2.8374
G1 X-15.8 Z-2.5824
G1 X-16.1 Z-2.3232
G1 X-16.4 Z-2.0232
G1 X-16.7 Z-1.7104
G1 X-17.0 Z-1.3618
G1 X-17.3 Z-0.9764
G1 X-17.6 Z-0.5589
G1 X-17.9 Z-0.0814
G1 X-18.2 Z0.0
G1 X-20.75
G0 Z3.0
G0 X0.75 Y18.6
G0 Z1.0
G1 F300.0 Z0.0
G1 F800.0 X-2.3
G1 X-2.6 Z-0.2695
G1 X-2.9 Z-0.73
G1 X-3.2 Z-1.1365
G1 X-3.5 Z-1.4991
G1 X-3.8 Z-1.8413
G1 X-4.1 Z-2.1413
G1 X-4.4 Z-2.4259
G1 X-4.7 Z-2.684
G1 X-5.0 Z-2.9246
G1 X-5.3 Z-3.146
G1 X-5.6 Z-3.3518
G1 X-5.9 Z-3.5403
G1 X-6.2 Z-3.7179
G1 X-6.5 Z-3.8765
G1 X-6.8 Z-4.0
G1 X-13.4
G1 X-13.7 Z-3.9726
G1 X-14.0 Z-3.814
G1 X-14.3 Z-3.6546
G1 X-14.9 Z-3.2775
G1 X-15.2 Z-3.0588
G1 X-15.5 Z-2.8374
G1 X-15.8 Z-2.5824
G1 X-16.1 Z-2.3232
G1 X-16.4 Z-2.0232
G1 X-16.7 Z-1.7104
G1 X-17.0 Z-1.3618
G1 X-17.3 Z-0.9764
G1 X-17.6 Z-0.5589
G1 X-17.9 Z-0.0814
G1 X-18.2 Z0.0
G1 X-20.75
G0 Z3.0
G0 X0.75 Y18.0
G0 Z1.0
G1 F300.0 Z0.0
G1 F800.0 X-2.3
G1 X-2.6 Z-0.2695
G1 X-2.9 Z-0.73
G1 X-3.2 Z-1.1365
G1 X-3.5 Z-1.4991
G1 X-3.8 Z-1.8413
G1 X-4.1 Z-2.1413
G1 X-4.4 Z-2.4259
G1 X-4.7 Z-2.684
G1 X-5.0 Z-2.9246
G1 X-5.3 Z-3.146
G1 X-5.6 Z-3.3518
G1 X-5.9 Z-3.5403
G1 X-6.2 Z-3.7179
G1 X-6.5 Z-3.8765
G1 X-6.8 Z-4.0
G1 X-13.4
G1 X-13.7 Z-3.9726
G1 X-14.0 Z-3.814
G1 X-14.3 Z-3.6546
G1 X-14.9 Z-3.2775
G1 X-15.2 Z-3.0588
G1 X-15.5 Z-2.8374
G1 X-15.8 Z-2.5824
G1 X-16.1 Z-2.3232
G1 X-16.4 Z-2.0232
G1 X-16.7 Z-1.7104
G1 X-17.0 Z-1.3618
G1 X-17.3 Z-0.9764
G1 X-17.6 Z-0.5589
G1 X-17.9 Z-0.0814
G1 X-18.2 Z0.0
G1 X-20.75
G0 Z3.0
G0 X0.75 Y17.4
G0 Z1.0
G1 F300.0 Z0.0
G1 F800.0 X-2.3
G1 X-2.6 Z-0.2695
G1 X-2.9 Z-0.73
G1 X-3.2 Z-1.1365
G1 X-3.5 Z-1.4991
G1 X-3.8 Z-1.8413
G1 X-4.1 Z-2.1413
G1 X-4.4 Z-2.4259
G1 X-4.7 Z-2.684
G1 X-5.0 Z-2.9246
G1 X-5.3 Z-3.146
G1 X-5.6 Z-3.3518
G1 X-5.9 Z-3.5403
G1 X-6.2 Z-3.7179
G1 X-6.5 Z-3.8765
G1 X-6.8 Z-4.0
G1 X-13.4
G1 X-13.7 Z-3.9726
G1 X-14.0 Z-3.814
G1 X-14.3 Z-3.6546
G1 X-14.9 Z-3.2775
G1 X-15.2 Z-3.0588
G1 X-15.5 Z-2.8374
G1 X-15.8 Z-2.5824
G1 X-16.1 Z-2.3232
G1 X-16.4 Z-2.0232
G1 X-16.7 Z-1.7104
G1 X-17.0 Z-1.3618
G1 X-17.3 Z-0.9764
G1 X-17.6 Z-0.5589
G1 X-17.9 Z-0.0814
G1 X-18.2 Z0.0
G1 X-20.75
G0 Z3.0
G0 X0.75 Y16.8
G0 Z1.0
G1 F300.0 Z0.0
G1 F800.0 X-2.3
G1 X-2.6 Z-0.2695
G1 X-2.9 Z-0.73
G1 X-3.2 Z-1.1365
G1 X-3.5 Z-1.4991
G1 X-3.8 Z-1.8413
G1 X-4.1 Z-2.1413
G1 X-4.4 Z-2.4259
G1 X-4.7 Z-2.684
G1 X-5.0 Z-2.9246
G1 X-5.3 Z-3.146
G1 X-5.6 Z-3.3518
G1 X-5.9 Z-3.5403
G1 X-6.2 Z-3.7179
G1 X-6.5 Z-3.8765
G1 X-6.8 Z-4.0
G1 X-13.4
G1 X-13.7 Z-3.9726
G1 X-14.0 Z-3.814
G1 X-14.3 Z-3.6546
G1 X-14.9 Z-3.2775
G1 X-15.2 Z-3.0588
G1 X-15.5 Z-2.8374
G1 X-15.8 Z-2.5824
G1 X-16.1 Z-2.3232
G1 X-16.4 Z-2.0232
G1 X-16.7 Z-1.7104
G1 X-17.0 Z-1.3618
G1 X-17.3 Z-0.9764
G1 X-17.6 Z-0.5589
G1 X-17.9 Z-0.0814
G1 X-18.2 Z0.0
G1 X-20.75
G0 Z3.0
G0 X0.75 Y16.2
G0 Z1.0
G1 F300.0 Z0.0
G1 F800.0 X-2.3
G1 X-2.6 Z-0.2695
G1 X-2.9 Z-0.73
G1 X-3.2 Z-1.1365
G1 X-3.5 Z-1.4991
G1 X-3.8 Z-1.8413
G1 X-4.1 Z-2.1413
G1 X-4.4 Z-2.4259
G1 X-4.7 Z-2.684
G1 X-5.0 Z-2.9246
G1 X-5.3 Z-3.146
G1 X-5.6 Z-3.3518
G1 X-5.9 Z-3.5403
G1 X-6.2 Z-3.7179
G1 X-6.5 Z-3.8765
G1 X-6.8 Z-4.0
G1 X-13.4
G1 X-13.7 Z-3.9726
G1 X-14.0 Z-3.814
G1 X-14.3 Z-3.6546
G1 X-14.9 Z-3.2775
G1 X-15.2 Z-3.0588
G1 X-15.5 Z-2.8374
G1 X-15.8 Z-2.5824
G1 X-16.1 Z-2.3232
G1 X-16.4 Z-2.0232
G1 X-16.7 Z-1.7104
G1 X-17.0 Z-1.3618
G1 X-17.3 Z-0.9764
G1 X-17.6 Z-0.5589
G1 X-17.9 Z-0.0814
G1 X-18.2 Z0.0
G1 X-20.75
G0 Z3.0
G0 X0.75 Y15.6
G0 Z1.0
G1 F300.0 Z0.0
G1 F800.0 X-2.3
G1 X-2.6 Z-0.2695
G1 X-2.9 Z-0.73
G1 X-3.2 Z-1.1365
G1 X-3.5 Z-1.4991
G1 X-3.8 Z-1.8413
G1 X-4.1 Z-2.1413
G1 X-4.4 Z-2.4259
G1 X-4.7 Z-2.684
G1 X-5.0 Z-2.9246
G1 X-5.3 Z-3.146
G1 X-5.6 Z-3.3518
G1 X-5.9 Z-3.5403
G1 X-6.2 Z-3.7179
G1 X-6.5 Z-3.8765
G1 X-6.8 Z-4.0
G1 X-13.4
G1 X-13.7 Z-3.9726
G1 X-14.0 Z-3.814
G1 X-14.3 Z-3.6546
G1 X-14.9 Z-3.2775
G1 X-15.2 Z-3.0588
G1 X-15.5 Z-2.8374
G1 X-15.8 Z-2.5824
G1 X-16.1 Z-2.3232
G1 X-16.4 Z-2.0232
G1 X-16.7 Z-1.7104
G1 X-17.0 Z-1.3618
G1 X-17.3 Z-0.9764
G1 X-17.6 Z-0.5589
G1 X-17.9 Z-0.0814
G1 X-18.2 Z0.0
G1 X-20.75
G0 Z3.0
G0 X0.75 Y15.0
G0 Z1.0
G1 F300.0 Z0.0
G1 F800.0 X-2.3
G1 X-2.6 Z-0.2695
G1 X-2.9 Z-0.73
G1 X-3.2 Z-1.1365
G1 X-3.5 Z-1.4991
G1 X-3.8 Z-1.8413
G1 X-4.1 Z-2.1413
G1 X-4.4 Z-2.4259
G1 X-4.7 Z-2.684
G1 X-5.0 Z-2.9246
G1 X-5.3 Z-3.146
G1 X-5.6 Z-3.3518
G1 X-5.9 Z-3.5403
G1 X-6.2 Z-3.7179
G1 X-6.5 Z-3.8765
G1 X-6.8 Z-4.0
G1 X-13.4
G1 X-13.7 Z-3.9726
G1 X-14.0 Z-3.814
G1 X-14.3 Z-3.6546
G1 X-14.9 Z-3.2775
G1 X-15.2 Z-3.0588
G1 X-15.5 Z-2.8374
G1 X-15.8 Z-2.5824
G1 X-16.1 Z-2.3232
G1 X-16.4 Z-2.0232
G1 X-16.7 Z-1.7104
G1 X-17.0 Z-1.3618
G1 X-17.3 Z-0.9764
G1 X-17.6 Z-0.5589
G1 X-17.9 Z-0.0814
G1 X-18.2 Z0.0
G1 X-20.75
G0 Z3.0
G0 X0.75 Y14.4
G0 Z1.0
G1 F300.0 Z0.0
G1 F800.0 X-2.3
G1 X-2.6 Z-0.2695
G1 X-2.9 Z-0.73
G1 X-3.2 Z-1.1365
G1 X-3.5 Z-1.4991
G1 X-3.8 Z-1.8413
G1 X-4.1 Z-2.1413
G1 X-4.4 Z-2.4259
G1 X-4.7 Z-2.684
G1 X-5.0 Z-2.9246
G1 X-5.3 Z-3.146
G1 X-5.6 Z-3.3518
G1 X-5.9 Z-3.5403
G1 X-6.2 Z-3.7179
G1 X-6.5 Z-3.8765
G1 X-6.8 Z-4.0
G1 X-13.4
G1 X-13.7 Z-3.9726
G1 X-14.0 Z-3.814
G1 X-14.3 Z-3.6546
G1 X-14.9 Z-3.2775
G1 X-15.2 Z-3.0588
G1 X-15.5 Z-2.8374
G1 X-15.8 Z-2.5824
G1 X-16.1 Z-2.3232
G1 X-16.4 Z-2.0232
G1 X-16.7 Z-1.7104
G1 X-17.0 Z-1.3618
G1 X-17.3 Z-0.9764
G1 X-17.6 Z-0.5589
G1 X-17.9 Z-0.0814
G1 X-18.2 Z0.0
G1 X-20.75
G0 Z3.0
G0 X0.75 Y13.8
G0 Z1.0
G1 F300.0 Z0.0
G1 F800.0 X-2.3
G1 X-2.6 Z-0.2695
G1 X-2.9 Z-0.73
G1 X-3.2 Z-1.1365
G1 X-3.5 Z-1.4991
G1 X-3.8 Z-1.8413
G1 X-4.1 Z-2.1413
G1 X-4.4 Z-2.4259
G1 X-4.7 Z-2.684
G1 X-5.0 Z-2.9246
G1 X-5.3 Z-3.146
G1 X-5.6 Z-3.3518
G1 X-5.9 Z-3.5403
G1 X-6.2 Z-3.7179
G1 X-6.5 Z-3.8765
G1 X-6.8 Z-4.0
G1 X-13.4
G1 X-13.7 Z-3.9726
G1 X-14.0 Z-3.814
G1 X-14.3 Z-3.6546
G1 X-14.9 Z-3.2775
G1 X-15.2 Z-3.0588
G1 X-15.5 Z-2.8374
G1 X-15.8 Z-2.5824
G1 X-16.1 Z-2.3232
G1 X-16.4 Z-2.0232
G1 X-16.7 Z-1.7104
G1 X-17.0 Z-1.3618
G1 X-17.3 Z-0.9764
G1 X-17.6 Z-0.5589
G1 X-17.9 Z-0.0814
G1 X-18.2 Z0.0
G1 X-20.75
G0 Z3.0
G0 X0.75 Y13.2
G0 Z1.0
G1 F300.0 Z0.0
G1 F800.0 X-2.3
G1 X-2.6 Z-0.2695
G1 X-2.9 Z-0.73
G1 X-3.2 Z-1.1365
G1 X-3.5 Z-1.4991
G1 X-3.8 Z-1.8413
G1 X-4.1 Z-2.1413
G1 X-4.4 Z-2.4259
G1 X-4.7 Z-2.684
G1 X-5.0 Z-2.9246
G1 X-5.3 Z-3.146
G1 X-5.6 Z-3.3518
G1 X-5.9 Z-3.5403
G1 X-6.2 Z-3.7179
G1 X-6.5 Z-3.8765
G1 X-6.8 Z-4.0
G1 X-13.4
G1 X-13.7 Z-3.9726
G1 X-14.0 Z-3.814
G1 X-14.3 Z-3.6546
G1 X-14.9 Z-3.2775
G1 X-15.2 Z-3.0588
G1 X-15.5 Z-2.8374
G1 X-15.8 Z-2.5824
G1 X-16.1 Z-2.3232
G1 X-16.4 Z-2.0232
G1 X-16.7 Z-1.7104
G1 X-17.0 Z-1.3618
G1 X-17.3 Z-0.9764
G1 X-17.6 Z-0.5589
G1 X-17.9 Z-0.0814
G1 X-18.2 Z0.0
G1 X-20.75
G0 Z3.0
G0 X0.75 Y12.6
G0 Z1.0
G1 F300.0 Z0.0
G1 F800.0 X-2.3
G1 X-2.6 Z-0.2695
G1 X-2.9 Z-0.73
G1 X-3.2 Z-1.1365
G1 X-3.5 Z-1.4991
G1 X-3.8 Z-1.8413
G1 X-4.1 Z-2.1413
G1 X-4.4 Z-2.4259
G1 X-4.7 Z-2.684
G1 X-5.0 Z-2.9246
G1 X-5.3 Z-3.146
G1 X-5.6 Z-3.3518
G1 X-5.9 Z-3.5403
G1 X-6.2 Z-3.7179
G1 X-6.5 Z-3.8765
G1 X-6.8 Z-4.0
G1 X-13.4
G1 X-13.7 Z-3.9726
G1 X-14.0 Z-3.814
G1 X-14.3 Z-3.6546
G1 X-14.9 Z-3.2775
G1 X-15.2 Z-3.0588
G1 X-15.5 Z-2.8374
G1 X-15.8 Z-2.5824
G1 X-16.1 Z-2.3232
G1 X-16.4 Z-2.0232
G1 X-16.7 Z-1.7104
G1 X-17.0 Z-1.3618
G1 X-17.3 Z-0.9764
G1 X-17.6 Z-0.5589
G1 X-17.9 Z-0.0814
G1 X-18.2 Z0.0
G1 X-20.75
G0 Z3.0
G0 X0.75 Y12.0
G0 Z1.0
G1 F300.0 Z0.0
G1 F800.0 X-2.3
G1 X-2.6 Z-0.2695
G1 X-2.9 Z-0.73
G1 X-3.2 Z-1.1365
G1 X-3.5 Z-1.4991
G1 X-3.8 Z-1.8413
G1 X-4.1 Z-2.1413
G1 X-4.4 Z-2.4259
G1 X-4.7 Z-2.684
G1 X-5.0 Z-2.9246
G1 X-5.3 Z-3.146
G1 X-5.6 Z-3.3518
G1 X-5.9 Z-3.5403
G1 X-6.2 Z-3.7179
G1 X-6.5 Z-3.8765
G1 X-6.8 Z-4.0
G1 X-13.4
G1 X-13.7 Z-3.9726
G1 X-14.0 Z-3.814
G1 X-14.3 Z-3.6546
G1 X-14.9 Z-3.2775
G1 X-15.2 Z-3.0588
G1 X-15.5 Z-2.8374
G1 X-15.8 Z-2.5824
G1 X-16.1 Z-2.3232
G1 X-16.4 Z-2.0232
G1 X-16.7 Z-1.7104
G1 X-17.0 Z-1.3618
G1 X-17.3 Z-0.9764
G1 X-17.6 Z-0.5589
G1 X-17.9 Z-0.0814
G1 X-18.2 Z0.0
G1 X-20.75
G0 Z3.0
G0 X0.75 Y11.4
G0 Z1.0
G1 F300.0 Z0.0
G1 F800.0 X-2.3
G1 X-2.6 Z-0.2695
G1 X-2.9 Z-0.73
G1 X-3.2 Z-1.1365
G1 X-3.5 Z-1.4991
G1 X-3.8 Z-1.8413
G1 X-4.1 Z-2.1413
G1 X-4.4 Z-2.4259
G1 X-4.7 Z-2.684
G1 X-5.0 Z-2.9246
G1 X-5.3 Z-3.146
G1 X-5.6 Z-3.3518
G1 X-5.9 Z-3.5403
G1 X-6.2 Z-3.7179
G1 X-6.5 Z-3.8765
G1 X-6.8 Z-4.0
G1 X-13.4
G1 X-13.7 Z-3.9726
G1 X-14.0 Z-3.814
G1 X-14.3 Z-3.6546
G1 X-14.9 Z-3.2775
G1 X-15.2 Z-3.0588
G1 X-15.5 Z-2.8374
G1 X-15.8 Z-2.5824
G1 X-16.1 Z-2.3232
G1 X-16.4 Z-2.0232
G1 X-16.7 Z-1.7104
G1 X-17.0 Z-1.3618
G1 X-17.3 Z-0.9764
G1 X-17.6 Z-0.5589
G1 X-17.9 Z-0.0814
G1 X-18.2 Z0.0
G1 X-20.75
G0 Z3.0
G0 X0.75 Y10.8
G0 Z1.0
G1 F300.0 Z0.0
G1 F800.0 X-2.3
G1 X-2.6 Z-0.2695
G1 X-2.9 Z-0.73
G1 X-3.2 Z-1.1365
G1 X-3.5 Z-1.4991
G1 X-3.8 Z-1.8413
G1 X-4.1 Z-2.1413
G1 X-4.4 Z-2.4259
G1 X-4.7 Z-2.684
G1 X-5.0 Z-2.9246
G1 X-5.3 Z-3.146
G1 X-5.6 Z-3.3518
G1 X-5.9 Z-3.5403
G1 X-6.2 Z-3.7179
G1 X-6.5 Z-3.8765
G1 X-6.8 Z-4.0
G1 X-13.4
G1 X-13.7 Z-3.9726
G1 X-14.0 Z-3.814
G1 X-14.3 Z-3.6546
G1 X-14.9 Z-3.2775
G1 X-15.2 Z-3.0588
G1 X-15.5 Z-2.8374
G1 X-15.8 Z-2.5824
G1 X-16.1 Z-2.3232
G1 X-16.4 Z-2.0232
G1 X-16.7 Z-1.7104
G1 X-17.0 Z-1.3618
G1 X-17.3 Z-0.9764
G1 X-17.6 Z-0.5589
G1 X-17.9 Z-0.0814
G1 X-18.2 Z0.0
G1 X-20.75
G0 Z3.0
G0 X0.75 Y10.2
G0 Z1.0
G1 F300.0 Z0.0
G1 F800.0 X-2.3
G1 X-2.6 Z-0.2695
G1 X-2.9 Z-0.73
G1 X-3.2 Z-1.1365
G1 X-3.5 Z-1.4991
G1 X-3.8 Z-1.8413
G1 X-4.1 Z-2.1413
G1 X-4.4 Z-2.4259
G1 X-4.7 Z-2.684
G1 X-5.0 Z-2.9246
G1 X-5.3 Z-3.146
G1 X-5.6 Z-3.3518
G1 X-5.9 Z-3.5403
G1 X-6.2 Z-3.7179
G1 X-6.5 Z-3.8765
G1 X-6.8 Z-4.0
G1 X-13.4
G1 X-13.7 Z-3.9726
G1 X-14.0 Z-3.814
G1 X-14.3 Z-3.6546
G1 X-14.9 Z-3.2775
G1 X-15.2 Z-3.0588
G1 X-15.5 Z-2.8374
G1 X-15.8 Z-2.5824
G1 X-16.1 Z-2.3232
G1 X-16.4 Z-2.0232
G1 X-16.7 Z-1.7104
G1 X-17.0 Z-1.3618
G1 X-17.3 Z-0.9764
G1 X-17.6 Z-0.5589
G1 X-17.9 Z-0.0814
G1 X-18.2 Z0.0
G1 X-20.75
G0 Z3.0
G0 X0.75 Y9.6
G0 Z1.0
G1 F300.0 Z0.0
G1 F800.0 X-2.3
G1 X-2.6 Z-0.2695
G1 X-2.9 Z-0.73
G1 X-3.2 Z-1.1365
G1 X-3.5 Z-1.4991
G1 X-3.8 Z-1.8413
G1 X-4.1 Z-2.1413
G1 X-4.4 Z-2.4259
G1 X-4.7 Z-2.684
G1 X-5.0 Z-2.9246
G1 X-5.3 Z-3.146
G1 X-5.6 Z-3.3518
G1 X-5.9 Z-3.5403
G1 X-6.2 Z-3.7179
G1 X-6.5 Z-3.8765
G1 X-6.8 Z-4.0
G1 X-13.4
G1 X-13.7 Z-3.9726
G1 X-14.0 Z-3.814
G1 X-14.3 Z-3.6546
G1 X-14.9 Z-3.2775
G1 X-15.2 Z-3.0588
G1 X-15.5 Z-2.8374
G1 X-15.8 Z-2.5824
G1 X-16.1 Z-2.3232
G1 X-16.4 Z-2.0232
G1 X-16.7 Z-1.7104
G1 X-17.0 Z-1.3618
G1 X-17.3 Z-0.9764
G1 X-17.6 Z-0.5589
G1 X-17.9 Z-0.0814
G1 X-18.2 Z0.0
G1 X-20.75
G0 Z3.0
G0 X0.75 Y9.0
G0 Z1.0
G1 F300.0 Z0.0
G1 F800.0 X-2.3
G1 X-2.6 Z-0.2695
G1 X-2.9 Z-0.73
G1 X-3.2 Z-1.1365
G1 X-3.5 Z-1.4991
G1 X-3.8 Z-1.8413
G1 X-4.1 Z-2.1413
G1 X-4.4 Z-2.4259
G1 X-4.7 Z-2.684
G1 X-5.0 Z-2.9246
G1 X-5.3 Z-3.146
G1 X-5.6 Z-3.3518
G1 X-5.9 Z-3.5403
G1 X-6.2 Z-3.7179
G1 X-6.5 Z-3.8765
G1 X-6.8 Z-4.0
G1 X-13.4
G1 X-13.7 Z-3.9726
G1 X-14.0 Z-3.814
G1 X-14.3 Z-3.6546
G1 X-14.9 Z-3.2775
G1 X-15.2 Z-3.0588
G1 X-15.5 Z-2.8374
G1 X-15.8 Z-2.5824
G1 X-16.1 Z-2.3232
G1 X-16.4 Z-2.0232
G1 X-16.7 Z-1.7104
G1 X-17.0 Z-1.3618
G1 X-17.3 Z-0.9764
G1 X-17.6 Z-0.5589
G1 X-17.9 Z-0.0814
G1 X-18.2 Z0.0
G1 X-20.75
G0 Z3.0
G0 X0.75 Y8.4
G0 Z1.0
G1 F300.0 Z0.0
G1 F800.0 X-2.3
G1 X-2.6 Z-0.2695
G1 X-2.9 Z-0.73
G1 X-3.2 Z-1.1365
G1 X-3.5 Z-1.4991
G1 X-3.8 Z-1.8413
G1 X-4.1 Z-2.1413
G1 X-4.4 Z-2.4259
G1 X-4.7 Z-2.684
G1 X-5.0 Z-2.9246
G1 X-5.3 Z-3.146
G1 X-5.6 Z-3.3518
G1 X-5.9 Z-3.5403
G1 X-6.2 Z-3.7179
G1 X-6.5 Z-3.8765
G1 X-6.8 Z-4.0
G1 X-13.4
G1 X-13.7 Z-3.9726
G1 X-14.0 Z-3.814
G1 X-14.3 Z-3.6546
G1 X-14.9 Z-3.2775
G1 X-15.2 Z-3.0588
G1 X-15.5 Z-2.8374
G1 X-15.8 Z-2.5824
G1 X-16.1 Z-2.3232
G1 X-16.4 Z-2.0232
G1 X-16.7 Z-1.7104
G1 X-17.0 Z-1.3618
G1 X-17.3 Z-0.9764
G1 X-17.6 Z-0.5589
G1 X-17.9 Z-0.0814
G1 X-18.2 Z0.0
G1 X-20.75
G0 Z3.0
G0 X0.75 Y7.8
G0 Z1.0
G1 F300.0 Z0.0
G1 F800.0 X-2.3
G1 X-2.6 Z-0.2695
G1 X-2.9 Z-0.73
G1 X-3.2 Z-1.1365
G1 X-3.5 Z-1.4991
G1 X-3.8 Z-1.8413
G1 X-4.1 Z-2.1413
G1 X-4.4 Z-2.4259
G1 X-4.7 Z-2.684
G1 X-5.0 Z-2.9246
G1 X-5.3 Z-3.146
G1 X-5.6 Z-3.3518
G1 X-5.9 Z-3.5403
G1 X-6.2 Z-3.7179
G1 X-6.5 Z-3.8765
G1 X-6.8 Z-4.0
G1 X-13.4
G1 X-13.7 Z-3.9726
G1 X-14.0 Z-3.814
G1 X-14.3 Z-3.6546
G1 X-14.9 Z-3.2775
G1 X-15.2 Z-3.0588
G1 X-15.5 Z-2.8374
G1 X-15.8 Z-2.5824
G1 X-16.1 Z-2.3232
G1 X-16.4 Z-2.0232
G1 X-16.7 Z-1.7104
G1 X-17.0 Z-1.3618
G1 X-17.3 Z-0.9764
G1 X-17.6 Z-0.5589
G1 X-17.9 Z-0.0814
G1 X-18.2 Z0.0
G1 X-20.75
G0 Z3.0
G0 X0.75 Y7.2
G0 Z1.0
G1 F300.0 Z0.0
G1 F800.0 X-2.3
G1 X-2.6 Z-0.2695
G1 X-2.9 Z-0.73
G1 X-3.2 Z-1.1365
G1 X-3.5 Z-1.4991
G1 X-3.8 Z-1.8413
G1 X-4.1 Z-2.1413
G1 X-4.4 Z-2.4259
G1 X-4.7 Z-2.684
G1 X-5.0 Z-2.9246
G1 X-5.3 Z-3.146
G1 X-5.6 Z-3.3518
G1 X-5.9 Z-3.5403
G1 X-6.2 Z-3.7179
G1 X-6.5 Z-3.8765
G1 X-6.8 Z-4.0
G1 X-13.4
G1 X-13.7 Z-3.9726
G1 X-14.0 Z-3.814
G1 X-14.3 Z-3.6546
