( Made using CamBam - http://www.cambam.co.uk )
( centralizador 3/29/2019 3:14:50 PM )
( T0 : 1.5 )
G21 G90 G64 G40
G0 Z3.0
( T0 : 1.5 )
T0 M6
( Profile1 )
G17
M3 S1000
G0 X29.35 Y34.8
G0 Z1.0
G1 F100.0 Z-1.0
G1 F200.0 Y44.25
G1 X30.65
G1 Y34.8
G3 X31.19 Y34.08 I0.75 J0.0
G2 X34.25 Y30.0 I-1.19 J-4.08
G2 X34.1284 Y28.9906 I-4.25 J0.0
G3 X34.4819 Y28.1629 I0.7285 J-0.1781
G1 X42.6659 Y23.4379
G1 X42.0159 Y22.3121
G1 X33.8319 Y27.0371
G3 X32.9384 Y26.9294 I-0.375 J-0.6495
G2 X27.875 Y26.3194 I-2.9384 J3.0706
G2 X27.0616 Y26.9294 I2.125 J3.6806
G3 X26.1681 Y27.0371 I-0.5185 J-0.5419
G1 X17.9841 Y22.3121
G1 X17.3341 Y23.4379
G1 X25.5181 Y28.1629
G3 X25.8716 Y28.9906 I-0.375 J0.6495
G2 X27.875 Y33.6806 I4.1284 J1.0094
G2 X28.81 Y34.08 I2.125 J-3.6806
G3 X29.35 Y34.8 I-0.21 J0.72
G1 F100.0 Z-2.0
G1 F200.0 Y44.25
G1 X30.65
G1 Y34.8
G3 X31.19 Y34.08 I0.75 J0.0
G2 X34.25 Y30.0 I-1.19 J-4.08
G2 X34.1284 Y28.9906 I-4.25 J0.0
G3 X34.4819 Y28.1629 I0.7285 J-0.1781
G1 X42.6659 Y23.4379
G1 X42.0159 Y22.3121
G1 X33.8319 Y27.0371
G3 X32.9384 Y26.9294 I-0.375 J-0.6495
G2 X27.875 Y26.3194 I-2.9384 J3.0706
G2 X27.0616 Y26.9294 I2.125 J3.6806
G3 X26.1681 Y27.0371 I-0.5185 J-0.5419
G1 X17.9841 Y22.3121
G1 X17.3341 Y23.4379
G1 X25.5181 Y28.1629
G3 X25.8716 Y28.9906 I-0.375 J0.6495
G2 X27.875 Y33.6806 I4.1284 J1.0094
G2 X28.81 Y34.08 I2.125 J-3.6806
G3 X29.35 Y34.8 I-0.21 J0.72
G1 F100.0 Z-3.0
G1 F200.0 Y44.25
G1 X30.65
G1 Y34.8
G3 X31.19 Y34.08 I0.75 J0.0
G2 X34.25 Y30.0 I-1.19 J-4.08
G2 X34.1284 Y28.9906 I-4.25 J0.0
G3 X34.4819 Y28.1629 I0.7285 J-0.1781
G1 X42.6659 Y23.4379
G1 X42.0159 Y22.3121
G1 X33.8319 Y27.0371
G3 X32.9384 Y26.9294 I-0.375 J-0.6495
G2 X27.875 Y26.3194 I-2.9384 J3.0706
G2 X27.0616 Y26.9294 I2.125 J3.6806
G3 X26.1681 Y27.0371 I-0.5185 J-0.5419
G1 X17.9841 Y22.3121
G1 X17.3341 Y23.4379
G1 X25.5181 Y28.1629
G3 X25.8716 Y28.9906 I-0.375 J0.6495
G2 X27.875 Y33.6806 I4.1284 J1.0094
G2 X28.81 Y34.08 I2.125 J-3.6806
G3 X29.35 Y34.8 I-0.21 J0.72
G1 F100.0 Z-4.0
G1 F200.0 Y44.25
G1 X30.65
G1 Y34.8
G3 X31.19 Y34.08 I0.75 J0.0
G2 X34.25 Y30.0 I-1.19 J-4.08
G2 X34.1284 Y28.9906 I-4.25 J0.0
G3 X34.4819 Y28.1629 I0.7285 J-0.1781
G1 X42.6659 Y23.4379
G1 X42.0159 Y22.3121
G1 X33.8319 Y27.0371
G3 X32.9384 Y26.9294 I-0.375 J-0.6495
G2 X27.875 Y26.3194 I-2.9384 J3.0706
G2 X27.0616 Y26.9294 I2.125 J3.6806
G3 X26.1681 Y27.0371 I-0.5185 J-0.5419
G1 X17.9841 Y22.3121
G1 X17.3341 Y23.4379
G1 X25.5181 Y28.1629
G3 X25.8716 Y28.9906 I-0.375 J0.6495
G2 X27.875 Y33.6806 I4.1284 J1.0094
G2 X28.81 Y34.08 I2.125 J-3.6806
G3 X29.35 Y34.8 I-0.21 J0.72
G1 F100.0 Z-5.0
G1 F200.0 Y44.25
G1 X30.65
G1 Y34.8
G3 X31.19 Y34.08 I0.75 J0.0
G2 X34.25 Y30.0 I-1.19 J-4.08
G2 X34.1284 Y28.9906 I-4.25 J0.0
G3 X34.4819 Y28.1629 I0.7285 J-0.1781
G1 X42.6659 Y23.4379
G1 X42.0159 Y22.3121
G1 X33.8319 Y27.0371
G3 X32.9384 Y26.9294 I-0.375 J-0.6495
G2 X27.875 Y26.3194 I-2.9384 J3.0706
G2 X27.0616 Y26.9294 I2.125 J3.6806
G3 X26.1681 Y27.0371 I-0.5185 J-0.5419
G1 X17.9841 Y22.3121
G1 X17.3341 Y23.4379
G1 X25.5181 Y28.1629
G3 X25.8716 Y28.9906 I-0.375 J0.6495
G2 X27.875 Y33.6806 I4.1284 J1.0094
G2 X28.81 Y34.08 I2.125 J-3.6806
G3 X29.35 Y34.8 I-0.21 J0.72
G1 F100.0 Z-6.0
G1 F200.0 Y44.25
G1 X30.65
G1 Y34.8
G3 X31.19 Y34.08 I0.75 J0.0
G2 X34.25 Y30.0 I-1.19 J-4.08
G2 X34.1284 Y28.9906 I-4.25 J0.0
G3 X34.4819 Y28.1629 I0.7285 J-0.1781
G1 X42.6659 Y23.4379
G1 X42.0159 Y22.3121
G1 X33.8319 Y27.0371
G3 X32.9384 Y26.9294 I-0.375 J-0.6495
G2 X27.875 Y26.3194 I-2.9384 J3.0706
G2 X27.0616 Y26.9294 I2.125 J3.6806
G3 X26.1681 Y27.0371 I-0.5185 J-0.5419
G1 X17.9841 Y22.3121
G1 X17.3341 Y23.4379
G1 X25.5181 Y28.1629
G3 X25.8716 Y28.9906 I-0.375 J0.6495
G2 X27.875 Y33.6806 I4.1284 J1.0094
G2 X28.81 Y34.08 I2.125 J-3.6806
G3 X29.35 Y34.8 I-0.21 J0.72
G1 F100.0 Z-7.0
G1 F200.0 Y44.25
G1 X30.65
G1 Y34.8
G3 X31.19 Y34.08 I0.75 J0.0
G2 X34.25 Y30.0 I-1.19 J-4.08
G2 X34.1284 Y28.9906 I-4.25 J0.0
G3 X34.4819 Y28.1629 I0.7285 J-0.1781
G1 X42.6659 Y23.4379
G1 X42.0159 Y22.3121
G1 X33.8319 Y27.0371
G3 X32.9384 Y26.9294 I-0.375 J-0.6495
G2 X27.875 Y26.3194 I-2.9384 J3.0706
G2 X27.0616 Y26.9294 I2.125 J3.6806
G3 X26.1681 Y27.0371 I-0.5185 J-0.5419
G1 X17.9841 Y22.3121
G1 X17.3341 Y23.4379
G1 X25.5181 Y28.1629
G3 X25.8716 Y28.9906 I-0.375 J0.6495
G2 X27.875 Y33.6806 I4.1284 J1.0094
G2 X28.81 Y34.08 I2.125 J-3.6806
G3 X29.35 Y34.8 I-0.21 J0.72
G1 F100.0 Z-8.0
G1 F200.0 Y44.25
G1 X30.65
G1 Y34.8
G3 X31.19 Y34.08 I0.75 J0.0
G2 X34.25 Y30.0 I-1.19 J-4.08
G2 X34.1284 Y28.9906 I-4.25 J0.0
G3 X34.4819 Y28.1629 I0.7285 J-0.1781
G1 X42.6659 Y23.4379
G1 X42.0159 Y22.3121
G1 X33.8319 Y27.0371
G3 X32.9384 Y26.9294 I-0.375 J-0.6495
G2 X27.875 Y26.3194 I-2.9384 J3.0706
G2 X27.0616 Y26.9294 I2.125 J3.6806
G3 X26.1681 Y27.0371 I-0.5185 J-0.5419
G1 X17.9841 Y22.3121
G1 X17.3341 Y23.4379
G1 X25.5181 Y28.1629
G3 X25.8716 Y28.9906 I-0.375 J0.6495
G2 X27.875 Y33.6806 I4.1284 J1.0094
G2 X28.81 Y34.08 I2.125 J-3.6806
G3 X29.35 Y34.8 I-0.21 J0.72
G1 F100.0 Z-9.0
G1 F200.0 Y44.25
G1 X30.65
G1 Y34.8
G3 X31.19 Y34.08 I0.75 J0.0
G2 X34.25 Y30.0 I-1.19 J-4.08
G2 X34.1284 Y28.9906 I-4.25 J0.0
G3 X34.4819 Y28.1629 I0.7285 J-0.1781
G1 X42.6659 Y23.4379
G1 X42.0159 Y22.3121
G1 X33.8319 Y27.0371
G3 X32.9384 Y26.9294 I-0.375 J-0.6495
G2 X27.875 Y26.3194 I-2.9384 J3.0706
G2 X27.0616 Y26.9294 I2.125 J3.6806
G3 X26.1681 Y27.0371 I-0.5185 J-0.5419
G1 X17.9841 Y22.3121
G1 X17.3341 Y23.4379
G1 X25.5181 Y28.1629
G3 X25.8716 Y28.9906 I-0.375 J0.6495
G2 X27.875 Y33.6806 I4.1284 J1.0094
G2 X28.81 Y34.08 I2.125 J-3.6806
G3 X29.35 Y34.8 I-0.21 J0.72
G1 F100.0 Z-9.7
G1 F200.0 Y44.25
G1 X30.65
G1 Y34.8
G3 X31.19 Y34.08 I0.75 J0.0
G2 X34.25 Y30.0 I-1.19 J-4.08
G2 X34.1284 Y28.9906 I-4.25 J0.0
G3 X34.4819 Y28.1629 I0.7285 J-0.1781
G1 X42.6659 Y23.4379
G1 X42.0159 Y22.3121
G1 X33.8319 Y27.0371
G3 X32.9384 Y26.9294 I-0.375 J-0.6495
G2 X27.875 Y26.3194 I-2.9384 J3.0706
G2 X27.0616 Y26.9294 I2.125 J3.6806
G3 X26.1681 Y27.0371 I-0.5185 J-0.5419
G1 X17.9841 Y22.3121
G1 X17.3341 Y23.4379
G1 X25.5181 Y28.1629
G3 X25.8716 Y28.9906 I-0.375 J0.6495
G2 X27.875 Y33.6806 I4.1284 J1.0094
G2 X28.81 Y34.08 I2.125 J-3.6806
G3 X29.35 Y34.8 I-0.21 J0.72
G0 Z3.0
G0 X17.9841 Y86.3121
G0 Z1.0
G1 F100.0 Z-1.0
G1 F200.0 X17.3341 Y87.4379
G1 X25.5181 Y92.1629
G3 X25.8716 Y92.9906 I-0.375 J0.6495
G2 X27.875 Y97.6806 I4.1284 J1.0094
G2 X28.81 Y98.08 I2.125 J-3.6806
G3 X29.35 Y98.8 I-0.21 J0.72
G1 Y108.25
G1 X30.65
G1 Y98.8
G3 X31.19 Y98.08 I0.75 J0.0
G2 X34.25 Y94.0 I-1.19 J-4.08
G2 X34.1284 Y92.9906 I-4.25 J0.0
G3 X34.4819 Y92.1629 I0.7285 J-0.1781
G1 X42.6659 Y87.4379
G1 X42.0159 Y86.3121
G1 X33.8319 Y91.0371
G3 X32.9384 Y90.9294 I-0.375 J-0.6495
G2 X27.875 Y90.3194 I-2.9384 J3.0706
G2 X27.0616 Y90.9294 I2.125 J3.6806
G3 X26.1681 Y91.0371 I-0.5185 J-0.5419
G1 X17.9841 Y86.3121
G1 F100.0 Z-2.0
G1 F200.0 X17.3341 Y87.4379
G1 X25.5181 Y92.1629
G3 X25.8716 Y92.9906 I-0.375 J0.6495
G2 X27.875 Y97.6806 I4.1284 J1.0094
G2 X28.81 Y98.08 I2.125 J-3.6806
G3 X29.35 Y98.8 I-0.21 J0.72
G1 Y108.25
G1 X30.65
G1 Y98.8
G3 X31.19 Y98.08 I0.75 J0.0
G2 X34.25 Y94.0 I-1.19 J-4.08
G2 X34.1284 Y92.9906 I-4.25 J0.0
G3 X34.4819 Y92.1629 I0.7285 J-0.1781
G1 X42.6659 Y87.4379
G1 X42.0159 Y86.3121
G1 X33.8319 Y91.0371
G3 X32.9384 Y90.9294 I-0.375 J-0.6495
G2 X27.875 Y90.3194 I-2.9384 J3.0706
G2 X27.0616 Y90.9294 I2.125 J3.6806
G3 X26.1681 Y91.0371 I-0.5185 J-0.5419
G1 X17.9841 Y86.3121
G1 F100.0 Z-3.0
G1 F200.0 X17.3341 Y87.4379
G1 X25.5181 Y92.1629
G3 X25.8716 Y92.9906 I-0.375 J0.6495
G2 X27.875 Y97.6806 I4.1284 J1.0094
G2 X28.81 Y98.08 I2.125 J-3.6806
G3 X29.35 Y98.8 I-0.21 J0.72
G1 Y108.25
G1 X30.65
G1 Y98.8
G3 X31.19 Y98.08 I0.75 J0.0
G2 X34.25 Y94.0 I-1.19 J-4.08
G2 X34.1284 Y92.9906 I-4.25 J0.0
G3 X34.4819 Y92.1629 I0.7285 J-0.1781
G1 X42.6659 Y87.4379
G1 X42.0159 Y86.3121
G1 X33.8319 Y91.0371
G3 X32.9384 Y90.9294 I-0.375 J-0.6495
G2 X27.875 Y90.3194 I-2.9384 J3.0706
G2 X27.0616 Y90.9294 I2.125 J3.6806
G3 X26.1681 Y91.0371 I-0.5185 J-0.5419
G1 X17.9841 Y86.3121
G1 F100.0 Z-4.0
G1 F200.0 X17.3341 Y87.4379
G1 X25.5181 Y92.1629
G3 X25.8716 Y92.9906 I-0.375 J0.6495
G2 X27.875 Y97.6806 I4.1284 J1.0094
G2 X28.81 Y98.08 I2.125 J-3.6806
G3 X29.35 Y98.8 I-0.21 J0.72
G1 Y108.25
G1 X30.65
G1 Y98.8
G3 X31.19 Y98.08 I0.75 J0.0
G2 X34.25 Y94.0 I-1.19 J-4.08
G2 X34.1284 Y92.9906 I-4.25 J0.0
G3 X34.4819 Y92.1629 I0.7285 J-0.1781
G1 X42.6659 Y87.4379
G1 X42.0159 Y86.3121
G1 X33.8319 Y91.0371
G3 X32.9384 Y90.9294 I-0.375 J-0.6495
G2 X27.875 Y90.3194 I-2.9384 J3.0706
G2 X27.0616 Y90.9294 I2.125 J3.6806
G3 X26.1681 Y91.0371 I-0.5185 J-0.5419
G1 X17.9841 Y86.3121
G1 F100.0 Z-5.0
G1 F200.0 X17.3341 Y87.4379
G1 X25.5181 Y92.1629
G3 X25.8716 Y92.9906 I-0.375 J0.6495
G2 X27.875 Y97.6806 I4.1284 J1.0094
G2 X28.81 Y98.08 I2.125 J-3.6806
G3 X29.35 Y98.8 I-0.21 J0.72
G1 Y108.25
G1 X30.65
G1 Y98.8
G3 X31.19 Y98.08 I0.75 J0.0
G2 X34.25 Y94.0 I-1.19 J-4.08
G2 X34.1284 Y92.9906 I-4.25 J0.0
G3 X34.4819 Y92.1629 I0.7285 J-0.1781
G1 X42.6659 Y87.4379
G1 X42.0159 Y86.3121
G1 X33.8319 Y91.0371
G3 X32.9384 Y90.9294 I-0.375 J-0.6495
G2 X27.875 Y90.3194 I-2.9384 J3.0706
G2 X27.0616 Y90.9294 I2.125 J3.6806
G3 X26.1681 Y91.0371 I-0.5185 J-0.5419
G1 X17.9841 Y86.3121
G1 F100.0 Z-6.0
G1 F200.0 X17.3341 Y87.4379
G1 X25.5181 Y92.1629
G3 X25.8716 Y92.9906 I-0.375 J0.6495
G2 X27.875 Y97.6806 I4.1284 J1.0094
G2 X28.81 Y98.08 I2.125 J-3.6806
G3 X29.35 Y98.8 I-0.21 J0.72
G1 Y108.25
G1 X30.65
G1 Y98.8
G3 X31.19 Y98.08 I0.75 J0.0
G2 X34.25 Y94.0 I-1.19 J-4.08
G2 X34.1284 Y92.9906 I-4.25 J0.0
G3 X34.4819 Y92.1629 I0.7285 J-0.1781
G1 X42.6659 Y87.4379
G1 X42.0159 Y86.3121
G1 X33.8319 Y91.0371
G3 X32.9384 Y90.9294 I-0.375 J-0.6495
G2 X27.875 Y90.3194 I-2.9384 J3.0706
G2 X27.0616 Y90.9294 I2.125 J3.6806
G3 X26.1681 Y91.0371 I-0.5185 J-0.5419
G1 X17.9841 Y86.3121
G1 F100.0 Z-7.0
G1 F200.0 X17.3341 Y87.4379
G1 X25.5181 Y92.1629
G3 X25.8716 Y92.9906 I-0.375 J0.6495
G2 X27.875 Y97.6806 I4.1284 J1.0094
G2 X28.81 Y98.08 I2.125 J-3.6806
G3 X29.35 Y98.8 I-0.21 J0.72
G1 Y108.25
G1 X30.65
G1 Y98.8
G3 X31.19 Y98.08 I0.75 J0.0
G2 X34.25 Y94.0 I-1.19 J-4.08
G2 X34.1284 Y92.9906 I-4.25 J0.0
G3 X34.4819 Y92.1629 I0.7285 J-0.1781
G1 X42.6659 Y87.4379
G1 X42.0159 Y86.3121
G1 X33.8319 Y91.0371
G3 X32.9384 Y90.9294 I-0.375 J-0.6495
G2 X27.875 Y90.3194 I-2.9384 J3.0706
G2 X27.0616 Y90.9294 I2.125 J3.6806
G3 X26.1681 Y91.0371 I-0.5185 J-0.5419
G1 X17.9841 Y86.3121
G1 F100.0 Z-8.0
G1 F200.0 X17.3341 Y87.4379
G1 X25.5181 Y92.1629
G3 X25.8716 Y92.9906 I-0.375 J0.6495
G2 X27.875 Y97.6806 I4.1284 J1.0094
G2 X28.81 Y98.08 I2.125 J-3.6806
G3 X29.35 Y98.8 I-0.21 J0.72
G1 Y108.25
G1 X30.65
G1 Y98.8
G3 X31.19 Y98.08 I0.75 J0.0
G2 X34.25 Y94.0 I-1.19 J-4.08
G2 X34.1284 Y92.9906 I-4.25 J0.0
G3 X34.4819 Y92.1629 I0.7285 J-0.1781
G1 X42.6659 Y87.4379
G1 X42.0159 Y86.3121
G1 X33.8319 Y91.0371
G3 X32.9384 Y90.9294 I-0.375 J-0.6495
G2 X27.875 Y90.3194 I-2.9384 J3.0706
G2 X27.0616 Y90.9294 I2.125 J3.6806
G3 X26.1681 Y91.0371 I-0.5185 J-0.5419
G1 X17.9841 Y86.3121
G1 F100.0 Z-9.0
G1 F200.0 X17.3341 Y87.4379
G1 X25.5181 Y92.1629
G3 X25.8716 Y92.9906 I-0.375 J0.6495
G2 X27.875 Y97.6806 I4.1284 J1.0094
G2 X28.81 Y98.08 I2.125 J-3.6806
G3 X29.35 Y98.8 I-0.21 J0.72
G1 Y108.25
G1 X30.65
G1 Y98.8
G3 X31.19 Y98.08 I0.75 J0.0
G2 X34.25 Y94.0 I-1.19 J-4.08
G2 X34.1284 Y92.9906 I-4.25 J0.0
G3 X34.4819 Y92.1629 I0.7285 J-0.1781
G1 X42.6659 Y87.4379
G1 X42.0159 Y86.3121
G1 X33.8319 Y91.0371
G3 X32.9384 Y90.9294 I-0.375 J-0.6495
G2 X27.875 Y90.3194 I-2.9384 J3.0706
G2 X27.0616 Y90.9294 I2.125 J3.6806
G3 X26.1681 Y91.0371 I-0.5185 J-0.5419
G1 X17.9841 Y86.3121
G1 F100.0 Z-9.7
G1 F200.0 X17.3341 Y87.4379
G1 X25.5181 Y92.1629
G3 X25.8716 Y92.9906 I-0.375 J0.6495
G2 X27.875 Y97.6806 I4.1284 J1.0094
G2 X28.81 Y98.08 I2.125 J-3.6806
G3 X29.35 Y98.8 I-0.21 J0.72
G1 Y108.25
G1 X30.65
G1 Y98.8
G3 X31.19 Y98.08 I0.75 J0.0
G2 X34.25 Y94.0 I-1.19 J-4.08
G2 X34.1284 Y92.9906 I-4.25 J0.0
G3 X34.4819 Y92.1629 I0.7285 J-0.1781
G1 X42.6659 Y87.4379
G1 X42.0159 Y86.3121
G1 X33.8319 Y91.0371
G3 X32.9384 Y90.9294 I-0.375 J-0.6495
G2 X27.875 Y90.3194 I-2.9384 J3.0706
G2 X27.0616 Y90.9294 I2.125 J3.6806
G3 X26.1681 Y91.0371 I-0.5185 J-0.5419
G1 X17.9841 Y86.3121
( Profile2 )
S1000
G0 Z3.0
G0 X60.75 Y30.0
G0 Z1.0
G1 F100.0 Z-1.0
G3 F200.0 X14.625 Y56.6303 I-30.75 J0.0
G3 Y3.3697 I15.375 J-26.6303
G3 X60.75 Y30.0 I15.375 J26.6303
G1 F100.0 Z-2.0
G3 F200.0 X14.625 Y56.6303 I-30.75 J0.0
G3 Y3.3697 I15.375 J-26.6303
G3 X60.75 Y30.0 I15.375 J26.6303
G1 F100.0 Z-3.0
G3 F200.0 X14.625 Y56.6303 I-30.75 J0.0
G3 Y3.3697 I15.375 J-26.6303
G3 X60.75 Y30.0 I15.375 J26.6303
G1 F100.0 Z-4.0
G3 F200.0 X14.625 Y56.6303 I-30.75 J0.0
G3 Y3.3697 I15.375 J-26.6303
G3 X60.75 Y30.0 I15.375 J26.6303
G1 F100.0 Z-5.0
G3 F200.0 X14.625 Y56.6303 I-30.75 J0.0
G3 Y3.3697 I15.375 J-26.6303
G3 X60.75 Y30.0 I15.375 J26.6303
G1 F100.0 Z-6.0
G3 F200.0 X14.625 Y56.6303 I-30.75 J0.0
G3 Y3.3697 I15.375 J-26.6303
G3 X60.75 Y30.0 I15.375 J26.6303
G1 F100.0 Z-7.0
G3 F200.0 X14.625 Y56.6303 I-30.75 J0.0
G3 Y3.3697 I15.375 J-26.6303
G3 X60.75 Y30.0 I15.375 J26.6303
G1 F100.0 Z-8.0
G3 F200.0 X14.625 Y56.6303 I-30.75 J0.0
G3 Y3.3697 I15.375 J-26.6303
G3 X60.75 Y30.0 I15.375 J26.6303
G1 F100.0 Z-9.0
G3 F200.0 X14.625 Y56.6303 I-30.75 J0.0
G3 Y3.3697 I15.375 J-26.6303
G3 X60.75 Y30.0 I15.375 J26.6303
G1 F100.0 Z-9.7
G3 F200.0 X14.625 Y56.6303 I-30.75 J0.0
G3 Y3.3697 I15.375 J-26.6303
G3 X60.75 Y30.0 I15.375 J26.6303
G0 Z3.0
G0 X43.317 Y66.2832
G0 Z1.0
G1 F100.0 Z-1.0
G3 F200.0 X60.75 Y94.0 I-13.317 J27.7168
G3 X14.625 Y120.6303 I-30.75 J0.0
G3 Y67.3697 I15.375 J-26.6303
G3 X43.317 Y66.2832 I15.375 J26.6303
G1 F100.0 Z-2.0
G3 F200.0 X60.75 Y94.0 I-13.317 J27.7168
G3 X14.625 Y120.6303 I-30.75 J0.0
G3 Y67.3697 I15.375 J-26.6303
G3 X43.317 Y66.2832 I15.375 J26.6303
G1 F100.0 Z-3.0
G3 F200.0 X60.75 Y94.0 I-13.317 J27.7168
G3 X14.625 Y120.6303 I-30.75 J0.0
G3 Y67.3697 I15.375 J-26.6303
G3 X43.317 Y66.2832 I15.375 J26.6303
G1 F100.0 Z-4.0
G3 F200.0 X60.75 Y94.0 I-13.317 J27.7168
G3 X14.625 Y120.6303 I-30.75 J0.0
G3 Y67.3697 I15.375 J-26.6303
G3 X43.317 Y66.2832 I15.375 J26.6303
G1 F100.0 Z-5.0
G3 F200.0 X60.75 Y94.0 I-13.317 J27.7168
G3 X14.625 Y120.6303 I-30.75 J0.0
G3 Y67.3697 I15.375 J-26.6303
G3 X43.317 Y66.2832 I15.375 J26.6303
G1 F100.0 Z-6.0
G3 F200.0 X60.75 Y94.0 I-13.317 J27.7168
G3 X14.625 Y120.6303 I-30.75 J0.0
G3 Y67.3697 I15.375 J-26.6303
G3 X43.317 Y66.2832 I15.375 J26.6303
G1 F100.0 Z-7.0
G3 F200.0 X60.75 Y94.0 I-13.317 J27.7168
G3 X14.625 Y120.6303 I-30.75 J0.0
G3 Y67.3697 I15.375 J-26.6303
G3 X43.317 Y66.2832 I15.375 J26.6303
G1 F100.0 Z-8.0
G3 F200.0 X60.75 Y94.0 I-13.317 J27.7168
G3 X14.625 Y120.6303 I-30.75 J0.0
G3 Y67.3697 I15.375 J-26.6303
G3 X43.317 Y66.2832 I15.375 J26.6303
G1 F100.0 Z-9.0
G3 F200.0 X60.75 Y94.0 I-13.317 J27.7168
G3 X14.625 Y120.6303 I-30.75 J0.0
G3 Y67.3697 I15.375 J-26.6303
G3 X43.317 Y66.2832 I15.375 J26.6303
G1 F100.0 Z-9.7
G3 F200.0 X60.75 Y94.0 I-13.317 J27.7168
G3 X14.625 Y120.6303 I-30.75 J0.0
G3 Y67.3697 I15.375 J-26.6303
G3 X43.317 Y66.2832 I15.375 J26.6303
G0 Z3.0
M5
M30
