( Made using CamBam - http://www.cambam.co.uk )
( Clock1-pg5C 3/30/2019 8:04:43 AM )
( T0 : 1.5 )
G21 G90 G64 G40
G0 Z3.0
( T0 : 1.5 )
T0 M6
( Profile1 )
G17
M3 S1000
G0 X131.25 Y108.0
G0 Z1.0
G1 F100.0 Z-1.0
G2 F200.0 X123.375 Y103.4534 I-5.25 J0.0
G2 Y112.5466 I2.625 J4.5466
G2 X131.25 Y108.0 I2.625 J-4.5466
G1 F100.0 Z-2.0
G2 F200.0 X123.375 Y103.4534 I-5.25 J0.0
G2 Y112.5466 I2.625 J4.5466
G2 X131.25 Y108.0 I2.625 J-4.5466
G1 F100.0 Z-3.0
G2 F200.0 X123.375 Y103.4534 I-5.25 J0.0
G2 Y112.5466 I2.625 J4.5466
G2 X131.25 Y108.0 I2.625 J-4.5466
G1 F100.0 Z-4.0
G2 F200.0 X123.375 Y103.4534 I-5.25 J0.0
G2 Y112.5466 I2.625 J4.5466
G2 X131.25 Y108.0 I2.625 J-4.5466
G1 F100.0 Z-5.0
G2 F200.0 X123.375 Y103.4534 I-5.25 J0.0
G2 Y112.5466 I2.625 J4.5466
G2 X131.25 Y108.0 I2.625 J-4.5466
G1 F100.0 Z-6.0
G2 F200.0 X123.375 Y103.4534 I-5.25 J0.0
G2 Y112.5466 I2.625 J4.5466
G2 X131.25 Y108.0 I2.625 J-4.5466
G1 F100.0 Z-7.0
G2 F200.0 X123.375 Y103.4534 I-5.25 J0.0
G2 Y112.5466 I2.625 J4.5466
G2 X131.25 Y108.0 I2.625 J-4.5466
G1 F100.0 Z-8.0
G2 F200.0 X123.375 Y103.4534 I-5.25 J0.0
G2 Y112.5466 I2.625 J4.5466
G2 X131.25 Y108.0 I2.625 J-4.5466
G1 F100.0 Z-9.0
G2 F200.0 X123.375 Y103.4534 I-5.25 J0.0
G2 Y112.5466 I2.625 J4.5466
G2 X131.25 Y108.0 I2.625 J-4.5466
G1 F100.0 Z-9.6
G2 F200.0 X123.375 Y103.4534 I-5.25 J0.0
G2 Y112.5466 I2.625 J4.5466
G2 X131.25 Y108.0 I2.625 J-4.5466
( Profile2 )
S1000
G0 Z3.0
G0 X36.75 Y125.0
G0 Z1.0
G1 F100.0 Z-1.0
G3 F200.0 X26.625 Y130.8457 I-6.75 J0.0
G3 Y119.1543 I3.375 J-5.8457
G3 X36.75 Y125.0 I3.375 J5.8457
G1 F100.0 Z-2.0
G3 F200.0 X26.625 Y130.8457 I-6.75 J0.0
G3 Y119.1543 I3.375 J-5.8457
G3 X36.75 Y125.0 I3.375 J5.8457
G1 F100.0 Z-3.0
G3 F200.0 X26.625 Y130.8457 I-6.75 J0.0
G3 Y119.1543 I3.375 J-5.8457
G3 X36.75 Y125.0 I3.375 J5.8457
G1 F100.0 Z-4.0
G3 F200.0 X26.625 Y130.8457 I-6.75 J0.0
G3 Y119.1543 I3.375 J-5.8457
G3 X36.75 Y125.0 I3.375 J5.8457
G1 F100.0 Z-5.0
G3 F200.0 X26.625 Y130.8457 I-6.75 J0.0
G3 Y119.1543 I3.375 J-5.8457
G3 X36.75 Y125.0 I3.375 J5.8457
G1 F100.0 Z-6.0
G3 F200.0 X26.625 Y130.8457 I-6.75 J0.0
G3 Y119.1543 I3.375 J-5.8457
G3 X36.75 Y125.0 I3.375 J5.8457
G1 F100.0 Z-7.0
G3 F200.0 X26.625 Y130.8457 I-6.75 J0.0
G3 Y119.1543 I3.375 J-5.8457
G3 X36.75 Y125.0 I3.375 J5.8457
G1 F100.0 Z-8.0
G3 F200.0 X26.625 Y130.8457 I-6.75 J0.0
G3 Y119.1543 I3.375 J-5.8457
G3 X36.75 Y125.0 I3.375 J5.8457
G1 F100.0 Z-9.0
G3 F200.0 X26.625 Y130.8457 I-6.75 J0.0
G3 Y119.1543 I3.375 J-5.8457
G3 X36.75 Y125.0 I3.375 J5.8457
G1 F100.0 Z-9.6
G3 F200.0 X26.625 Y130.8457 I-6.75 J0.0
G3 Y119.1543 I3.375 J-5.8457
G3 X36.75 Y125.0 I3.375 J5.8457
G0 Z3.0
G0 X65.25
G0 Z1.0
G1 F100.0 Z-1.0
G3 F200.0 X68.625 Y119.1543 I6.75 J0.0
G3 X78.75 Y125.0 I3.375 J5.8457
G3 X68.625 Y130.8457 I-6.75 J0.0
G3 X65.25 Y125.0 I3.375 J-5.8457
G1 F100.0 Z-2.0
G3 F200.0 X68.625 Y119.1543 I6.75 J0.0
G3 X78.75 Y125.0 I3.375 J5.8457
G3 X68.625 Y130.8457 I-6.75 J0.0
G3 X65.25 Y125.0 I3.375 J-5.8457
G1 F100.0 Z-3.0
G3 F200.0 X68.625 Y119.1543 I6.75 J0.0
G3 X78.75 Y125.0 I3.375 J5.8457
G3 X68.625 Y130.8457 I-6.75 J0.0
G3 X65.25 Y125.0 I3.375 J-5.8457
G1 F100.0 Z-4.0
G3 F200.0 X68.625 Y119.1543 I6.75 J0.0
G3 X78.75 Y125.0 I3.375 J5.8457
G3 X68.625 Y130.8457 I-6.75 J0.0
G3 X65.25 Y125.0 I3.375 J-5.8457
G1 F100.0 Z-5.0
G3 F200.0 X68.625 Y119.1543 I6.75 J0.0
G3 X78.75 Y125.0 I3.375 J5.8457
G3 X68.625 Y130.8457 I-6.75 J0.0
G3 X65.25 Y125.0 I3.375 J-5.8457
G1 F100.0 Z-6.0
G3 F200.0 X68.625 Y119.1543 I6.75 J0.0
G3 X78.75 Y125.0 I3.375 J5.8457
G3 X68.625 Y130.8457 I-6.75 J0.0
G3 X65.25 Y125.0 I3.375 J-5.8457
G1 F100.0 Z-7.0
G3 F200.0 X68.625 Y119.1543 I6.75 J0.0
G3 X78.75 Y125.0 I3.375 J5.8457
G3 X68.625 Y130.8457 I-6.75 J0.0
G3 X65.25 Y125.0 I3.375 J-5.8457
G1 F100.0 Z-8.0
G3 F200.0 X68.625 Y119.1543 I6.75 J0.0
G3 X78.75 Y125.0 I3.375 J5.8457
G3 X68.625 Y130.8457 I-6.75 J0.0
G3 X65.25 Y125.0 I3.375 J-5.8457
G1 F100.0 Z-9.0
G3 F200.0 X68.625 Y119.1543 I6.75 J0.0
G3 X78.75 Y125.0 I3.375 J5.8457
G3 X68.625 Y130.8457 I-6.75 J0.0
G3 X65.25 Y125.0 I3.375 J-5.8457
G1 F100.0 Z-9.6
G3 F200.0 X68.625 Y119.1543 I6.75 J0.0
G3 X78.75 Y125.0 I3.375 J5.8457
G3 X68.625 Y130.8457 I-6.75 J0.0
G3 X65.25 Y125.0 I3.375 J-5.8457
G0 Z3.0
G0 X74.55 Y112.6
G0 Z1.0
G1 F100.0 Z-1.0
G3 F200.0 X75.625 Y94.6902 I6.45 J-8.6
G3 X91.75 Y104.0 I5.375 J9.3098
G3 X75.625 Y113.3098 I-10.75 J0.0
G3 X74.55 Y112.6 I5.375 J-9.3098
G1 F100.0 Z-2.0
G3 F200.0 X75.625 Y94.6902 I6.45 J-8.6
G3 X91.75 Y104.0 I5.375 J9.3098
G3 X75.625 Y113.3098 I-10.75 J0.0
G3 X74.55 Y112.6 I5.375 J-9.3098
G1 F100.0 Z-3.0
G3 F200.0 X75.625 Y94.6902 I6.45 J-8.6
G3 X91.75 Y104.0 I5.375 J9.3098
G3 X75.625 Y113.3098 I-10.75 J0.0
G3 X74.55 Y112.6 I5.375 J-9.3098
G1 F100.0 Z-4.0
G3 F200.0 X75.625 Y94.6902 I6.45 J-8.6
G3 X91.75 Y104.0 I5.375 J9.3098
G3 X75.625 Y113.3098 I-10.75 J0.0
G3 X74.55 Y112.6 I5.375 J-9.3098
G1 F100.0 Z-5.0
G3 F200.0 X75.625 Y94.6902 I6.45 J-8.6
G3 X91.75 Y104.0 I5.375 J9.3098
G3 X75.625 Y113.3098 I-10.75 J0.0
G3 X74.55 Y112.6 I5.375 J-9.3098
G1 F100.0 Z-6.0
G3 F200.0 X75.625 Y94.6902 I6.45 J-8.6
G3 X91.75 Y104.0 I5.375 J9.3098
G3 X75.625 Y113.3098 I-10.75 J0.0
G3 X74.55 Y112.6 I5.375 J-9.3098
G1 F100.0 Z-7.0
G3 F200.0 X75.625 Y94.6902 I6.45 J-8.6
G3 X91.75 Y104.0 I5.375 J9.3098
G3 X75.625 Y113.3098 I-10.75 J0.0
G3 X74.55 Y112.6 I5.375 J-9.3098
G1 F100.0 Z-8.0
G3 F200.0 X75.625 Y94.6902 I6.45 J-8.6
G3 X91.75 Y104.0 I5.375 J9.3098
G3 X75.625 Y113.3098 I-10.75 J0.0
G3 X74.55 Y112.6 I5.375 J-9.3098
G1 F100.0 Z-9.0
G3 F200.0 X75.625 Y94.6902 I6.45 J-8.6
G3 X91.75 Y104.0 I5.375 J9.3098
G3 X75.625 Y113.3098 I-10.75 J0.0
G3 X74.55 Y112.6 I5.375 J-9.3098
G1 F100.0 Z-9.6
G3 F200.0 X75.625 Y94.6902 I6.45 J-8.6
G3 X91.75 Y104.0 I5.375 J9.3098
G3 X75.625 Y113.3098 I-10.75 J0.0
G3 X74.55 Y112.6 I5.375 J-9.3098
G0 Z3.0
G0 X94.2404 Y103.507
G0 Z1.0
G1 F100.0 Z-1.0
G3 F200.0 X98.625 Y89.6902 I9.7596 J-4.507
G3 X114.75 Y99.0 I5.375 J9.3098
G3 X98.625 Y108.3098 I-10.75 J0.0
G3 X94.2404 Y103.507 I5.375 J-9.3098
G1 F100.0 Z-2.0
G3 F200.0 X98.625 Y89.6902 I9.7596 J-4.507
G3 X114.75 Y99.0 I5.375 J9.3098
G3 X98.625 Y108.3098 I-10.75 J0.0
G3 X94.2404 Y103.507 I5.375 J-9.3098
G1 F100.0 Z-3.0
G3 F200.0 X98.625 Y89.6902 I9.7596 J-4.507
G3 X114.75 Y99.0 I5.375 J9.3098
G3 X98.625 Y108.3098 I-10.75 J0.0
G3 X94.2404 Y103.507 I5.375 J-9.3098
G1 F100.0 Z-4.0
G3 F200.0 X98.625 Y89.6902 I9.7596 J-4.507
G3 X114.75 Y99.0 I5.375 J9.3098
G3 X98.625 Y108.3098 I-10.75 J0.0
G3 X94.2404 Y103.507 I5.375 J-9.3098
G1 F100.0 Z-5.0
G3 F200.0 X98.625 Y89.6902 I9.7596 J-4.507
G3 X114.75 Y99.0 I5.375 J9.3098
G3 X98.625 Y108.3098 I-10.75 J0.0
G3 X94.2404 Y103.507 I5.375 J-9.3098
G1 F100.0 Z-6.0
G3 F200.0 X98.625 Y89.6902 I9.7596 J-4.507
G3 X114.75 Y99.0 I5.375 J9.3098
G3 X98.625 Y108.3098 I-10.75 J0.0
G3 X94.2404 Y103.507 I5.375 J-9.3098
G1 F100.0 Z-7.0
G3 F200.0 X98.625 Y89.6902 I9.7596 J-4.507
G3 X114.75 Y99.0 I5.375 J9.3098
G3 X98.625 Y108.3098 I-10.75 J0.0
G3 X94.2404 Y103.507 I5.375 J-9.3098
G1 F100.0 Z-8.0
G3 F200.0 X98.625 Y89.6902 I9.7596 J-4.507
G3 X114.75 Y99.0 I5.375 J9.3098
G3 X98.625 Y108.3098 I-10.75 J0.0
G3 X94.2404 Y103.507 I5.375 J-9.3098
G1 F100.0 Z-9.0
G3 F200.0 X98.625 Y89.6902 I9.7596 J-4.507
G3 X114.75 Y99.0 I5.375 J9.3098
G3 X98.625 Y108.3098 I-10.75 J0.0
G3 X94.2404 Y103.507 I5.375 J-9.3098
G1 F100.0 Z-9.6
G3 F200.0 X98.625 Y89.6902 I9.7596 J-4.507
G3 X114.75 Y99.0 I5.375 J9.3098
G3 X98.625 Y108.3098 I-10.75 J0.0
G3 X94.2404 Y103.507 I5.375 J-9.3098
G0 Z3.0
G0 X115.356 Y106.4942
G0 Z1.0
G1 F100.0 Z-1.0
G3 F200.0 X120.625 Y98.6902 I10.644 J1.5058
G3 X136.75 Y108.0 I5.375 J9.3098
G3 X120.625 Y117.3098 I-10.75 J0.0
G3 X115.356 Y106.4942 I5.375 J-9.3098
G1 F100.0 Z-2.0
G3 F200.0 X120.625 Y98.6902 I10.644 J1.5058
G3 X136.75 Y108.0 I5.375 J9.3098
G3 X120.625 Y117.3098 I-10.75 J0.0
G3 X115.356 Y106.4942 I5.375 J-9.3098
G1 F100.0 Z-3.0
G3 F200.0 X120.625 Y98.6902 I10.644 J1.5058
G3 X136.75 Y108.0 I5.375 J9.3098
G3 X120.625 Y117.3098 I-10.75 J0.0
G3 X115.356 Y106.4942 I5.375 J-9.3098
G1 F100.0 Z-4.0
G3 F200.0 X120.625 Y98.6902 I10.644 J1.5058
G3 X136.75 Y108.0 I5.375 J9.3098
G3 X120.625 Y117.3098 I-10.75 J0.0
G3 X115.356 Y106.4942 I5.375 J-9.3098
G1 F100.0 Z-5.0
G3 F200.0 X120.625 Y98.6902 I10.644 J1.5058
G3 X136.75 Y108.0 I5.375 J9.3098
G3 X120.625 Y117.3098 I-10.75 J0.0
G3 X115.356 Y106.4942 I5.375 J-9.3098
G1 F100.0 Z-6.0
G3 F200.0 X120.625 Y98.6902 I10.644 J1.5058
G3 X136.75 Y108.0 I5.375 J9.3098
G3 X120.625 Y117.3098 I-10.75 J0.0
G3 X115.356 Y106.4942 I5.375 J-9.3098
G1 F100.0 Z-7.0
G3 F200.0 X120.625 Y98.6902 I10.644 J1.5058
G3 X136.75 Y108.0 I5.375 J9.3098
G3 X120.625 Y117.3098 I-10.75 J0.0
G3 X115.356 Y106.4942 I5.375 J-9.3098
G1 F100.0 Z-8.0
G3 F200.0 X120.625 Y98.6902 I10.644 J1.5058
G3 X136.75 Y108.0 I5.375 J9.3098
G3 X120.625 Y117.3098 I-10.75 J0.0
G3 X115.356 Y106.4942 I5.375 J-9.3098
G1 F100.0 Z-9.0
G3 F200.0 X120.625 Y98.6902 I10.644 J1.5058
G3 X136.75 Y108.0 I5.375 J9.3098
G3 X120.625 Y117.3098 I-10.75 J0.0
G3 X115.356 Y106.4942 I5.375 J-9.3098
G1 F100.0 Z-9.6
G3 F200.0 X120.625 Y98.6902 I10.644 J1.5058
G3 X136.75 Y108.0 I5.375 J9.3098
G3 X120.625 Y117.3098 I-10.75 J0.0
G3 X115.356 Y106.4942 I5.375 J-9.3098
( Pocket1 )
S1000
G0 Z3.0
G0 X98.45 Y128.0
G0 Z1.0
G1 F100.0 Z-1.0
G2 F300.0 X97.775 Y127.6103 I-0.45 J0.0
G2 Y128.3897 I0.225 J0.3897
G2 X98.45 Y128.0 I0.225 J-0.3897
G1 F100.0 X99.65
G2 F300.0 X97.175 Y126.5711 I-1.65 J0.0
G2 Y129.4289 I0.825 J1.4289
G2 X99.65 Y128.0 I0.825 J-1.4289
G1 F100.0 X100.85
G2 F300.0 X96.575 Y125.5318 I-2.85 J0.0
G2 Y130.4682 I1.425 J2.4682
G2 X100.85 Y128.0 I1.425 J-2.4682
G1 F100.0 X102.05
G2 F300.0 X95.975 Y124.4926 I-4.05 J0.0
G2 Y131.5074 I2.025 J3.5074
G2 X102.05 Y128.0 I2.025 J-3.5074
G1 F100.0 X103.25
G2 F300.0 X95.375 Y123.4534 I-5.25 J0.0
G2 Y132.5466 I2.625 J4.5466
G2 X103.25 Y128.0 I2.625 J-4.5466
G0 Z3.0
G0 X98.45
G0 Z0.0
G1 F100.0 Z-2.0
G2 F300.0 X97.775 Y127.6103 I-0.45 J0.0
G2 Y128.3897 I0.225 J0.3897
G2 X98.45 Y128.0 I0.225 J-0.3897
G1 F100.0 X99.65
G2 F300.0 X97.175 Y126.5711 I-1.65 J0.0
G2 Y129.4289 I0.825 J1.4289
G2 X99.65 Y128.0 I0.825 J-1.4289
G1 F100.0 X100.85
G2 F300.0 X96.575 Y125.5318 I-2.85 J0.0
G2 Y130.4682 I1.425 J2.4682
G2 X100.85 Y128.0 I1.425 J-2.4682
G1 F100.0 X102.05
G2 F300.0 X95.975 Y124.4926 I-4.05 J0.0
G2 Y131.5074 I2.025 J3.5074
G2 X102.05 Y128.0 I2.025 J-3.5074
G1 F100.0 X103.25
G2 F300.0 X95.375 Y123.4534 I-5.25 J0.0
G2 Y132.5466 I2.625 J4.5466
G2 X103.25 Y128.0 I2.625 J-4.5466
G0 Z3.0
G0 X98.45
G0 Z-1.0
G1 F100.0 Z-3.0
G2 F300.0 X97.775 Y127.6103 I-0.45 J0.0
G2 Y128.3897 I0.225 J0.3897
G2 X98.45 Y128.0 I0.225 J-0.3897
G1 F100.0 X99.65
G2 F300.0 X97.175 Y126.5711 I-1.65 J0.0
G2 Y129.4289 I0.825 J1.4289
G2 X99.65 Y128.0 I0.825 J-1.4289
G1 F100.0 X100.85
G2 F300.0 X96.575 Y125.5318 I-2.85 J0.0
G2 Y130.4682 I1.425 J2.4682
G2 X100.85 Y128.0 I1.425 J-2.4682
G1 F100.0 X102.05
G2 F300.0 X95.975 Y124.4926 I-4.05 J0.0
G2 Y131.5074 I2.025 J3.5074
G2 X102.05 Y128.0 I2.025 J-3.5074
G1 F100.0 X103.25
G2 F300.0 X95.375 Y123.4534 I-5.25 J0.0
G2 Y132.5466 I2.625 J4.5466
G2 X103.25 Y128.0 I2.625 J-4.5466
G0 Z3.0
G0 X98.45
G0 Z-2.0
G1 F100.0 Z-4.0
G2 F300.0 X97.775 Y127.6103 I-0.45 J0.0
G2 Y128.3897 I0.225 J0.3897
G2 X98.45 Y128.0 I0.225 J-0.3897
G1 F100.0 X99.65
G2 F300.0 X97.175 Y126.5711 I-1.65 J0.0
G2 Y129.4289 I0.825 J1.4289
G2 X99.65 Y128.0 I0.825 J-1.4289
G1 F100.0 X100.85
G2 F300.0 X96.575 Y125.5318 I-2.85 J0.0
G2 Y130.4682 I1.425 J2.4682
G2 X100.85 Y128.0 I1.425 J-2.4682
G1 F100.0 X102.05
G2 F300.0 X95.975 Y124.4926 I-4.05 J0.0
G2 Y131.5074 I2.025 J3.5074
G2 X102.05 Y128.0 I2.025 J-3.5074
G1 F100.0 X103.25
G2 F300.0 X95.375 Y123.4534 I-5.25 J0.0
G2 Y132.5466 I2.625 J4.5466
G2 X103.25 Y128.0 I2.625 J-4.5466
G0 Z3.0
G0 X98.45
G0 Z-3.0
G1 F100.0 Z-4.5
G2 F300.0 X97.775 Y127.6103 I-0.45 J0.0
G2 Y128.3897 I0.225 J0.3897
G2 X98.45 Y128.0 I0.225 J-0.3897
G1 F100.0 X99.65
G2 F300.0 X97.175 Y126.5711 I-1.65 J0.0
G2 Y129.4289 I0.825 J1.4289
G2 X99.65 Y128.0 I0.825 J-1.4289
G1 F100.0 X100.85
G2 F300.0 X96.575 Y125.5318 I-2.85 J0.0
G2 Y130.4682 I1.425 J2.4682
G2 X100.85 Y128.0 I1.425 J-2.4682
G1 F100.0 X102.05
G2 F300.0 X95.975 Y124.4926 I-4.05 J0.0
G2 Y131.5074 I2.025 J3.5074
G2 X102.05 Y128.0 I2.025 J-3.5074
G1 F100.0 X103.25
G2 F300.0 X95.375 Y123.4534 I-5.25 J0.0
G2 Y132.5466 I2.625 J4.5466
G2 X103.25 Y128.0 I2.625 J-4.5466
G0 Z3.0
G0 X149.8267 Y16.4153
G0 Z1.0
G1 F100.0 Z-1.0
G2 F300.0 X150.45 Y16.0 I0.1733 J-0.4153
G2 X149.775 Y15.6103 I-0.45 J0.0
G2 Y16.3897 I0.225 J0.3897
G2 X149.8267 Y16.4153 I0.225 J-0.3897
G1 F100.0 X149.3644 Y17.5227
G2 F300.0 X151.65 Y16.0 I0.6356 J-1.5227
G2 X149.175 Y14.5711 I-1.65 J0.0
G2 Y17.4289 I0.825 J1.4289
G2 X149.3644 Y17.5227 I0.825 J-1.4289
G1 F100.0 X148.9022 Y18.6301
G2 F300.0 X152.85 Y16.0 I1.0978 J-2.6301
G2 X148.575 Y13.5318 I-2.85 J0.0
G2 Y18.4682 I1.425 J2.4682
G2 X148.9022 Y18.6301 I1.425 J-2.4682
G1 F100.0 X148.4399 Y19.7375
G2 F300.0 X154.05 Y16.0 I1.5601 J-3.7375
G2 X147.975 Y12.4926 I-4.05 J0.0
G2 Y19.5074 I2.025 J3.5074
G2 X148.4399 Y19.7375 I2.025 J-3.5074
G1 F100.0 X147.9777 Y20.8449
G2 F300.0 X155.25 Y16.0 I2.0223 J-4.8449
G2 X147.375 Y11.4534 I-5.25 J0.0
G2 Y20.5466 I2.625 J4.5466
G2 X147.9777 Y20.8449 I2.625 J-4.5466
G0 Z3.0
G0 X149.8267 Y16.4153
G0 Z0.0
G1 F100.0 Z-2.0
G2 F300.0 X150.45 Y16.0 I0.1733 J-0.4153
G2 X149.775 Y15.6103 I-0.45 J0.0
G2 Y16.3897 I0.225 J0.3897
G2 X149.8267 Y16.4153 I0.225 J-0.3897
G1 F100.0 X149.3644 Y17.5227
G2 F300.0 X151.65 Y16.0 I0.6356 J-1.5227
G2 X149.175 Y14.5711 I-1.65 J0.0
G2 Y17.4289 I0.825 J1.4289
G2 X149.3644 Y17.5227 I0.825 J-1.4289
G1 F100.0 X148.9022 Y18.6301
G2 F300.0 X152.85 Y16.0 I1.0978 J-2.6301
G2 X148.575 Y13.5318 I-2.85 J0.0
G2 Y18.4682 I1.425 J2.4682
G2 X148.9022 Y18.6301 I1.425 J-2.4682
G1 F100.0 X148.4399 Y19.7375
G2 F300.0 X154.05 Y16.0 I1.5601 J-3.7375
G2 X147.975 Y12.4926 I-4.05 J0.0
G2 Y19.5074 I2.025 J3.5074
G2 X148.4399 Y19.7375 I2.025 J-3.5074
G1 F100.0 X147.9777 Y20.8449
G2 F300.0 X155.25 Y16.0 I2.0223 J-4.8449
G2 X147.375 Y11.4534 I-5.25 J0.0
G2 Y20.5466 I2.625 J4.5466
G2 X147.9777 Y20.8449 I2.625 J-4.5466
G0 Z3.0
G0 X149.8267 Y16.4153
G0 Z-1.0
G1 F100.0 Z-3.0
G2 F300.0 X150.45 Y16.0 I0.1733 J-0.4153
G2 X149.775 Y15.6103 I-0.45 J0.0
G2 Y16.3897 I0.225 J0.3897
G2 X149.8267 Y16.4153 I0.225 J-0.3897
G1 F100.0 X149.3644 Y17.5227
G2 F300.0 X151.65 Y16.0 I0.6356 J-1.5227
G2 X149.175 Y14.5711 I-1.65 J0.0
G2 Y17.4289 I0.825 J1.4289
G2 X149.3644 Y17.5227 I0.825 J-1.4289
G1 F100.0 X148.9022 Y18.6301
G2 F300.0 X152.85 Y16.0 I1.0978 J-2.6301
G2 X148.575 Y13.5318 I-2.85 J0.0
G2 Y18.4682 I1.425 J2.4682
G2 X148.9022 Y18.6301 I1.425 J-2.4682
G1 F100.0 X148.4399 Y19.7375
G2 F300.0 X154.05 Y16.0 I1.5601 J-3.7375
G2 X147.975 Y12.4926 I-4.05 J0.0
G2 Y19.5074 I2.025 J3.5074
G2 X148.4399 Y19.7375 I2.025 J-3.5074
G1 F100.0 X147.9777 Y20.8449
G2 F300.0 X155.25 Y16.0 I2.0223 J-4.8449
G2 X147.375 Y11.4534 I-5.25 J0.0
G2 Y20.5466 I2.625 J4.5466
G2 X147.9777 Y20.8449 I2.625 J-4.5466
G0 Z3.0
G0 X149.8267 Y16.4153
G0 Z-2.0
G1 F100.0 Z-4.0
G2 F300.0 X150.45 Y16.0 I0.1733 J-0.4153
G2 X149.775 Y15.6103 I-0.45 J0.0
G2 Y16.3897 I0.225 J0.3897
G2 X149.8267 Y16.4153 I0.225 J-0.3897
G1 F100.0 X149.3644 Y17.5227
G2 F300.0 X151.65 Y16.0 I0.6356 J-1.5227
G2 X149.175 Y14.5711 I-1.65 J0.0
G2 Y17.4289 I0.825 J1.4289
G2 X149.3644 Y17.5227 I0.825 J-1.4289
G1 F100.0 X148.9022 Y18.6301
G2 F300.0 X152.85 Y16.0 I1.0978 J-2.6301
G2 X148.575 Y13.5318 I-2.85 J0.0
G2 Y18.4682 I1.425 J2.4682
G2 X148.9022 Y18.6301 I1.425 J-2.4682
G1 F100.0 X148.4399 Y19.7375
G2 F300.0 X154.05 Y16.0 I1.5601 J-3.7375
G2 X147.975 Y12.4926 I-4.05 J0.0
G2 Y19.5074 I2.025 J3.5074
G2 X148.4399 Y19.7375 I2.025 J-3.5074
G1 F100.0 X147.9777 Y20.8449
G2 F300.0 X155.25 Y16.0 I2.0223 J-4.8449
G2 X147.375 Y11.4534 I-5.25 J0.0
G2 Y20.5466 I2.625 J4.5466
G2 X147.9777 Y20.8449 I2.625 J-4.5466
G0 Z3.0
G0 X149.8267 Y16.4153
G0 Z-3.0
G1 F100.0 Z-4.5
G2 F300.0 X150.45 Y16.0 I0.1733 J-0.4153
G2 X149.775 Y15.6103 I-0.45 J0.0
G2 Y16.3897 I0.225 J0.3897
G2 X149.8267 Y16.4153 I0.225 J-0.3897
G1 F100.0 X149.3644 Y17.5227
G2 F300.0 X151.65 Y16.0 I0.6356 J-1.5227
G2 X149.175 Y14.5711 I-1.65 J0.0
G2 Y17.4289 I0.825 J1.4289
G2 X149.3644 Y17.5227 I0.825 J-1.4289
G1 F100.0 X148.9022 Y18.6301
G2 F300.0 X152.85 Y16.0 I1.0978 J-2.6301
G2 X148.575 Y13.5318 I-2.85 J0.0
G2 Y18.4682 I1.425 J2.4682
G2 X148.9022 Y18.6301 I1.425 J-2.4682
G1 F100.0 X148.4399 Y19.7375
G2 F300.0 X154.05 Y16.0 I1.5601 J-3.7375
G2 X147.975 Y12.4926 I-4.05 J0.0
G2 Y19.5074 I2.025 J3.5074
G2 X148.4399 Y19.7375 I2.025 J-3.5074
G1 F100.0 X147.9777 Y20.8449
G2 F300.0 X155.25 Y16.0 I2.0223 J-4.8449
G2 X147.375 Y11.4534 I-5.25 J0.0
G2 Y20.5466 I2.625 J4.5466
G2 X147.9777 Y20.8449 I2.625 J-4.5466
( Profile1 )
S1000
G0 Z3.0
G0 X99.75 Y128.0
G0 Z-3.5
G1 F100.0 Z-5.5
G2 F200.0 X97.125 Y126.4845 I-1.75 J0.0
G2 Y129.5155 I0.875 J1.5155
G2 X99.75 Y128.0 I0.875 J-1.5155
G1 F100.0 Z-6.5
G2 F200.0 X97.125 Y126.4845 I-1.75 J0.0
G2 Y129.5155 I0.875 J1.5155
G2 X99.75 Y128.0 I0.875 J-1.5155
G1 F100.0 Z-7.5
G2 F200.0 X97.125 Y126.4845 I-1.75 J0.0
G2 Y129.5155 I0.875 J1.5155
G2 X99.75 Y128.0 I0.875 J-1.5155
G1 F100.0 Z-8.5
G2 F200.0 X97.125 Y126.4845 I-1.75 J0.0
G2 Y129.5155 I0.875 J1.5155
G2 X99.75 Y128.0 I0.875 J-1.5155
G1 F100.0 Z-9.5
G2 F200.0 X97.125 Y126.4845 I-1.75 J0.0
G2 Y129.5155 I0.875 J1.5155
G2 X99.75 Y128.0 I0.875 J-1.5155
G1 F100.0 Z-9.6
G2 F200.0 X97.125 Y126.4845 I-1.75 J0.0
G2 Y129.5155 I0.875 J1.5155
G2 X99.75 Y128.0 I0.875 J-1.5155
G0 Z3.0
G0 X149.2836 Y17.5967
G0 Z-3.5
G1 F100.0 Z-5.5
G2 F200.0 X151.75 Y16.0 I0.7164 J-1.5967
G2 X149.125 Y14.4845 I-1.75 J0.0
G2 Y17.5155 I0.875 J1.5155
G2 X149.2836 Y17.5967 I0.875 J-1.5155
G1 F100.0 Z-6.5
G2 F200.0 X151.75 Y16.0 I0.7164 J-1.5967
G2 X149.125 Y14.4845 I-1.75 J0.0
G2 Y17.5155 I0.875 J1.5155
G2 X149.2836 Y17.5967 I0.875 J-1.5155
G1 F100.0 Z-7.5
G2 F200.0 X151.75 Y16.0 I0.7164 J-1.5967
G2 X149.125 Y14.4845 I-1.75 J0.0
G2 Y17.5155 I0.875 J1.5155
G2 X149.2836 Y17.5967 I0.875 J-1.5155
G1 F100.0 Z-8.5
G2 F200.0 X151.75 Y16.0 I0.7164 J-1.5967
G2 X149.125 Y14.4845 I-1.75 J0.0
G2 Y17.5155 I0.875 J1.5155
G2 X149.2836 Y17.5967 I0.875 J-1.5155
G1 F100.0 Z-9.5
G2 F200.0 X151.75 Y16.0 I0.7164 J-1.5967
G2 X149.125 Y14.4845 I-1.75 J0.0
G2 Y17.5155 I0.875 J1.5155
G2 X149.2836 Y17.5967 I0.875 J-1.5155
G1 F100.0 Z-9.6
G2 F200.0 X151.75 Y16.0 I0.7164 J-1.5967
G2 X149.125 Y14.4845 I-1.75 J0.0
G2 Y17.5155 I0.875 J1.5155
G2 X149.2836 Y17.5967 I0.875 J-1.5155
( Profile2 )
S1000
G0 Z3.0
G0 X85.75 Y16.0
G0 Z1.0
G1 F100.0 Z-1.0
G2 F200.0 X83.125 Y14.4845 I-1.75 J0.0
G2 Y17.5155 I0.875 J1.5155
G2 X85.75 Y16.0 I0.875 J-1.5155
G1 F100.0 Z-2.0
G2 F200.0 X83.125 Y14.4845 I-1.75 J0.0
G2 Y17.5155 I0.875 J1.5155
G2 X85.75 Y16.0 I0.875 J-1.5155
G1 F100.0 Z-3.0
G2 F200.0 X83.125 Y14.4845 I-1.75 J0.0
G2 Y17.5155 I0.875 J1.5155
G2 X85.75 Y16.0 I0.875 J-1.5155
G1 F100.0 Z-4.0
G2 F200.0 X83.125 Y14.4845 I-1.75 J0.0
G2 Y17.5155 I0.875 J1.5155
G2 X85.75 Y16.0 I0.875 J-1.5155
G1 F100.0 Z-5.0
G2 F200.0 X83.125 Y14.4845 I-1.75 J0.0
G2 Y17.5155 I0.875 J1.5155
G2 X85.75 Y16.0 I0.875 J-1.5155
G1 F100.0 Z-6.0
G2 F200.0 X83.125 Y14.4845 I-1.75 J0.0
G2 Y17.5155 I0.875 J1.5155
G2 X85.75 Y16.0 I0.875 J-1.5155
G1 F100.0 Z-7.0
G2 F200.0 X83.125 Y14.4845 I-1.75 J0.0
G2 Y17.5155 I0.875 J1.5155
G2 X85.75 Y16.0 I0.875 J-1.5155
G1 F100.0 Z-8.0
G2 F200.0 X83.125 Y14.4845 I-1.75 J0.0
G2 Y17.5155 I0.875 J1.5155
G2 X85.75 Y16.0 I0.875 J-1.5155
G1 F100.0 Z-9.0
G2 F200.0 X83.125 Y14.4845 I-1.75 J0.0
G2 Y17.5155 I0.875 J1.5155
G2 X85.75 Y16.0 I0.875 J-1.5155
G1 F100.0 Z-9.6
G2 F200.0 X83.125 Y14.4845 I-1.75 J0.0
G2 Y17.5155 I0.875 J1.5155
G2 X85.75 Y16.0 I0.875 J-1.5155
G0 Z3.0
G0 X115.25
G0 Z1.0
G1 F100.0 Z-1.0
G2 F200.0 X116.125 Y17.5155 I1.75 J0.0
G2 X118.75 Y16.0 I0.875 J-1.5155
G2 X116.125 Y14.4845 I-1.75 J0.0
G2 X115.25 Y16.0 I0.875 J1.5155
G1 F100.0 Z-2.0
G2 F200.0 X116.125 Y17.5155 I1.75 J0.0
G2 X118.75 Y16.0 I0.875 J-1.5155
G2 X116.125 Y14.4845 I-1.75 J0.0
G2 X115.25 Y16.0 I0.875 J1.5155
G1 F100.0 Z-3.0
G2 F200.0 X116.125 Y17.5155 I1.75 J0.0
G2 X118.75 Y16.0 I0.875 J-1.5155
G2 X116.125 Y14.4845 I-1.75 J0.0
G2 X115.25 Y16.0 I0.875 J1.5155
G1 F100.0 Z-4.0
G2 F200.0 X116.125 Y17.5155 I1.75 J0.0
G2 X118.75 Y16.0 I0.875 J-1.5155
G2 X116.125 Y14.4845 I-1.75 J0.0
G2 X115.25 Y16.0 I0.875 J1.5155
G1 F100.0 Z-5.0
G2 F200.0 X116.125 Y17.5155 I1.75 J0.0
G2 X118.75 Y16.0 I0.875 J-1.5155
G2 X116.125 Y14.4845 I-1.75 J0.0
G2 X115.25 Y16.0 I0.875 J1.5155
G1 F100.0 Z-6.0
G2 F200.0 X116.125 Y17.5155 I1.75 J0.0
G2 X118.75 Y16.0 I0.875 J-1.5155
G2 X116.125 Y14.4845 I-1.75 J0.0
G2 X115.25 Y16.0 I0.875 J1.5155
G1 F100.0 Z-7.0
G2 F200.0 X116.125 Y17.5155 I1.75 J0.0
G2 X118.75 Y16.0 I0.875 J-1.5155
G2 X116.125 Y14.4845 I-1.75 J0.0
G2 X115.25 Y16.0 I0.875 J1.5155
G1 F100.0 Z-8.0
G2 F200.0 X116.125 Y17.5155 I1.75 J0.0
G2 X118.75 Y16.0 I0.875 J-1.5155
G2 X116.125 Y14.4845 I-1.75 J0.0
G2 X115.25 Y16.0 I0.875 J1.5155
G1 F100.0 Z-9.0
G2 F200.0 X116.125 Y17.5155 I1.75 J0.0
G2 X118.75 Y16.0 I0.875 J-1.5155
G2 X116.125 Y14.4845 I-1.75 J0.0
G2 X115.25 Y16.0 I0.875 J1.5155
G1 F100.0 Z-9.6
G2 F200.0 X116.125 Y17.5155 I1.75 J0.0
G2 X118.75 Y16.0 I0.875 J-1.5155
G2 X116.125 Y14.4845 I-1.75 J0.0
G2 X115.25 Y16.0 I0.875 J1.5155
G0 Z3.0
G0 X101.7508 Y44.4193
G0 Z1.0
G1 F100.0 Z-1.0
G2 F200.0 X100.125 Y44.4845 I-0.7508 J1.5807
G2 Y47.5155 I0.875 J1.5155
G2 X102.75 Y46.0 I0.875 J-1.5155
G2 X101.7508 Y44.4193 I-1.75 J0.0
G1 F100.0 Z-2.0
G2 F200.0 X100.125 Y44.4845 I-0.7508 J1.5807
G2 Y47.5155 I0.875 J1.5155
G2 X102.75 Y46.0 I0.875 J-1.5155
G2 X101.7508 Y44.4193 I-1.75 J0.0
G1 F100.0 Z-3.0
G2 F200.0 X100.125 Y44.4845 I-0.7508 J1.5807
G2 Y47.5155 I0.875 J1.5155
G2 X102.75 Y46.0 I0.875 J-1.5155
G2 X101.7508 Y44.4193 I-1.75 J0.0
G1 F100.0 Z-4.0
G2 F200.0 X100.125 Y44.4845 I-0.7508 J1.5807
G2 Y47.5155 I0.875 J1.5155
G2 X102.75 Y46.0 I0.875 J-1.5155
G2 X101.7508 Y44.4193 I-1.75 J0.0
G1 F100.0 Z-5.0
G2 F200.0 X100.125 Y44.4845 I-0.7508 J1.5807
G2 Y47.5155 I0.875 J1.5155
G2 X102.75 Y46.0 I0.875 J-1.5155
G2 X101.7508 Y44.4193 I-1.75 J0.0
G1 F100.0 Z-6.0
G2 F200.0 X100.125 Y44.4845 I-0.7508 J1.5807
G2 Y47.5155 I0.875 J1.5155
G2 X102.75 Y46.0 I0.875 J-1.5155
G2 X101.7508 Y44.4193 I-1.75 J0.0
G1 F100.0 Z-7.0
G2 F200.0 X100.125 Y44.4845 I-0.7508 J1.5807
G2 Y47.5155 I0.875 J1.5155
G2 X102.75 Y46.0 I0.875 J-1.5155
G2 X101.7508 Y44.4193 I-1.75 J0.0
G1 F100.0 Z-8.0
G2 F200.0 X100.125 Y44.4845 I-0.7508 J1.5807
G2 Y47.5155 I0.875 J1.5155
G2 X102.75 Y46.0 I0.875 J-1.5155
G2 X101.7508 Y44.4193 I-1.75 J0.0
G1 F100.0 Z-9.0
G2 F200.0 X100.125 Y44.4845 I-0.7508 J1.5807
G2 Y47.5155 I0.875 J1.5155
G2 X102.75 Y46.0 I0.875 J-1.5155
G2 X101.7508 Y44.4193 I-1.75 J0.0
G1 F100.0 Z-9.6
G2 F200.0 X100.125 Y44.4845 I-0.7508 J1.5807
G2 Y47.5155 I0.875 J1.5155
G2 X102.75 Y46.0 I0.875 J-1.5155
G2 X101.7508 Y44.4193 I-1.75 J0.0
G0 Z3.0
G0 X132.2521 Y45.9143
G0 Z1.0
G1 F100.0 Z-1.0
G2 F200.0 X133.125 Y47.5155 I1.7479 J0.0857
G2 X135.75 Y46.0 I0.875 J-1.5155
G2 X133.125 Y44.4845 I-1.75 J0.0
G2 X132.2521 Y45.9143 I0.875 J1.5155
G1 F100.0 Z-2.0
G2 F200.0 X133.125 Y47.5155 I1.7479 J0.0857
G2 X135.75 Y46.0 I0.875 J-1.5155
G2 X133.125 Y44.4845 I-1.75 J0.0
G2 X132.2521 Y45.9143 I0.875 J1.5155
G1 F100.0 Z-3.0
G2 F200.0 X133.125 Y47.5155 I1.7479 J0.0857
G2 X135.75 Y46.0 I0.875 J-1.5155
G2 X133.125 Y44.4845 I-1.75 J0.0
G2 X132.2521 Y45.9143 I0.875 J1.5155
G1 F100.0 Z-4.0
G2 F200.0 X133.125 Y47.5155 I1.7479 J0.0857
G2 X135.75 Y46.0 I0.875 J-1.5155
G2 X133.125 Y44.4845 I-1.75 J0.0
G2 X132.2521 Y45.9143 I0.875 J1.5155
G1 F100.0 Z-5.0
G2 F200.0 X133.125 Y47.5155 I1.7479 J0.0857
G2 X135.75 Y46.0 I0.875 J-1.5155
G2 X133.125 Y44.4845 I-1.75 J0.0
G2 X132.2521 Y45.9143 I0.875 J1.5155
G1 F100.0 Z-6.0
G2 F200.0 X133.125 Y47.5155 I1.7479 J0.0857
G2 X135.75 Y46.0 I0.875 J-1.5155
G2 X133.125 Y44.4845 I-1.75 J0.0
G2 X132.2521 Y45.9143 I0.875 J1.5155
G1 F100.0 Z-7.0
G2 F200.0 X133.125 Y47.5155 I1.7479 J0.0857
G2 X135.75 Y46.0 I0.875 J-1.5155
G2 X133.125 Y44.4845 I-1.75 J0.0
G2 X132.2521 Y45.9143 I0.875 J1.5155
G1 F100.0 Z-8.0
G2 F200.0 X133.125 Y47.5155 I1.7479 J0.0857
G2 X135.75 Y46.0 I0.875 J-1.5155
G2 X133.125 Y44.4845 I-1.75 J0.0
G2 X132.2521 Y45.9143 I0.875 J1.5155
G1 F100.0 Z-9.0
G2 F200.0 X133.125 Y47.5155 I1.7479 J0.0857
G2 X135.75 Y46.0 I0.875 J-1.5155
G2 X133.125 Y44.4845 I-1.75 J0.0
G2 X132.2521 Y45.9143 I0.875 J1.5155
G1 F100.0 Z-9.6
G2 F200.0 X133.125 Y47.5155 I1.7479 J0.0857
G2 X135.75 Y46.0 I0.875 J-1.5155
G2 X133.125 Y44.4845 I-1.75 J0.0
G2 X132.2521 Y45.9143 I0.875 J1.5155
G0 Z3.0
G0 X135.4262 Y74.7815
G0 Z1.0
G1 F100.0 Z-1.0
G2 F200.0 X133.375 Y75.4534 I0.5738 J5.2185
G2 Y84.5466 I2.625 J4.5466
G2 X141.25 Y80.0 I2.625 J-4.5466
G2 X135.4262 Y74.7815 I-5.25 J0.0
G1 F100.0 Z-2.0
G2 F200.0 X133.375 Y75.4534 I0.5738 J5.2185
G2 Y84.5466 I2.625 J4.5466
G2 X141.25 Y80.0 I2.625 J-4.5466
G2 X135.4262 Y74.7815 I-5.25 J0.0
G1 F100.0 Z-3.0
G2 F200.0 X133.375 Y75.4534 I0.5738 J5.2185
G2 Y84.5466 I2.625 J4.5466
G2 X141.25 Y80.0 I2.625 J-4.5466
G2 X135.4262 Y74.7815 I-5.25 J0.0
G1 F100.0 Z-4.0
G2 F200.0 X133.375 Y75.4534 I0.5738 J5.2185
G2 Y84.5466 I2.625 J4.5466
G2 X141.25 Y80.0 I2.625 J-4.5466
G2 X135.4262 Y74.7815 I-5.25 J0.0
G1 F100.0 Z-5.0
G2 F200.0 X133.375 Y75.4534 I0.5738 J5.2185
G2 Y84.5466 I2.625 J4.5466
G2 X141.25 Y80.0 I2.625 J-4.5466
G2 X135.4262 Y74.7815 I-5.25 J0.0
G1 F100.0 Z-6.0
G2 F200.0 X133.375 Y75.4534 I0.5738 J5.2185
G2 Y84.5466 I2.625 J4.5466
G2 X141.25 Y80.0 I2.625 J-4.5466
G2 X135.4262 Y74.7815 I-5.25 J0.0
G1 F100.0 Z-7.0
G2 F200.0 X133.375 Y75.4534 I0.5738 J5.2185
G2 Y84.5466 I2.625 J4.5466
G2 X141.25 Y80.0 I2.625 J-4.5466
G2 X135.4262 Y74.7815 I-5.25 J0.0
G1 F100.0 Z-8.0
G2 F200.0 X133.375 Y75.4534 I0.5738 J5.2185
G2 Y84.5466 I2.625 J4.5466
G2 X141.25 Y80.0 I2.625 J-4.5466
G2 X135.4262 Y74.7815 I-5.25 J0.0
G1 F100.0 Z-9.0
G2 F200.0 X133.375 Y75.4534 I0.5738 J5.2185
G2 Y84.5466 I2.625 J4.5466
G2 X141.25 Y80.0 I2.625 J-4.5466
G2 X135.4262 Y74.7815 I-5.25 J0.0
G1 F100.0 Z-9.6
G2 F200.0 X133.375 Y75.4534 I0.5738 J5.2185
G2 Y84.5466 I2.625 J4.5466
G2 X141.25 Y80.0 I2.625 J-4.5466
G2 X135.4262 Y74.7815 I-5.25 J0.0
G0 Z3.0
G0 X146.9066 Y101.1854
G0 Z1.0
G1 F100.0 Z-1.0
G2 F200.0 X146.375 Y101.4534 I2.0934 J4.8146
G2 Y110.5466 I2.625 J4.5466
G2 X154.25 Y106.0 I2.625 J-4.5466
G2 X146.9066 Y101.1854 I-5.25 J0.0
G1 F100.0 Z-2.0
G2 F200.0 X146.375 Y101.4534 I2.0934 J4.8146
G2 Y110.5466 I2.625 J4.5466
G2 X154.25 Y106.0 I2.625 J-4.5466
G2 X146.9066 Y101.1854 I-5.25 J0.0
G1 F100.0 Z-3.0
G2 F200.0 X146.375 Y101.4534 I2.0934 J4.8146
G2 Y110.5466 I2.625 J4.5466
G2 X154.25 Y106.0 I2.625 J-4.5466
G2 X146.9066 Y101.1854 I-5.25 J0.0
G1 F100.0 Z-4.0
G2 F200.0 X146.375 Y101.4534 I2.0934 J4.8146
G2 Y110.5466 I2.625 J4.5466
G2 X154.25 Y106.0 I2.625 J-4.5466
G2 X146.9066 Y101.1854 I-5.25 J0.0
G1 F100.0 Z-5.0
G2 F200.0 X146.375 Y101.4534 I2.0934 J4.8146
G2 Y110.5466 I2.625 J4.5466
G2 X154.25 Y106.0 I2.625 J-4.5466
G2 X146.9066 Y101.1854 I-5.25 J0.0
G1 F100.0 Z-6.0
G2 F200.0 X146.375 Y101.4534 I2.0934 J4.8146
G2 Y110.5466 I2.625 J4.5466
G2 X154.25 Y106.0 I2.625 J-4.5466
G2 X146.9066 Y101.1854 I-5.25 J0.0
G1 F100.0 Z-7.0
G2 F200.0 X146.375 Y101.4534 I2.0934 J4.8146
G2 Y110.5466 I2.625 J4.5466
G2 X154.25 Y106.0 I2.625 J-4.5466
G2 X146.9066 Y101.1854 I-5.25 J0.0
G1 F100.0 Z-8.0
G2 F200.0 X146.375 Y101.4534 I2.0934 J4.8146
G2 Y110.5466 I2.625 J4.5466
G2 X154.25 Y106.0 I2.625 J-4.5466
G2 X146.9066 Y101.1854 I-5.25 J0.0
G1 F100.0 Z-9.0
G2 F200.0 X146.375 Y101.4534 I2.0934 J4.8146
G2 Y110.5466 I2.625 J4.5466
G2 X154.25 Y106.0 I2.625 J-4.5466
G2 X146.9066 Y101.1854 I-5.25 J0.0
G1 F100.0 Z-9.6
G2 F200.0 X146.375 Y101.4534 I2.0934 J4.8146
G2 Y110.5466 I2.625 J4.5466
G2 X154.25 Y106.0 I2.625 J-4.5466
G2 X146.9066 Y101.1854 I-5.25 J0.0
G0 Z3.0
G0 X129.9152 Y126.6338
G0 Z1.0
G1 F100.0 Z-1.0
G2 F200.0 X124.375 Y126.4534 I-2.9152 J4.3662
G2 Y135.5466 I2.625 J4.5466
G2 X132.25 Y131.0 I2.625 J-4.5466
G2 X129.9152 Y126.6338 I-5.25 J0.0
G1 F100.0 Z-2.0
G2 F200.0 X124.375 Y126.4534 I-2.9152 J4.3662
G2 Y135.5466 I2.625 J4.5466
G2 X132.25 Y131.0 I2.625 J-4.5466
G2 X129.9152 Y126.6338 I-5.25 J0.0
G1 F100.0 Z-3.0
G2 F200.0 X124.375 Y126.4534 I-2.9152 J4.3662
G2 Y135.5466 I2.625 J4.5466
G2 X132.25 Y131.0 I2.625 J-4.5466
G2 X129.9152 Y126.6338 I-5.25 J0.0
G1 F100.0 Z-4.0
G2 F200.0 X124.375 Y126.4534 I-2.9152 J4.3662
G2 Y135.5466 I2.625 J4.5466
G2 X132.25 Y131.0 I2.625 J-4.5466
G2 X129.9152 Y126.6338 I-5.25 J0.0
G1 F100.0 Z-5.0
G2 F200.0 X124.375 Y126.4534 I-2.9152 J4.3662
G2 Y135.5466 I2.625 J4.5466
G2 X132.25 Y131.0 I2.625 J-4.5466
G2 X129.9152 Y126.6338 I-5.25 J0.0
G1 F100.0 Z-6.0
G2 F200.0 X124.375 Y126.4534 I-2.9152 J4.3662
G2 Y135.5466 I2.625 J4.5466
G2 X132.25 Y131.0 I2.625 J-4.5466
G2 X129.9152 Y126.6338 I-5.25 J0.0
G1 F100.0 Z-7.0
G2 F200.0 X124.375 Y126.4534 I-2.9152 J4.3662
G2 Y135.5466 I2.625 J4.5466
G2 X132.25 Y131.0 I2.625 J-4.5466
G2 X129.9152 Y126.6338 I-5.25 J0.0
G1 F100.0 Z-8.0
G2 F200.0 X124.375 Y126.4534 I-2.9152 J4.3662
G2 Y135.5466 I2.625 J4.5466
G2 X132.25 Y131.0 I2.625 J-4.5466
G2 X129.9152 Y126.6338 I-5.25 J0.0
G1 F100.0 Z-9.0
G2 F200.0 X124.375 Y126.4534 I-2.9152 J4.3662
G2 Y135.5466 I2.625 J4.5466
G2 X132.25 Y131.0 I2.625 J-4.5466
G2 X129.9152 Y126.6338 I-5.25 J0.0
G1 F100.0 Z-9.6
G2 F200.0 X124.375 Y126.4534 I-2.9152 J4.3662
G2 Y135.5466 I2.625 J4.5466
G2 X132.25 Y131.0 I2.625 J-4.5466
G2 X129.9152 Y126.6338 I-5.25 J0.0
G0 Z3.0
G0 X61.0525 Y141.0985
G0 Z1.0
G1 F100.0 Z-1.0
G2 F200.0 X47.375 Y134.9893 I-9.0525 J1.9015
G2 Y151.0107 I4.625 J8.0107
G2 X61.25 Y143.0 I4.625 J-8.0107
G2 X61.0525 Y141.0985 I-9.25 J0.0
G1 F100.0 Z-2.0
G2 F200.0 X47.375 Y134.9893 I-9.0525 J1.9015
G2 Y151.0107 I4.625 J8.0107
G2 X61.25 Y143.0 I4.625 J-8.0107
G2 X61.0525 Y141.0985 I-9.25 J0.0
G1 F100.0 Z-3.0
G2 F200.0 X47.375 Y134.9893 I-9.0525 J1.9015
G2 Y151.0107 I4.625 J8.0107
G2 X61.25 Y143.0 I4.625 J-8.0107
G2 X61.0525 Y141.0985 I-9.25 J0.0
G1 F100.0 Z-4.0
G2 F200.0 X47.375 Y134.9893 I-9.0525 J1.9015
G2 Y151.0107 I4.625 J8.0107
G2 X61.25 Y143.0 I4.625 J-8.0107
G2 X61.0525 Y141.0985 I-9.25 J0.0
G1 F100.0 Z-5.0
G2 F200.0 X47.375 Y134.9893 I-9.0525 J1.9015
G2 Y151.0107 I4.625 J8.0107
G2 X61.25 Y143.0 I4.625 J-8.0107
G2 X61.0525 Y141.0985 I-9.25 J0.0
G1 F100.0 Z-6.0
G2 F200.0 X47.375 Y134.9893 I-9.0525 J1.9015
G2 Y151.0107 I4.625 J8.0107
G2 X61.25 Y143.0 I4.625 J-8.0107
G2 X61.0525 Y141.0985 I-9.25 J0.0
G1 F100.0 Z-7.0
G2 F200.0 X47.375 Y134.9893 I-9.0525 J1.9015
G2 Y151.0107 I4.625 J8.0107
G2 X61.25 Y143.0 I4.625 J-8.0107
G2 X61.0525 Y141.0985 I-9.25 J0.0
G1 F100.0 Z-8.0
G2 F200.0 X47.375 Y134.9893 I-9.0525 J1.9015
G2 Y151.0107 I4.625 J8.0107
G2 X61.25 Y143.0 I4.625 J-8.0107
G2 X61.0525 Y141.0985 I-9.25 J0.0
G1 F100.0 Z-9.0
G2 F200.0 X47.375 Y134.9893 I-9.0525 J1.9015
G2 Y151.0107 I4.625 J8.0107
G2 X61.25 Y143.0 I4.625 J-8.0107
G2 X61.0525 Y141.0985 I-9.25 J0.0
G1 F100.0 Z-9.6
G2 F200.0 X47.375 Y134.9893 I-9.0525 J1.9015
G2 Y151.0107 I4.625 J8.0107
G2 X61.25 Y143.0 I4.625 J-8.0107
G2 X61.0525 Y141.0985 I-9.25 J0.0
G0 Z3.0
G0 X51.7581 Y114.9469
G0 Z1.0
G1 F100.0 Z-1.0
G2 F200.0 X55.25 Y110.0 I-1.7581 J-4.9469
G2 X47.375 Y105.4534 I-5.25 J0.0
G2 Y114.5466 I2.625 J4.5466
G2 X51.7581 Y114.9469 I2.625 J-4.5466
G1 F100.0 Z-2.0
G2 F200.0 X55.25 Y110.0 I-1.7581 J-4.9469
G2 X47.375 Y105.4534 I-5.25 J0.0
G2 Y114.5466 I2.625 J4.5466
G2 X51.7581 Y114.9469 I2.625 J-4.5466
G1 F100.0 Z-3.0
G2 F200.0 X55.25 Y110.0 I-1.7581 J-4.9469
G2 X47.375 Y105.4534 I-5.25 J0.0
G2 Y114.5466 I2.625 J4.5466
G2 X51.7581 Y114.9469 I2.625 J-4.5466
G1 F100.0 Z-4.0
G2 F200.0 X55.25 Y110.0 I-1.7581 J-4.9469
G2 X47.375 Y105.4534 I-5.25 J0.0
G2 Y114.5466 I2.625 J4.5466
G2 X51.7581 Y114.9469 I2.625 J-4.5466
G1 F100.0 Z-5.0
G2 F200.0 X55.25 Y110.0 I-1.7581 J-4.9469
G2 X47.375 Y105.4534 I-5.25 J0.0
G2 Y114.5466 I2.625 J4.5466
G2 X51.7581 Y114.9469 I2.625 J-4.5466
G1 F100.0 Z-6.0
G2 F200.0 X55.25 Y110.0 I-1.7581 J-4.9469
G2 X47.375 Y105.4534 I-5.25 J0.0
G2 Y114.5466 I2.625 J4.5466
G2 X51.7581 Y114.9469 I2.625 J-4.5466
G1 F100.0 Z-7.0
G2 F200.0 X55.25 Y110.0 I-1.7581 J-4.9469
G2 X47.375 Y105.4534 I-5.25 J0.0
G2 Y114.5466 I2.625 J4.5466
G2 X51.7581 Y114.9469 I2.625 J-4.5466
G1 F100.0 Z-8.0
G2 F200.0 X55.25 Y110.0 I-1.7581 J-4.9469
G2 X47.375 Y105.4534 I-5.25 J0.0
G2 Y114.5466 I2.625 J4.5466
G2 X51.7581 Y114.9469 I2.625 J-4.5466
G1 F100.0 Z-9.0
G2 F200.0 X55.25 Y110.0 I-1.7581 J-4.9469
G2 X47.375 Y105.4534 I-5.25 J0.0
G2 Y114.5466 I2.625 J4.5466
G2 X51.7581 Y114.9469 I2.625 J-4.5466
G1 F100.0 Z-9.6
G2 F200.0 X55.25 Y110.0 I-1.7581 J-4.9469
G2 X47.375 Y105.4534 I-5.25 J0.0
G2 Y114.5466 I2.625 J4.5466
G2 X51.7581 Y114.9469 I2.625 J-4.5466
G0 Z3.0
G0 X59.5821 Y87.0549
G0 Z1.0
G1 F100.0 Z-1.0
G2 F200.0 X66.25 Y82.0 I1.4179 J-5.0549
G2 X58.375 Y77.4534 I-5.25 J0.0
G2 Y86.5466 I2.625 J4.5466
G2 X59.5821 Y87.0549 I2.625 J-4.5466
G1 F100.0 Z-2.0
G2 F200.0 X66.25 Y82.0 I1.4179 J-5.0549
G2 X58.375 Y77.4534 I-5.25 J0.0
G2 Y86.5466 I2.625 J4.5466
G2 X59.5821 Y87.0549 I2.625 J-4.5466
G1 F100.0 Z-3.0
G2 F200.0 X66.25 Y82.0 I1.4179 J-5.0549
G2 X58.375 Y77.4534 I-5.25 J0.0
G2 Y86.5466 I2.625 J4.5466
G2 X59.5821 Y87.0549 I2.625 J-4.5466
G1 F100.0 Z-4.0
G2 F200.0 X66.25 Y82.0 I1.4179 J-5.0549
G2 X58.375 Y77.4534 I-5.25 J0.0
G2 Y86.5466 I2.625 J4.5466
G2 X59.5821 Y87.0549 I2.625 J-4.5466
G1 F100.0 Z-5.0
G2 F200.0 X66.25 Y82.0 I1.4179 J-5.0549
G2 X58.375 Y77.4534 I-5.25 J0.0
G2 Y86.5466 I2.625 J4.5466
G2 X59.5821 Y87.0549 I2.625 J-4.5466
G1 F100.0 Z-6.0
G2 F200.0 X66.25 Y82.0 I1.4179 J-5.0549
G2 X58.375 Y77.4534 I-5.25 J0.0
G2 Y86.5466 I2.625 J4.5466
G2 X59.5821 Y87.0549 I2.625 J-4.5466
G1 F100.0 Z-7.0
G2 F200.0 X66.25 Y82.0 I1.4179 J-5.0549
G2 X58.375 Y77.4534 I-5.25 J0.0
G2 Y86.5466 I2.625 J4.5466
G2 X59.5821 Y87.0549 I2.625 J-4.5466
G1 F100.0 Z-8.0
G2 F200.0 X66.25 Y82.0 I1.4179 J-5.0549
G2 X58.375 Y77.4534 I-5.25 J0.0
G2 Y86.5466 I2.625 J4.5466
G2 X59.5821 Y87.0549 I2.625 J-4.5466
G1 F100.0 Z-9.0
G2 F200.0 X66.25 Y82.0 I1.4179 J-5.0549
G2 X58.375 Y77.4534 I-5.25 J0.0
G2 Y86.5466 I2.625 J4.5466
G2 X59.5821 Y87.0549 I2.625 J-4.5466
G1 F100.0 Z-9.6
G2 F200.0 X66.25 Y82.0 I1.4179 J-5.0549
G2 X58.375 Y77.4534 I-5.25 J0.0
G2 Y86.5466 I2.625 J4.5466
G2 X59.5821 Y87.0549 I2.625 J-4.5466
G0 Z3.0
G0 X41.7961 Y79.1355
G0 Z1.0
G1 F100.0 Z-1.0
G2 F200.0 X42.25 Y77.0 I-4.7961 J-2.1355
G2 X34.375 Y72.4534 I-5.25 J0.0
G2 Y81.5466 I2.625 J4.5466
G2 X41.7961 Y79.1355 I2.625 J-4.5466
G1 F100.0 Z-2.0
G2 F200.0 X42.25 Y77.0 I-4.7961 J-2.1355
G2 X34.375 Y72.4534 I-5.25 J0.0
G2 Y81.5466 I2.625 J4.5466
G2 X41.7961 Y79.1355 I2.625 J-4.5466
G1 F100.0 Z-3.0
G2 F200.0 X42.25 Y77.0 I-4.7961 J-2.1355
G2 X34.375 Y72.4534 I-5.25 J0.0
G2 Y81.5466 I2.625 J4.5466
G2 X41.7961 Y79.1355 I2.625 J-4.5466
G1 F100.0 Z-4.0
G2 F200.0 X42.25 Y77.0 I-4.7961 J-2.1355
G2 X34.375 Y72.4534 I-5.25 J0.0
G2 Y81.5466 I2.625 J4.5466
G2 X41.7961 Y79.1355 I2.625 J-4.5466
G1 F100.0 Z-5.0
G2 F200.0 X42.25 Y77.0 I-4.7961 J-2.1355
G2 X34.375 Y72.4534 I-5.25 J0.0
G2 Y81.5466 I2.625 J4.5466
G2 X41.7961 Y79.1355 I2.625 J-4.5466
G1 F100.0 Z-6.0
G2 F200.0 X42.25 Y77.0 I-4.7961 J-2.1355
G2 X34.375 Y72.4534 I-5.25 J0.0
G2 Y81.5466 I2.625 J4.5466
G2 X41.7961 Y79.1355 I2.625 J-4.5466
G1 F100.0 Z-7.0
G2 F200.0 X42.25 Y77.0 I-4.7961 J-2.1355
G2 X34.375 Y72.4534 I-5.25 J0.0
G2 Y81.5466 I2.625 J4.5466
G2 X41.7961 Y79.1355 I2.625 J-4.5466
G1 F100.0 Z-8.0
G2 F200.0 X42.25 Y77.0 I-4.7961 J-2.1355
G2 X34.375 Y72.4534 I-5.25 J0.0
G2 Y81.5466 I2.625 J4.5466
G2 X41.7961 Y79.1355 I2.625 J-4.5466
G1 F100.0 Z-9.0
G2 F200.0 X42.25 Y77.0 I-4.7961 J-2.1355
G2 X34.375 Y72.4534 I-5.25 J0.0
G2 Y81.5466 I2.625 J4.5466
G2 X41.7961 Y79.1355 I2.625 J-4.5466
G1 F100.0 Z-9.6
G2 F200.0 X42.25 Y77.0 I-4.7961 J-2.1355
G2 X34.375 Y72.4534 I-5.25 J0.0
G2 Y81.5466 I2.625 J4.5466
G2 X41.7961 Y79.1355 I2.625 J-4.5466
G0 Z3.0
G0 X23.4665 Y92.5398
G0 Z1.0
G1 F100.0 Z-1.0
G2 F200.0 X11.375 Y89.9893 I-7.4665 J5.4602
G2 Y106.0107 I4.625 J8.0107
G2 X25.25 Y98.0 I4.625 J-8.0107
G2 X23.4665 Y92.5398 I-9.25 J0.0
G1 F100.0 Z-2.0
G2 F200.0 X11.375 Y89.9893 I-7.4665 J5.4602
G2 Y106.0107 I4.625 J8.0107
G2 X25.25 Y98.0 I4.625 J-8.0107
G2 X23.4665 Y92.5398 I-9.25 J0.0
G1 F100.0 Z-3.0
G2 F200.0 X11.375 Y89.9893 I-7.4665 J5.4602
G2 Y106.0107 I4.625 J8.0107
G2 X25.25 Y98.0 I4.625 J-8.0107
G2 X23.4665 Y92.5398 I-9.25 J0.0
G1 F100.0 Z-4.0
G2 F200.0 X11.375 Y89.9893 I-7.4665 J5.4602
G2 Y106.0107 I4.625 J8.0107
G2 X25.25 Y98.0 I4.625 J-8.0107
G2 X23.4665 Y92.5398 I-9.25 J0.0
G1 F100.0 Z-5.0
G2 F200.0 X11.375 Y89.9893 I-7.4665 J5.4602
G2 Y106.0107 I4.625 J8.0107
G2 X25.25 Y98.0 I4.625 J-8.0107
G2 X23.4665 Y92.5398 I-9.25 J0.0
G1 F100.0 Z-6.0
G2 F200.0 X11.375 Y89.9893 I-7.4665 J5.4602
G2 Y106.0107 I4.625 J8.0107
G2 X25.25 Y98.0 I4.625 J-8.0107
G2 X23.4665 Y92.5398 I-9.25 J0.0
G1 F100.0 Z-7.0
G2 F200.0 X11.375 Y89.9893 I-7.4665 J5.4602
G2 Y106.0107 I4.625 J8.0107
G2 X25.25 Y98.0 I4.625 J-8.0107
G2 X23.4665 Y92.5398 I-9.25 J0.0
G1 F100.0 Z-8.0
G2 F200.0 X11.375 Y89.9893 I-7.4665 J5.4602
G2 Y106.0107 I4.625 J8.0107
G2 X25.25 Y98.0 I4.625 J-8.0107
G2 X23.4665 Y92.5398 I-9.25 J0.0
G1 F100.0 Z-9.0
G2 F200.0 X11.375 Y89.9893 I-7.4665 J5.4602
G2 Y106.0107 I4.625 J8.0107
G2 X25.25 Y98.0 I4.625 J-8.0107
G2 X23.4665 Y92.5398 I-9.25 J0.0
G1 F100.0 Z-9.6
G2 F200.0 X11.375 Y89.9893 I-7.4665 J5.4602
G2 Y106.0107 I4.625 J8.0107
G2 X25.25 Y98.0 I4.625 J-8.0107
G2 X23.4665 Y92.5398 I-9.25 J0.0
( Profile3 )
S1000
G0 Z3.0
G0 X99.75 Y16.0
G0 Z1.0
G1 F100.0 Z-1.0
G3 F200.0 X76.125 Y29.6399 I-15.75 J0.0
G3 Y2.3601 I7.875 J-13.6399
G3 X99.75 Y16.0 I7.875 J13.6399
G1 F100.0 Z-2.0
G3 F200.0 X76.125 Y29.6399 I-15.75 J0.0
G3 Y2.3601 I7.875 J-13.6399
G3 X99.75 Y16.0 I7.875 J13.6399
G1 F100.0 Z-3.0
G3 F200.0 X76.125 Y29.6399 I-15.75 J0.0
G3 Y2.3601 I7.875 J-13.6399
G3 X99.75 Y16.0 I7.875 J13.6399
G1 F100.0 Z-4.0
G3 F200.0 X76.125 Y29.6399 I-15.75 J0.0
G3 Y2.3601 I7.875 J-13.6399
G3 X99.75 Y16.0 I7.875 J13.6399
G1 F100.0 Z-5.0
G3 F200.0 X76.125 Y29.6399 I-15.75 J0.0
G3 Y2.3601 I7.875 J-13.6399
G3 X99.75 Y16.0 I7.875 J13.6399
G1 F100.0 Z-6.0
G3 F200.0 X76.125 Y29.6399 I-15.75 J0.0
G3 Y2.3601 I7.875 J-13.6399
G3 X99.75 Y16.0 I7.875 J13.6399
G1 F100.0 Z-7.0
G3 F200.0 X76.125 Y29.6399 I-15.75 J0.0
G3 Y2.3601 I7.875 J-13.6399
G3 X99.75 Y16.0 I7.875 J13.6399
G1 F100.0 Z-8.0
G3 F200.0 X76.125 Y29.6399 I-15.75 J0.0
G3 Y2.3601 I7.875 J-13.6399
G3 X99.75 Y16.0 I7.875 J13.6399
G1 F100.0 Z-9.0
G3 F200.0 X76.125 Y29.6399 I-15.75 J0.0
G3 Y2.3601 I7.875 J-13.6399
G3 X99.75 Y16.0 I7.875 J13.6399
G1 F100.0 Z-9.6
G3 F200.0 X76.125 Y29.6399 I-15.75 J0.0
G3 Y2.3601 I7.875 J-13.6399
G3 X99.75 Y16.0 I7.875 J13.6399
G0 Z3.0
G0 X101.25
G0 Z1.0
G1 F100.0 Z-1.0
G3 F200.0 X109.125 Y2.3601 I15.75 J0.0
G3 X132.75 Y16.0 I7.875 J13.6399
G3 X109.125 Y29.6399 I-15.75 J0.0
G3 X101.25 Y16.0 I7.875 J-13.6399
G1 F100.0 Z-2.0
G3 F200.0 X109.125 Y2.3601 I15.75 J0.0
G3 X132.75 Y16.0 I7.875 J13.6399
G3 X109.125 Y29.6399 I-15.75 J0.0
G3 X101.25 Y16.0 I7.875 J-13.6399
G1 F100.0 Z-3.0
G3 F200.0 X109.125 Y2.3601 I15.75 J0.0
G3 X132.75 Y16.0 I7.875 J13.6399
G3 X109.125 Y29.6399 I-15.75 J0.0
G3 X101.25 Y16.0 I7.875 J-13.6399
G1 F100.0 Z-4.0
G3 F200.0 X109.125 Y2.3601 I15.75 J0.0
G3 X132.75 Y16.0 I7.875 J13.6399
G3 X109.125 Y29.6399 I-15.75 J0.0
G3 X101.25 Y16.0 I7.875 J-13.6399
G1 F100.0 Z-5.0
G3 F200.0 X109.125 Y2.3601 I15.75 J0.0
G3 X132.75 Y16.0 I7.875 J13.6399
G3 X109.125 Y29.6399 I-15.75 J0.0
G3 X101.25 Y16.0 I7.875 J-13.6399
G1 F100.0 Z-6.0
G3 F200.0 X109.125 Y2.3601 I15.75 J0.0
G3 X132.75 Y16.0 I7.875 J13.6399
G3 X109.125 Y29.6399 I-15.75 J0.0
G3 X101.25 Y16.0 I7.875 J-13.6399
G1 F100.0 Z-7.0
G3 F200.0 X109.125 Y2.3601 I15.75 J0.0
G3 X132.75 Y16.0 I7.875 J13.6399
G3 X109.125 Y29.6399 I-15.75 J0.0
G3 X101.25 Y16.0 I7.875 J-13.6399
G1 F100.0 Z-8.0
G3 F200.0 X109.125 Y2.3601 I15.75 J0.0
G3 X132.75 Y16.0 I7.875 J13.6399
G3 X109.125 Y29.6399 I-15.75 J0.0
G3 X101.25 Y16.0 I7.875 J-13.6399
G1 F100.0 Z-9.0
G3 F200.0 X109.125 Y2.3601 I15.75 J0.0
G3 X132.75 Y16.0 I7.875 J13.6399
G3 X109.125 Y29.6399 I-15.75 J0.0
G3 X101.25 Y16.0 I7.875 J-13.6399
G1 F100.0 Z-9.6
G3 F200.0 X109.125 Y2.3601 I15.75 J0.0
G3 X132.75 Y16.0 I7.875 J13.6399
G3 X109.125 Y29.6399 I-15.75 J0.0
G3 X101.25 Y16.0 I7.875 J-13.6399
G0 Z3.0
G0 X101.1312 Y30.2505
G0 Z1.0
G1 F100.0 Z-1.0
G3 F200.0 X116.75 Y46.0 I-0.1312 J15.7495
G3 X93.125 Y59.6399 I-15.75 J0.0
G3 Y32.3601 I7.875 J-13.6399
G3 X101.1312 Y30.2505 I7.875 J13.6399
G1 F100.0 Z-2.0
G3 F200.0 X116.75 Y46.0 I-0.1312 J15.7495
G3 X93.125 Y59.6399 I-15.75 J0.0
G3 Y32.3601 I7.875 J-13.6399
G3 X101.1312 Y30.2505 I7.875 J13.6399
G1 F100.0 Z-3.0
G3 F200.0 X116.75 Y46.0 I-0.1312 J15.7495
G3 X93.125 Y59.6399 I-15.75 J0.0
G3 Y32.3601 I7.875 J-13.6399
G3 X101.1312 Y30.2505 I7.875 J13.6399
G1 F100.0 Z-4.0
G3 F200.0 X116.75 Y46.0 I-0.1312 J15.7495
G3 X93.125 Y59.6399 I-15.75 J0.0
G3 Y32.3601 I7.875 J-13.6399
G3 X101.1312 Y30.2505 I7.875 J13.6399
G1 F100.0 Z-5.0
G3 F200.0 X116.75 Y46.0 I-0.1312 J15.7495
G3 X93.125 Y59.6399 I-15.75 J0.0
G3 Y32.3601 I7.875 J-13.6399
G3 X101.1312 Y30.2505 I7.875 J13.6399
G1 F100.0 Z-6.0
G3 F200.0 X116.75 Y46.0 I-0.1312 J15.7495
G3 X93.125 Y59.6399 I-15.75 J0.0
G3 Y32.3601 I7.875 J-13.6399
G3 X101.1312 Y30.2505 I7.875 J13.6399
G1 F100.0 Z-7.0
G3 F200.0 X116.75 Y46.0 I-0.1312 J15.7495
G3 X93.125 Y59.6399 I-15.75 J0.0
G3 Y32.3601 I7.875 J-13.6399
G3 X101.1312 Y30.2505 I7.875 J13.6399
G1 F100.0 Z-8.0
G3 F200.0 X116.75 Y46.0 I-0.1312 J15.7495
G3 X93.125 Y59.6399 I-15.75 J0.0
G3 Y32.3601 I7.875 J-13.6399
G3 X101.1312 Y30.2505 I7.875 J13.6399
G1 F100.0 Z-9.0
G3 F200.0 X116.75 Y46.0 I-0.1312 J15.7495
G3 X93.125 Y59.6399 I-15.75 J0.0
G3 Y32.3601 I7.875 J-13.6399
G3 X101.1312 Y30.2505 I7.875 J13.6399
G1 F100.0 Z-9.6
G3 F200.0 X116.75 Y46.0 I-0.1312 J15.7495
G3 X93.125 Y59.6399 I-15.75 J0.0
G3 Y32.3601 I7.875 J-13.6399
G3 X101.1312 Y30.2505 I7.875 J13.6399
G0 Z3.0
G0 X119.7964 Y39.1942
G0 Z1.0
G1 F100.0 Z-1.0
G3 F200.0 X126.125 Y32.3601 I14.2036 J6.8058
G3 X149.75 Y46.0 I7.875 J13.6399
G3 X126.125 Y59.6399 I-15.75 J0.0
G3 X119.7964 Y39.1942 I7.875 J-13.6399
G1 F100.0 Z-2.0
G3 F200.0 X126.125 Y32.3601 I14.2036 J6.8058
G3 X149.75 Y46.0 I7.875 J13.6399
G3 X126.125 Y59.6399 I-15.75 J0.0
G3 X119.7964 Y39.1942 I7.875 J-13.6399
G1 F100.0 Z-3.0
G3 F200.0 X126.125 Y32.3601 I14.2036 J6.8058
G3 X149.75 Y46.0 I7.875 J13.6399
G3 X126.125 Y59.6399 I-15.75 J0.0
G3 X119.7964 Y39.1942 I7.875 J-13.6399
G1 F100.0 Z-4.0
G3 F200.0 X126.125 Y32.3601 I14.2036 J6.8058
G3 X149.75 Y46.0 I7.875 J13.6399
G3 X126.125 Y59.6399 I-15.75 J0.0
G3 X119.7964 Y39.1942 I7.875 J-13.6399
G1 F100.0 Z-5.0
G3 F200.0 X126.125 Y32.3601 I14.2036 J6.8058
G3 X149.75 Y46.0 I7.875 J13.6399
G3 X126.125 Y59.6399 I-15.75 J0.0
G3 X119.7964 Y39.1942 I7.875 J-13.6399
G1 F100.0 Z-6.0
G3 F200.0 X126.125 Y32.3601 I14.2036 J6.8058
G3 X149.75 Y46.0 I7.875 J13.6399
G3 X126.125 Y59.6399 I-15.75 J0.0
G3 X119.7964 Y39.1942 I7.875 J-13.6399
G1 F100.0 Z-7.0
G3 F200.0 X126.125 Y32.3601 I14.2036 J6.8058
G3 X149.75 Y46.0 I7.875 J13.6399
G3 X126.125 Y59.6399 I-15.75 J0.0
G3 X119.7964 Y39.1942 I7.875 J-13.6399
G1 F100.0 Z-8.0
G3 F200.0 X126.125 Y32.3601 I14.2036 J6.8058
G3 X149.75 Y46.0 I7.875 J13.6399
G3 X126.125 Y59.6399 I-15.75 J0.0
G3 X119.7964 Y39.1942 I7.875 J-13.6399
G1 F100.0 Z-9.0
G3 F200.0 X126.125 Y32.3601 I14.2036 J6.8058
G3 X149.75 Y46.0 I7.875 J13.6399
G3 X126.125 Y59.6399 I-15.75 J0.0
G3 X119.7964 Y39.1942 I7.875 J-13.6399
G1 F100.0 Z-9.6
G3 F200.0 X126.125 Y32.3601 I14.2036 J6.8058
G3 X149.75 Y46.0 I7.875 J13.6399
G3 X126.125 Y59.6399 I-15.75 J0.0
G3 X119.7964 Y39.1942 I7.875 J-13.6399
G0 Z3.0
G0 X137.5083 Y25.5927
G0 Z1.0
G1 F100.0 Z-1.0
G3 F200.0 X142.125 Y2.3601 I12.4917 J-9.5927
G3 X165.75 Y16.0 I7.875 J13.6399
G3 X142.125 Y29.6399 I-15.75 J0.0
G3 X137.5083 Y25.5927 I7.875 J-13.6399
G1 F100.0 Z-2.0
G3 F200.0 X142.125 Y2.3601 I12.4917 J-9.5927
G3 X165.75 Y16.0 I7.875 J13.6399
G3 X142.125 Y29.6399 I-15.75 J0.0
G3 X137.5083 Y25.5927 I7.875 J-13.6399
G1 F100.0 Z-3.0
G3 F200.0 X142.125 Y2.3601 I12.4917 J-9.5927
G3 X165.75 Y16.0 I7.875 J13.6399
G3 X142.125 Y29.6399 I-15.75 J0.0
G3 X137.5083 Y25.5927 I7.875 J-13.6399
G1 F100.0 Z-4.0
G3 F200.0 X142.125 Y2.3601 I12.4917 J-9.5927
G3 X165.75 Y16.0 I7.875 J13.6399
G3 X142.125 Y29.6399 I-15.75 J0.0
G3 X137.5083 Y25.5927 I7.875 J-13.6399
G1 F100.0 Z-5.0
G3 F200.0 X142.125 Y2.3601 I12.4917 J-9.5927
G3 X165.75 Y16.0 I7.875 J13.6399
G3 X142.125 Y29.6399 I-15.75 J0.0
G3 X137.5083 Y25.5927 I7.875 J-13.6399
G1 F100.0 Z-6.0
G3 F200.0 X142.125 Y2.3601 I12.4917 J-9.5927
G3 X165.75 Y16.0 I7.875 J13.6399
G3 X142.125 Y29.6399 I-15.75 J0.0
G3 X137.5083 Y25.5927 I7.875 J-13.6399
G1 F100.0 Z-7.0
G3 F200.0 X142.125 Y2.3601 I12.4917 J-9.5927
G3 X165.75 Y16.0 I7.875 J13.6399
G3 X142.125 Y29.6399 I-15.75 J0.0
G3 X137.5083 Y25.5927 I7.875 J-13.6399
G1 F100.0 Z-8.0
G3 F200.0 X142.125 Y2.3601 I12.4917 J-9.5927
G3 X165.75 Y16.0 I7.875 J13.6399
G3 X142.125 Y29.6399 I-15.75 J0.0
G3 X137.5083 Y25.5927 I7.875 J-13.6399
G1 F100.0 Z-9.0
G3 F200.0 X142.125 Y2.3601 I12.4917 J-9.5927
G3 X165.75 Y16.0 I7.875 J13.6399
G3 X142.125 Y29.6399 I-15.75 J0.0
G3 X137.5083 Y25.5927 I7.875 J-13.6399
G1 F100.0 Z-9.6
G3 F200.0 X142.125 Y2.3601 I12.4917 J-9.5927
G3 X165.75 Y16.0 I7.875 J13.6399
G3 X142.125 Y29.6399 I-15.75 J0.0
G3 X137.5083 Y25.5927 I7.875 J-13.6399
G0 Z3.0
G0 X136.4365 Y64.256
G0 Z1.0
G1 F100.0 Z-1.0
G3 F200.0 X151.75 Y80.0 I-0.4365 J15.744
G3 X128.125 Y93.6399 I-15.75 J0.0
G3 Y66.3601 I7.875 J-13.6399
G3 X136.4365 Y64.256 I7.875 J13.6399
G1 F100.0 Z-2.0
G3 F200.0 X151.75 Y80.0 I-0.4365 J15.744
G3 X128.125 Y93.6399 I-15.75 J0.0
G3 Y66.3601 I7.875 J-13.6399
G3 X136.4365 Y64.256 I7.875 J13.6399
G1 F100.0 Z-3.0
G3 F200.0 X151.75 Y80.0 I-0.4365 J15.744
G3 X128.125 Y93.6399 I-15.75 J0.0
G3 Y66.3601 I7.875 J-13.6399
G3 X136.4365 Y64.256 I7.875 J13.6399
G1 F100.0 Z-4.0
G3 F200.0 X151.75 Y80.0 I-0.4365 J15.744
G3 X128.125 Y93.6399 I-15.75 J0.0
G3 Y66.3601 I7.875 J-13.6399
G3 X136.4365 Y64.256 I7.875 J13.6399
G1 F100.0 Z-5.0
G3 F200.0 X151.75 Y80.0 I-0.4365 J15.744
G3 X128.125 Y93.6399 I-15.75 J0.0
G3 Y66.3601 I7.875 J-13.6399
G3 X136.4365 Y64.256 I7.875 J13.6399
G1 F100.0 Z-6.0
G3 F200.0 X151.75 Y80.0 I-0.4365 J15.744
G3 X128.125 Y93.6399 I-15.75 J0.0
G3 Y66.3601 I7.875 J-13.6399
G3 X136.4365 Y64.256 I7.875 J13.6399
G1 F100.0 Z-7.0
G3 F200.0 X151.75 Y80.0 I-0.4365 J15.744
G3 X128.125 Y93.6399 I-15.75 J0.0
G3 Y66.3601 I7.875 J-13.6399
G3 X136.4365 Y64.256 I7.875 J13.6399
G1 F100.0 Z-8.0
G3 F200.0 X151.75 Y80.0 I-0.4365 J15.744
G3 X128.125 Y93.6399 I-15.75 J0.0
G3 Y66.3601 I7.875 J-13.6399
G3 X136.4365 Y64.256 I7.875 J13.6399
G1 F100.0 Z-9.0
G3 F200.0 X151.75 Y80.0 I-0.4365 J15.744
G3 X128.125 Y93.6399 I-15.75 J0.0
G3 Y66.3601 I7.875 J-13.6399
G3 X136.4365 Y64.256 I7.875 J13.6399
G1 F100.0 Z-9.6
G3 F200.0 X151.75 Y80.0 I-0.4365 J15.744
G3 X128.125 Y93.6399 I-15.75 J0.0
G3 Y66.3601 I7.875 J-13.6399
G3 X136.4365 Y64.256 I7.875 J13.6399
G0 Z3.0
G0 X145.9019 Y95.7061
G0 Z1.0
G1 F100.0 Z-1.0
G3 F200.0 X159.75 Y106.0 I3.0981 J10.2939
G3 X143.625 Y115.3098 I-10.75 J0.0
G3 Y96.6902 I5.375 J-9.3098
G3 X145.9019 Y95.7061 I5.375 J9.3098
G1 F100.0 Z-2.0
G3 F200.0 X159.75 Y106.0 I3.0981 J10.2939
G3 X143.625 Y115.3098 I-10.75 J0.0
G3 Y96.6902 I5.375 J-9.3098
G3 X145.9019 Y95.7061 I5.375 J9.3098
G1 F100.0 Z-3.0
G3 F200.0 X159.75 Y106.0 I3.0981 J10.2939
G3 X143.625 Y115.3098 I-10.75 J0.0
G3 Y96.6902 I5.375 J-9.3098
G3 X145.9019 Y95.7061 I5.375 J9.3098
G1 F100.0 Z-4.0
G3 F200.0 X159.75 Y106.0 I3.0981 J10.2939
G3 X143.625 Y115.3098 I-10.75 J0.0
G3 Y96.6902 I5.375 J-9.3098
G3 X145.9019 Y95.7061 I5.375 J9.3098
G1 F100.0 Z-5.0
G3 F200.0 X159.75 Y106.0 I3.0981 J10.2939
G3 X143.625 Y115.3098 I-10.75 J0.0
G3 Y96.6902 I5.375 J-9.3098
G3 X145.9019 Y95.7061 I5.375 J9.3098
G1 F100.0 Z-6.0
G3 F200.0 X159.75 Y106.0 I3.0981 J10.2939
G3 X143.625 Y115.3098 I-10.75 J0.0
G3 Y96.6902 I5.375 J-9.3098
G3 X145.9019 Y95.7061 I5.375 J9.3098
G1 F100.0 Z-7.0
G3 F200.0 X159.75 Y106.0 I3.0981 J10.2939
G3 X143.625 Y115.3098 I-10.75 J0.0
G3 Y96.6902 I5.375 J-9.3098
G3 X145.9019 Y95.7061 I5.375 J9.3098
G1 F100.0 Z-8.0
G3 F200.0 X159.75 Y106.0 I3.0981 J10.2939
G3 X143.625 Y115.3098 I-10.75 J0.0
G3 Y96.6902 I5.375 J-9.3098
G3 X145.9019 Y95.7061 I5.375 J9.3098
G1 F100.0 Z-9.0
G3 F200.0 X159.75 Y106.0 I3.0981 J10.2939
G3 X143.625 Y115.3098 I-10.75 J0.0
G3 Y96.6902 I5.375 J-9.3098
G3 X145.9019 Y95.7061 I5.375 J9.3098
G1 F100.0 Z-9.6
G3 F200.0 X159.75 Y106.0 I3.0981 J10.2939
G3 X143.625 Y115.3098 I-10.75 J0.0
G3 Y96.6902 I5.375 J-9.3098
G3 X145.9019 Y95.7061 I5.375 J9.3098
G0 Z3.0
G0 X132.0752 Y121.5235
G0 Z1.0
G1 F100.0 Z-1.0
G3 F200.0 X137.75 Y131.0 I-5.0752 J9.4765
G3 X121.625 Y140.3098 I-10.75 J0.0
G3 Y121.6902 I5.375 J-9.3098
G3 X132.0752 Y121.5235 I5.375 J9.3098
G1 F100.0 Z-2.0
G3 F200.0 X137.75 Y131.0 I-5.0752 J9.4765
G3 X121.625 Y140.3098 I-10.75 J0.0
G3 Y121.6902 I5.375 J-9.3098
G3 X132.0752 Y121.5235 I5.375 J9.3098
G1 F100.0 Z-3.0
G3 F200.0 X137.75 Y131.0 I-5.0752 J9.4765
G3 X121.625 Y140.3098 I-10.75 J0.0
G3 Y121.6902 I5.375 J-9.3098
G3 X132.0752 Y121.5235 I5.375 J9.3098
G1 F100.0 Z-4.0
G3 F200.0 X137.75 Y131.0 I-5.0752 J9.4765
G3 X121.625 Y140.3098 I-10.75 J0.0
G3 Y121.6902 I5.375 J-9.3098
G3 X132.0752 Y121.5235 I5.375 J9.3098
G1 F100.0 Z-5.0
G3 F200.0 X137.75 Y131.0 I-5.0752 J9.4765
G3 X121.625 Y140.3098 I-10.75 J0.0
G3 Y121.6902 I5.375 J-9.3098
G3 X132.0752 Y121.5235 I5.375 J9.3098
G1 F100.0 Z-6.0
G3 F200.0 X137.75 Y131.0 I-5.0752 J9.4765
G3 X121.625 Y140.3098 I-10.75 J0.0
G3 Y121.6902 I5.375 J-9.3098
G3 X132.0752 Y121.5235 I5.375 J9.3098
G1 F100.0 Z-7.0
G3 F200.0 X137.75 Y131.0 I-5.0752 J9.4765
G3 X121.625 Y140.3098 I-10.75 J0.0
G3 Y121.6902 I5.375 J-9.3098
G3 X132.0752 Y121.5235 I5.375 J9.3098
G1 F100.0 Z-8.0
G3 F200.0 X137.75 Y131.0 I-5.0752 J9.4765
G3 X121.625 Y140.3098 I-10.75 J0.0
G3 Y121.6902 I5.375 J-9.3098
G3 X132.0752 Y121.5235 I5.375 J9.3098
G1 F100.0 Z-9.0
G3 F200.0 X137.75 Y131.0 I-5.0752 J9.4765
G3 X121.625 Y140.3098 I-10.75 J0.0
G3 Y121.6902 I5.375 J-9.3098
G3 X132.0752 Y121.5235 I5.375 J9.3098
G1 F100.0 Z-9.6
G3 F200.0 X137.75 Y131.0 I-5.0752 J9.4765
G3 X121.625 Y140.3098 I-10.75 J0.0
G3 Y121.6902 I5.375 J-9.3098
G3 X132.0752 Y121.5235 I5.375 J9.3098
G0 Z3.0
G0 X113.473 Y125.0591
G0 Z1.0
G1 F100.0 Z-1.0
G3 F200.0 X113.75 Y128.0 I-15.473 J2.9409
G3 X90.125 Y141.6399 I-15.75 J0.0
G3 Y114.3601 I7.875 J-13.6399
G3 X113.473 Y125.0591 I7.875 J13.6399
G1 F100.0 Z-2.0
G3 F200.0 X113.75 Y128.0 I-15.473 J2.9409
G3 X90.125 Y141.6399 I-15.75 J0.0
G3 Y114.3601 I7.875 J-13.6399
G3 X113.473 Y125.0591 I7.875 J13.6399
G1 F100.0 Z-3.0
G3 F200.0 X113.75 Y128.0 I-15.473 J2.9409
G3 X90.125 Y141.6399 I-15.75 J0.0
G3 Y114.3601 I7.875 J-13.6399
G3 X113.473 Y125.0591 I7.875 J13.6399
G1 F100.0 Z-4.0
G3 F200.0 X113.75 Y128.0 I-15.473 J2.9409
G3 X90.125 Y141.6399 I-15.75 J0.0
G3 Y114.3601 I7.875 J-13.6399
G3 X113.473 Y125.0591 I7.875 J13.6399
G1 F100.0 Z-5.0
G3 F200.0 X113.75 Y128.0 I-15.473 J2.9409
G3 X90.125 Y141.6399 I-15.75 J0.0
G3 Y114.3601 I7.875 J-13.6399
G3 X113.473 Y125.0591 I7.875 J13.6399
G1 F100.0 Z-6.0
G3 F200.0 X113.75 Y128.0 I-15.473 J2.9409
G3 X90.125 Y141.6399 I-15.75 J0.0
G3 Y114.3601 I7.875 J-13.6399
G3 X113.473 Y125.0591 I7.875 J13.6399
G1 F100.0 Z-7.0
G3 F200.0 X113.75 Y128.0 I-15.473 J2.9409
G3 X90.125 Y141.6399 I-15.75 J0.0
G3 Y114.3601 I7.875 J-13.6399
G3 X113.473 Y125.0591 I7.875 J13.6399
G1 F100.0 Z-8.0
G3 F200.0 X113.75 Y128.0 I-15.473 J2.9409
G3 X90.125 Y141.6399 I-15.75 J0.0
G3 Y114.3601 I7.875 J-13.6399
G3 X113.473 Y125.0591 I7.875 J13.6399
G1 F100.0 Z-9.0
G3 F200.0 X113.75 Y128.0 I-15.473 J2.9409
G3 X90.125 Y141.6399 I-15.75 J0.0
G3 Y114.3601 I7.875 J-13.6399
G3 X113.473 Y125.0591 I7.875 J13.6399
G1 F100.0 Z-9.6
G3 F200.0 X113.75 Y128.0 I-15.473 J2.9409
G3 X90.125 Y141.6399 I-15.75 J0.0
G3 Y114.3601 I7.875 J-13.6399
G3 X113.473 Y125.0591 I7.875 J13.6399
G0 Z3.0
G0 X67.1193 Y138.5874
G0 Z1.0
G1 F100.0 Z-1.0
G3 F200.0 X67.75 Y143.0 I-15.1193 J4.4126
G3 X44.125 Y156.6399 I-15.75 J0.0
G3 Y129.3601 I7.875 J-13.6399
G3 X67.1193 Y138.5874 I7.875 J13.6399
G1 F100.0 Z-2.0
G3 F200.0 X67.75 Y143.0 I-15.1193 J4.4126
G3 X44.125 Y156.6399 I-15.75 J0.0
G3 Y129.3601 I7.875 J-13.6399
G3 X67.1193 Y138.5874 I7.875 J13.6399
G1 F100.0 Z-3.0
G3 F200.0 X67.75 Y143.0 I-15.1193 J4.4126
G3 X44.125 Y156.6399 I-15.75 J0.0
G3 Y129.3601 I7.875 J-13.6399
G3 X67.1193 Y138.5874 I7.875 J13.6399
G1 F100.0 Z-4.0
G3 F200.0 X67.75 Y143.0 I-15.1193 J4.4126
G3 X44.125 Y156.6399 I-15.75 J0.0
G3 Y129.3601 I7.875 J-13.6399
G3 X67.1193 Y138.5874 I7.875 J13.6399
G1 F100.0 Z-5.0
G3 F200.0 X67.75 Y143.0 I-15.1193 J4.4126
G3 X44.125 Y156.6399 I-15.75 J0.0
G3 Y129.3601 I7.875 J-13.6399
G3 X67.1193 Y138.5874 I7.875 J13.6399
G1 F100.0 Z-6.0
G3 F200.0 X67.75 Y143.0 I-15.1193 J4.4126
G3 X44.125 Y156.6399 I-15.75 J0.0
G3 Y129.3601 I7.875 J-13.6399
G3 X67.1193 Y138.5874 I7.875 J13.6399
G1 F100.0 Z-7.0
G3 F200.0 X67.75 Y143.0 I-15.1193 J4.4126
G3 X44.125 Y156.6399 I-15.75 J0.0
G3 Y129.3601 I7.875 J-13.6399
G3 X67.1193 Y138.5874 I7.875 J13.6399
G1 F100.0 Z-8.0
G3 F200.0 X67.75 Y143.0 I-15.1193 J4.4126
G3 X44.125 Y156.6399 I-15.75 J0.0
G3 Y129.3601 I7.875 J-13.6399
G3 X67.1193 Y138.5874 I7.875 J13.6399
G1 F100.0 Z-9.0
G3 F200.0 X67.75 Y143.0 I-15.1193 J4.4126
G3 X44.125 Y156.6399 I-15.75 J0.0
G3 Y129.3601 I7.875 J-13.6399
G3 X67.1193 Y138.5874 I7.875 J13.6399
G1 F100.0 Z-9.6
G3 F200.0 X67.75 Y143.0 I-15.1193 J4.4126
G3 X44.125 Y156.6399 I-15.75 J0.0
G3 Y129.3601 I7.875 J-13.6399
G3 X67.1193 Y138.5874 I7.875 J13.6399
G0 Z3.0
G0 X58.0918 Y123.5124
G0 Z1.0
G1 F100.0 Z-1.0
G3 F200.0 X42.125 Y123.6399 I-8.0918 J-13.5124
G3 Y96.3601 I7.875 J-13.6399
G3 X65.75 Y110.0 I7.875 J13.6399
G3 X58.0918 Y123.5124 I-15.75 J0.0
G1 F100.0 Z-2.0
G3 F200.0 X42.125 Y123.6399 I-8.0918 J-13.5124
G3 Y96.3601 I7.875 J-13.6399
G3 X65.75 Y110.0 I7.875 J13.6399
G3 X58.0918 Y123.5124 I-15.75 J0.0
G1 F100.0 Z-3.0
G3 F200.0 X42.125 Y123.6399 I-8.0918 J-13.5124
G3 Y96.3601 I7.875 J-13.6399
G3 X65.75 Y110.0 I7.875 J13.6399
G3 X58.0918 Y123.5124 I-15.75 J0.0
G1 F100.0 Z-4.0
G3 F200.0 X42.125 Y123.6399 I-8.0918 J-13.5124
G3 Y96.3601 I7.875 J-13.6399
G3 X65.75 Y110.0 I7.875 J13.6399
G3 X58.0918 Y123.5124 I-15.75 J0.0
G1 F100.0 Z-5.0
G3 F200.0 X42.125 Y123.6399 I-8.0918 J-13.5124
G3 Y96.3601 I7.875 J-13.6399
G3 X65.75 Y110.0 I7.875 J13.6399
G3 X58.0918 Y123.5124 I-15.75 J0.0
G1 F100.0 Z-6.0
G3 F200.0 X42.125 Y123.6399 I-8.0918 J-13.5124
G3 Y96.3601 I7.875 J-13.6399
G3 X65.75 Y110.0 I7.875 J13.6399
G3 X58.0918 Y123.5124 I-15.75 J0.0
G1 F100.0 Z-7.0
G3 F200.0 X42.125 Y123.6399 I-8.0918 J-13.5124
G3 Y96.3601 I7.875 J-13.6399
G3 X65.75 Y110.0 I7.875 J13.6399
G3 X58.0918 Y123.5124 I-15.75 J0.0
G1 F100.0 Z-8.0
G3 F200.0 X42.125 Y123.6399 I-8.0918 J-13.5124
G3 Y96.3601 I7.875 J-13.6399
G3 X65.75 Y110.0 I7.875 J13.6399
G3 X58.0918 Y123.5124 I-15.75 J0.0
G1 F100.0 Z-9.0
G3 F200.0 X42.125 Y123.6399 I-8.0918 J-13.5124
G3 Y96.3601 I7.875 J-13.6399
G3 X65.75 Y110.0 I7.875 J13.6399
G3 X58.0918 Y123.5124 I-15.75 J0.0
G1 F100.0 Z-9.6
G3 F200.0 X42.125 Y123.6399 I-8.0918 J-13.5124
G3 Y96.3601 I7.875 J-13.6399
G3 X65.75 Y110.0 I7.875 J13.6399
G3 X58.0918 Y123.5124 I-15.75 J0.0
G0 Z3.0
G0 X60.2487 Y92.7237
G0 Z1.0
G1 F100.0 Z-1.0
G3 F200.0 X55.625 Y91.3098 I0.7513 J-10.7237
G3 Y72.6902 I5.375 J-9.3098
G3 X71.75 Y82.0 I5.375 J9.3098
G3 X60.2487 Y92.7237 I-10.75 J0.0
G1 F100.0 Z-2.0
G3 F200.0 X55.625 Y91.3098 I0.7513 J-10.7237
G3 Y72.6902 I5.375 J-9.3098
G3 X71.75 Y82.0 I5.375 J9.3098
G3 X60.2487 Y92.7237 I-10.75 J0.0
G1 F100.0 Z-3.0
G3 F200.0 X55.625 Y91.3098 I0.7513 J-10.7237
G3 Y72.6902 I5.375 J-9.3098
G3 X71.75 Y82.0 I5.375 J9.3098
G3 X60.2487 Y92.7237 I-10.75 J0.0
G1 F100.0 Z-4.0
G3 F200.0 X55.625 Y91.3098 I0.7513 J-10.7237
G3 Y72.6902 I5.375 J-9.3098
G3 X71.75 Y82.0 I5.375 J9.3098
G3 X60.2487 Y92.7237 I-10.75 J0.0
G1 F100.0 Z-5.0
G3 F200.0 X55.625 Y91.3098 I0.7513 J-10.7237
G3 Y72.6902 I5.375 J-9.3098
G3 X71.75 Y82.0 I5.375 J9.3098
G3 X60.2487 Y92.7237 I-10.75 J0.0
G1 F100.0 Z-6.0
G3 F200.0 X55.625 Y91.3098 I0.7513 J-10.7237
G3 Y72.6902 I5.375 J-9.3098
G3 X71.75 Y82.0 I5.375 J9.3098
G3 X60.2487 Y92.7237 I-10.75 J0.0
G1 F100.0 Z-7.0
G3 F200.0 X55.625 Y91.3098 I0.7513 J-10.7237
G3 Y72.6902 I5.375 J-9.3098
G3 X71.75 Y82.0 I5.375 J9.3098
G3 X60.2487 Y92.7237 I-10.75 J0.0
G1 F100.0 Z-8.0
G3 F200.0 X55.625 Y91.3098 I0.7513 J-10.7237
G3 Y72.6902 I5.375 J-9.3098
G3 X71.75 Y82.0 I5.375 J9.3098
G3 X60.2487 Y92.7237 I-10.75 J0.0
G1 F100.0 Z-9.0
G3 F200.0 X55.625 Y91.3098 I0.7513 J-10.7237
G3 Y72.6902 I5.375 J-9.3098
G3 X71.75 Y82.0 I5.375 J9.3098
G3 X60.2487 Y92.7237 I-10.75 J0.0
G1 F100.0 Z-9.6
G3 F200.0 X55.625 Y91.3098 I0.7513 J-10.7237
G3 Y72.6902 I5.375 J-9.3098
G3 X71.75 Y82.0 I5.375 J9.3098
G3 X60.2487 Y92.7237 I-10.75 J0.0
G0 Z3.0
G0 X45.9046 Y83.0224
G0 Z1.0
G1 F100.0 Z-1.0
G3 F200.0 X31.625 Y86.3098 I-8.9046 J-6.0224
G3 Y67.6902 I5.375 J-9.3098
G3 X47.75 Y77.0 I5.375 J9.3098
G3 X45.9046 Y83.0224 I-10.75 J0.0
G1 F100.0 Z-2.0
G3 F200.0 X31.625 Y86.3098 I-8.9046 J-6.0224
G3 Y67.6902 I5.375 J-9.3098
G3 X47.75 Y77.0 I5.375 J9.3098
G3 X45.9046 Y83.0224 I-10.75 J0.0
G1 F100.0 Z-3.0
G3 F200.0 X31.625 Y86.3098 I-8.9046 J-6.0224
G3 Y67.6902 I5.375 J-9.3098
G3 X47.75 Y77.0 I5.375 J9.3098
G3 X45.9046 Y83.0224 I-10.75 J0.0
G1 F100.0 Z-4.0
G3 F200.0 X31.625 Y86.3098 I-8.9046 J-6.0224
G3 Y67.6902 I5.375 J-9.3098
G3 X47.75 Y77.0 I5.375 J9.3098
G3 X45.9046 Y83.0224 I-10.75 J0.0
G1 F100.0 Z-5.0
G3 F200.0 X31.625 Y86.3098 I-8.9046 J-6.0224
G3 Y67.6902 I5.375 J-9.3098
G3 X47.75 Y77.0 I5.375 J9.3098
G3 X45.9046 Y83.0224 I-10.75 J0.0
G1 F100.0 Z-6.0
G3 F200.0 X31.625 Y86.3098 I-8.9046 J-6.0224
G3 Y67.6902 I5.375 J-9.3098
G3 X47.75 Y77.0 I5.375 J9.3098
G3 X45.9046 Y83.0224 I-10.75 J0.0
G1 F100.0 Z-7.0
G3 F200.0 X31.625 Y86.3098 I-8.9046 J-6.0224
G3 Y67.6902 I5.375 J-9.3098
G3 X47.75 Y77.0 I5.375 J9.3098
G3 X45.9046 Y83.0224 I-10.75 J0.0
G1 F100.0 Z-8.0
G3 F200.0 X31.625 Y86.3098 I-8.9046 J-6.0224
G3 Y67.6902 I5.375 J-9.3098
G3 X47.75 Y77.0 I5.375 J9.3098
G3 X45.9046 Y83.0224 I-10.75 J0.0
G1 F100.0 Z-9.0
G3 F200.0 X31.625 Y86.3098 I-8.9046 J-6.0224
G3 Y67.6902 I5.375 J-9.3098
G3 X47.75 Y77.0 I5.375 J9.3098
G3 X45.9046 Y83.0224 I-10.75 J0.0
G1 F100.0 Z-9.6
G3 F200.0 X31.625 Y86.3098 I-8.9046 J-6.0224
G3 Y67.6902 I5.375 J-9.3098
G3 X47.75 Y77.0 I5.375 J9.3098
G3 X45.9046 Y83.0224 I-10.75 J0.0
G0 Z3.0
G0 X30.0825 Y90.9469
G0 Z1.0
G1 F100.0 Z-1.0
G3 F200.0 X31.75 Y98.0 I-14.0825 J7.0531
G3 X8.125 Y111.6399 I-15.75 J0.0
G3 Y84.3601 I7.875 J-13.6399
G3 X30.0825 Y90.9469 I7.875 J13.6399
G1 F100.0 Z-2.0
G3 F200.0 X31.75 Y98.0 I-14.0825 J7.0531
G3 X8.125 Y111.6399 I-15.75 J0.0
G3 Y84.3601 I7.875 J-13.6399
G3 X30.0825 Y90.9469 I7.875 J13.6399
G1 F100.0 Z-3.0
G3 F200.0 X31.75 Y98.0 I-14.0825 J7.0531
G3 X8.125 Y111.6399 I-15.75 J0.0
G3 Y84.3601 I7.875 J-13.6399
G3 X30.0825 Y90.9469 I7.875 J13.6399
G1 F100.0 Z-4.0
G3 F200.0 X31.75 Y98.0 I-14.0825 J7.0531
G3 X8.125 Y111.6399 I-15.75 J0.0
G3 Y84.3601 I7.875 J-13.6399
G3 X30.0825 Y90.9469 I7.875 J13.6399
G1 F100.0 Z-5.0
G3 F200.0 X31.75 Y98.0 I-14.0825 J7.0531
G3 X8.125 Y111.6399 I-15.75 J0.0
G3 Y84.3601 I7.875 J-13.6399
G3 X30.0825 Y90.9469 I7.875 J13.6399
G1 F100.0 Z-6.0
G3 F200.0 X31.75 Y98.0 I-14.0825 J7.0531
G3 X8.125 Y111.6399 I-15.75 J0.0
G3 Y84.3601 I7.875 J-13.6399
G3 X30.0825 Y90.9469 I7.875 J13.6399
G1 F100.0 Z-7.0
G3 F200.0 X31.75 Y98.0 I-14.0825 J7.0531
G3 X8.125 Y111.6399 I-15.75 J0.0
G3 Y84.3601 I7.875 J-13.6399
G3 X30.0825 Y90.9469 I7.875 J13.6399
G1 F100.0 Z-8.0
G3 F200.0 X31.75 Y98.0 I-14.0825 J7.0531
G3 X8.125 Y111.6399 I-15.75 J0.0
G3 Y84.3601 I7.875 J-13.6399
G3 X30.0825 Y90.9469 I7.875 J13.6399
G1 F100.0 Z-9.0
G3 F200.0 X31.75 Y98.0 I-14.0825 J7.0531
G3 X8.125 Y111.6399 I-15.75 J0.0
G3 Y84.3601 I7.875 J-13.6399
G3 X30.0825 Y90.9469 I7.875 J13.6399
G1 F100.0 Z-9.6
G3 F200.0 X31.75 Y98.0 I-14.0825 J7.0531
G3 X8.125 Y111.6399 I-15.75 J0.0
G3 Y84.3601 I7.875 J-13.6399
G3 X30.0825 Y90.9469 I7.875 J13.6399
( Pocket1 )
S1000
G0 Z3.0
G0 X49.45 Y16.0
G0 Z1.0
G1 F100.0 Z-1.0
G2 F300.0 X48.775 Y15.6103 I-0.45 J0.0
G2 Y16.3897 I0.225 J0.3897
G2 X49.45 Y16.0 I0.225 J-0.3897
G1 F100.0 X50.65
G2 F300.0 X48.175 Y14.5711 I-1.65 J0.0
G2 Y17.4289 I0.825 J1.4289
G2 X50.65 Y16.0 I0.825 J-1.4289
G1 F100.0 X51.85
G2 F300.0 X47.575 Y13.5318 I-2.85 J0.0
G2 Y18.4682 I1.425 J2.4682
G2 X51.85 Y16.0 I1.425 J-2.4682
G1 F100.0 X53.05
G2 F300.0 X46.975 Y12.4926 I-4.05 J0.0
G2 Y19.5074 I2.025 J3.5074
G2 X53.05 Y16.0 I2.025 J-3.5074
G1 F100.0 X54.25
G2 F300.0 X46.375 Y11.4534 I-5.25 J0.0
G2 Y20.5466 I2.625 J4.5466
G2 X54.25 Y16.0 I2.625 J-4.5466
G0 Z3.0
G0 X49.45
G0 Z0.0
G1 F100.0 Z-2.0
G2 F300.0 X48.775 Y15.6103 I-0.45 J0.0
G2 Y16.3897 I0.225 J0.3897
G2 X49.45 Y16.0 I0.225 J-0.3897
G1 F100.0 X50.65
G2 F300.0 X48.175 Y14.5711 I-1.65 J0.0
G2 Y17.4289 I0.825 J1.4289
G2 X50.65 Y16.0 I0.825 J-1.4289
G1 F100.0 X51.85
G2 F300.0 X47.575 Y13.5318 I-2.85 J0.0
G2 Y18.4682 I1.425 J2.4682
G2 X51.85 Y16.0 I1.425 J-2.4682
G1 F100.0 X53.05
G2 F300.0 X46.975 Y12.4926 I-4.05 J0.0
G2 Y19.5074 I2.025 J3.5074
G2 X53.05 Y16.0 I2.025 J-3.5074
G1 F100.0 X54.25
G2 F300.0 X46.375 Y11.4534 I-5.25 J0.0
G2 Y20.5466 I2.625 J4.5466
G2 X54.25 Y16.0 I2.625 J-4.5466
G0 Z3.0
G0 X49.45
G0 Z-1.0
G1 F100.0 Z-3.0
G2 F300.0 X48.775 Y15.6103 I-0.45 J0.0
G2 Y16.3897 I0.225 J0.3897
G2 X49.45 Y16.0 I0.225 J-0.3897
G1 F100.0 X50.65
G2 F300.0 X48.175 Y14.5711 I-1.65 J0.0
G2 Y17.4289 I0.825 J1.4289
G2 X50.65 Y16.0 I0.825 J-1.4289
G1 F100.0 X51.85
G2 F300.0 X47.575 Y13.5318 I-2.85 J0.0
G2 Y18.4682 I1.425 J2.4682
G2 X51.85 Y16.0 I1.425 J-2.4682
G1 F100.0 X53.05
G2 F300.0 X46.975 Y12.4926 I-4.05 J0.0
G2 Y19.5074 I2.025 J3.5074
G2 X53.05 Y16.0 I2.025 J-3.5074
G1 F100.0 X54.25
G2 F300.0 X46.375 Y11.4534 I-5.25 J0.0
G2 Y20.5466 I2.625 J4.5466
G2 X54.25 Y16.0 I2.625 J-4.5466
G0 Z3.0
G0 X49.45
G0 Z-2.0
G1 F100.0 Z-4.0
G2 F300.0 X48.775 Y15.6103 I-0.45 J0.0
G2 Y16.3897 I0.225 J0.3897
G2 X49.45 Y16.0 I0.225 J-0.3897
G1 F100.0 X50.65
G2 F300.0 X48.175 Y14.5711 I-1.65 J0.0
G2 Y17.4289 I0.825 J1.4289
G2 X50.65 Y16.0 I0.825 J-1.4289
G1 F100.0 X51.85
G2 F300.0 X47.575 Y13.5318 I-2.85 J0.0
G2 Y18.4682 I1.425 J2.4682
G2 X51.85 Y16.0 I1.425 J-2.4682
G1 F100.0 X53.05
G2 F300.0 X46.975 Y12.4926 I-4.05 J0.0
G2 Y19.5074 I2.025 J3.5074
G2 X53.05 Y16.0 I2.025 J-3.5074
G1 F100.0 X54.25
G2 F300.0 X46.375 Y11.4534 I-5.25 J0.0
G2 Y20.5466 I2.625 J4.5466
G2 X54.25 Y16.0 I2.625 J-4.5466
G0 Z3.0
G0 X45.1215 Y48.5667
G0 Z1.0
G1 F100.0 Z-1.0
G2 F300.0 X44.775 Y48.6103 I-0.1215 J0.4333
G2 Y49.3897 I0.225 J0.3897
G2 X45.45 Y49.0 I0.225 J-0.3897
G2 X45.1215 Y48.5667 I-0.45 J0.0
G1 F100.0 X45.4453 Y47.4112
G2 F300.0 X44.175 Y47.5711 I-0.4453 J1.5888
G2 Y50.4289 I0.825 J1.4289
G2 X46.65 Y49.0 I0.825 J-1.4289
G2 X45.4453 Y47.4112 I-1.65 J0.0
G1 F100.0 X45.7692 Y46.2558
G2 F300.0 X43.575 Y46.5318 I-0.7692 J2.7442
G2 Y51.4682 I1.425 J2.4682
G2 X47.85 Y49.0 I1.425 J-2.4682
G2 X45.7692 Y46.2558 I-2.85 J0.0
G0 Z3.0
G0 X46.0931 Y45.1003
G0 Z1.0
G1 F100.0 Z-1.0
G2 F300.0 X42.975 Y45.4926 I-1.0931 J3.8997
G2 Y52.5074 I2.025 J3.5074
G2 X49.05 Y49.0 I2.025 J-3.5074
G2 X46.0931 Y45.1003 I-4.05 J0.0
G1 F100.0 X46.417 Y43.9448
G2 F300.0 X42.375 Y44.4534 I-1.417 J5.0552
G2 Y53.5466 I2.625 J4.5466
G2 X50.25 Y49.0 I2.625 J-4.5466
G2 X46.417 Y43.9448 I-5.25 J0.0
G0 Z3.0
G0 X45.1215 Y48.5667
G0 Z0.0
G1 F100.0 Z-2.0
G2 F300.0 X44.775 Y48.6103 I-0.1215 J0.4333
G2 Y49.3897 I0.225 J0.3897
G2 X45.45 Y49.0 I0.225 J-0.3897
G2 X45.1215 Y48.5667 I-0.45 J0.0
G1 F100.0 X45.4453 Y47.4112
G2 F300.0 X44.175 Y47.5711 I-0.4453 J1.5888
G2 Y50.4289 I0.825 J1.4289
G2 X46.65 Y49.0 I0.825 J-1.4289
G2 X45.4453 Y47.4112 I-1.65 J0.0
G1 F100.0 X45.7692 Y46.2558
G2 F300.0 X43.575 Y46.5318 I-0.7692 J2.7442
G2 Y51.4682 I1.425 J2.4682
G2 X47.85 Y49.0 I1.425 J-2.4682
G2 X45.7692 Y46.2558 I-2.85 J0.0
G0 Z3.0
G0 X46.0931 Y45.1003
G0 Z0.0
G1 F100.0 Z-2.0
G2 F300.0 X42.975 Y45.4926 I-1.0931 J3.8997
G2 Y52.5074 I2.025 J3.5074
G2 X49.05 Y49.0 I2.025 J-3.5074
G2 X46.0931 Y45.1003 I-4.05 J0.0
G1 F100.0 X46.417 Y43.9448
G2 F300.0 X42.375 Y44.4534 I-1.417 J5.0552
G2 Y53.5466 I2.625 J4.5466
G2 X50.25 Y49.0 I2.625 J-4.5466
G2 X46.417 Y43.9448 I-5.25 J0.0
G0 Z3.0
G0 X45.1215 Y48.5667
G0 Z-1.0
G1 F100.0 Z-3.0
G2 F300.0 X44.775 Y48.6103 I-0.1215 J0.4333
G2 Y49.3897 I0.225 J0.3897
G2 X45.45 Y49.0 I0.225 J-0.3897
G2 X45.1215 Y48.5667 I-0.45 J0.0
G1 F100.0 X45.4453 Y47.4112
G2 F300.0 X44.175 Y47.5711 I-0.4453 J1.5888
G2 Y50.4289 I0.825 J1.4289
G2 X46.65 Y49.0 I0.825 J-1.4289
G2 X45.4453 Y47.4112 I-1.65 J0.0
G1 F100.0 X45.7692 Y46.2558
G2 F300.0 X43.575 Y46.5318 I-0.7692 J2.7442
G2 Y51.4682 I1.425 J2.4682
G2 X47.85 Y49.0 I1.425 J-2.4682
G2 X45.7692 Y46.2558 I-2.85 J0.0
G0 Z3.0
G0 X46.0931 Y45.1003
G0 Z-1.0
G1 F100.0 Z-3.0
G2 F300.0 X42.975 Y45.4926 I-1.0931 J3.8997
G2 Y52.5074 I2.025 J3.5074
G2 X49.05 Y49.0 I2.025 J-3.5074
G2 X46.0931 Y45.1003 I-4.05 J0.0
G1 F100.0 X46.417 Y43.9448
G2 F300.0 X42.375 Y44.4534 I-1.417 J5.0552
G2 Y53.5466 I2.625 J4.5466
G2 X50.25 Y49.0 I2.625 J-4.5466
G2 X46.417 Y43.9448 I-5.25 J0.0
G0 Z3.0
G0 X45.1215 Y48.5667
G0 Z-2.0
G1 F100.0 Z-4.0
G2 F300.0 X44.775 Y48.6103 I-0.1215 J0.4333
G2 Y49.3897 I0.225 J0.3897
G2 X45.45 Y49.0 I0.225 J-0.3897
G2 X45.1215 Y48.5667 I-0.45 J0.0
G1 F100.0 X45.4453 Y47.4112
G2 F300.0 X44.175 Y47.5711 I-0.4453 J1.5888
G2 Y50.4289 I0.825 J1.4289
G2 X46.65 Y49.0 I0.825 J-1.4289
G2 X45.4453 Y47.4112 I-1.65 J0.0
G1 F100.0 X45.7692 Y46.2558
G2 F300.0 X43.575 Y46.5318 I-0.7692 J2.7442
G2 Y51.4682 I1.425 J2.4682
G2 X47.85 Y49.0 I1.425 J-2.4682
G2 X45.7692 Y46.2558 I-2.85 J0.0
G0 Z3.0
G0 X46.0931 Y45.1003
G0 Z-2.0
G1 F100.0 Z-4.0
G2 F300.0 X42.975 Y45.4926 I-1.0931 J3.8997
G2 Y52.5074 I2.025 J3.5074
G2 X49.05 Y49.0 I2.025 J-3.5074
G2 X46.0931 Y45.1003 I-4.05 J0.0
G1 F100.0 X46.417 Y43.9448
G2 F300.0 X42.375 Y44.4534 I-1.417 J5.0552
G2 Y53.5466 I2.625 J4.5466
G2 X50.25 Y49.0 I2.625 J-4.5466
G2 X46.417 Y43.9448 I-5.25 J0.0
( Profile2 )
S1000
G0 Z3.0
G0 X64.75 Y16.0
G0 Z1.0
G1 F100.0 Z-1.0
G3 F200.0 X41.125 Y29.6399 I-15.75 J0.0
G3 Y2.3601 I7.875 J-13.6399
G3 X64.75 Y16.0 I7.875 J13.6399
G1 F100.0 Z-2.0
G3 F200.0 X41.125 Y29.6399 I-15.75 J0.0
G3 Y2.3601 I7.875 J-13.6399
G3 X64.75 Y16.0 I7.875 J13.6399
G1 F100.0 Z-3.0
G3 F200.0 X41.125 Y29.6399 I-15.75 J0.0
G3 Y2.3601 I7.875 J-13.6399
G3 X64.75 Y16.0 I7.875 J13.6399
G1 F100.0 Z-4.0
G3 F200.0 X41.125 Y29.6399 I-15.75 J0.0
G3 Y2.3601 I7.875 J-13.6399
G3 X64.75 Y16.0 I7.875 J13.6399
G1 F100.0 Z-5.0
G3 F200.0 X41.125 Y29.6399 I-15.75 J0.0
G3 Y2.3601 I7.875 J-13.6399
G3 X64.75 Y16.0 I7.875 J13.6399
G1 F100.0 Z-6.0
G3 F200.0 X41.125 Y29.6399 I-15.75 J0.0
G3 Y2.3601 I7.875 J-13.6399
G3 X64.75 Y16.0 I7.875 J13.6399
G1 F100.0 Z-7.0
G3 F200.0 X41.125 Y29.6399 I-15.75 J0.0
G3 Y2.3601 I7.875 J-13.6399
G3 X64.75 Y16.0 I7.875 J13.6399
G1 F100.0 Z-8.0
G3 F200.0 X41.125 Y29.6399 I-15.75 J0.0
G3 Y2.3601 I7.875 J-13.6399
G3 X64.75 Y16.0 I7.875 J13.6399
G1 F100.0 Z-9.0
G3 F200.0 X41.125 Y29.6399 I-15.75 J0.0
G3 Y2.3601 I7.875 J-13.6399
G3 X64.75 Y16.0 I7.875 J13.6399
G1 F100.0 Z-9.6
G3 F200.0 X41.125 Y29.6399 I-15.75 J0.0
G3 Y2.3601 I7.875 J-13.6399
G3 X64.75 Y16.0 I7.875 J13.6399
G0 Z3.0
G0 X66.06 Y25.3158
G0 Z1.0
G1 F100.0 Z-1.0
G3 F200.0 X73.75 Y32.0 I0.94 J6.6842
G3 X63.625 Y37.8457 I-6.75 J0.0
G3 Y26.1543 I3.375 J-5.8457
G3 X66.06 Y25.3158 I3.375 J5.8457
G1 F100.0 Z-2.0
G3 F200.0 X73.75 Y32.0 I0.94 J6.6842
G3 X63.625 Y37.8457 I-6.75 J0.0
G3 Y26.1543 I3.375 J-5.8457
G3 X66.06 Y25.3158 I3.375 J5.8457
G1 F100.0 Z-3.0
G3 F200.0 X73.75 Y32.0 I0.94 J6.6842
G3 X63.625 Y37.8457 I-6.75 J0.0
G3 Y26.1543 I3.375 J-5.8457
G3 X66.06 Y25.3158 I3.375 J5.8457
G1 F100.0 Z-4.0
G3 F200.0 X73.75 Y32.0 I0.94 J6.6842
G3 X63.625 Y37.8457 I-6.75 J0.0
G3 Y26.1543 I3.375 J-5.8457
G3 X66.06 Y25.3158 I3.375 J5.8457
G1 F100.0 Z-5.0
G3 F200.0 X73.75 Y32.0 I0.94 J6.6842
G3 X63.625 Y37.8457 I-6.75 J0.0
G3 Y26.1543 I3.375 J-5.8457
G3 X66.06 Y25.3158 I3.375 J5.8457
G1 F100.0 Z-6.0
G3 F200.0 X73.75 Y32.0 I0.94 J6.6842
G3 X63.625 Y37.8457 I-6.75 J0.0
G3 Y26.1543 I3.375 J-5.8457
G3 X66.06 Y25.3158 I3.375 J5.8457
G1 F100.0 Z-7.0
G3 F200.0 X73.75 Y32.0 I0.94 J6.6842
G3 X63.625 Y37.8457 I-6.75 J0.0
G3 Y26.1543 I3.375 J-5.8457
G3 X66.06 Y25.3158 I3.375 J5.8457
G1 F100.0 Z-8.0
G3 F200.0 X73.75 Y32.0 I0.94 J6.6842
G3 X63.625 Y37.8457 I-6.75 J0.0
G3 Y26.1543 I3.375 J-5.8457
G3 X66.06 Y25.3158 I3.375 J5.8457
G1 F100.0 Z-9.0
G3 F200.0 X73.75 Y32.0 I0.94 J6.6842
G3 X63.625 Y37.8457 I-6.75 J0.0
G3 Y26.1543 I3.375 J-5.8457
G3 X66.06 Y25.3158 I3.375 J5.8457
G1 F100.0 Z-9.6
G3 F200.0 X73.75 Y32.0 I0.94 J6.6842
G3 X63.625 Y37.8457 I-6.75 J0.0
G3 Y26.1543 I3.375 J-5.8457
G3 X66.06 Y25.3158 I3.375 J5.8457
G0 Z3.0
G0 X72.9574 Y38.9746
G0 Z1.0
G1 F100.0 Z-1.0
G3 F200.0 X82.75 Y45.0 I3.0426 J6.0254
G3 X72.625 Y50.8457 I-6.75 J0.0
G3 Y39.1543 I3.375 J-5.8457
G3 X72.9574 Y38.9746 I3.375 J5.8457
G1 F100.0 Z-2.0
G3 F200.0 X82.75 Y45.0 I3.0426 J6.0254
G3 X72.625 Y50.8457 I-6.75 J0.0
G3 Y39.1543 I3.375 J-5.8457
G3 X72.9574 Y38.9746 I3.375 J5.8457
G1 F100.0 Z-3.0
G3 F200.0 X82.75 Y45.0 I3.0426 J6.0254
G3 X72.625 Y50.8457 I-6.75 J0.0
G3 Y39.1543 I3.375 J-5.8457
G3 X72.9574 Y38.9746 I3.375 J5.8457
G1 F100.0 Z-4.0
G3 F200.0 X82.75 Y45.0 I3.0426 J6.0254
G3 X72.625 Y50.8457 I-6.75 J0.0
G3 Y39.1543 I3.375 J-5.8457
G3 X72.9574 Y38.9746 I3.375 J5.8457
G1 F100.0 Z-5.0
G3 F200.0 X82.75 Y45.0 I3.0426 J6.0254
G3 X72.625 Y50.8457 I-6.75 J0.0
G3 Y39.1543 I3.375 J-5.8457
G3 X72.9574 Y38.9746 I3.375 J5.8457
G1 F100.0 Z-6.0
G3 F200.0 X82.75 Y45.0 I3.0426 J6.0254
G3 X72.625 Y50.8457 I-6.75 J0.0
G3 Y39.1543 I3.375 J-5.8457
G3 X72.9574 Y38.9746 I3.375 J5.8457
G1 F100.0 Z-7.0
G3 F200.0 X82.75 Y45.0 I3.0426 J6.0254
G3 X72.625 Y50.8457 I-6.75 J0.0
G3 Y39.1543 I3.375 J-5.8457
G3 X72.9574 Y38.9746 I3.375 J5.8457
G1 F100.0 Z-8.0
G3 F200.0 X82.75 Y45.0 I3.0426 J6.0254
G3 X72.625 Y50.8457 I-6.75 J0.0
G3 Y39.1543 I3.375 J-5.8457
G3 X72.9574 Y38.9746 I3.375 J5.8457
G1 F100.0 Z-9.0
G3 F200.0 X82.75 Y45.0 I3.0426 J6.0254
G3 X72.625 Y50.8457 I-6.75 J0.0
G3 Y39.1543 I3.375 J-5.8457
G3 X72.9574 Y38.9746 I3.375 J5.8457
G1 F100.0 Z-9.6
G3 F200.0 X82.75 Y45.0 I3.0426 J6.0254
G3 X72.625 Y50.8457 I-6.75 J0.0
G3 Y39.1543 I3.375 J-5.8457
G3 X72.9574 Y38.9746 I3.375 J5.8457
G0 Z3.0
G0 X59.8256 Y43.6836
G0 Z1.0
G1 F100.0 Z-1.0
G3 F200.0 X60.75 Y49.0 I-14.8256 J5.3164
G3 X37.125 Y62.6399 I-15.75 J0.0
G3 Y35.3601 I7.875 J-13.6399
G3 X59.8256 Y43.6836 I7.875 J13.6399
G1 F100.0 Z-2.0
G3 F200.0 X60.75 Y49.0 I-14.8256 J5.3164
G3 X37.125 Y62.6399 I-15.75 J0.0
G3 Y35.3601 I7.875 J-13.6399
G3 X59.8256 Y43.6836 I7.875 J13.6399
G1 F100.0 Z-3.0
G3 F200.0 X60.75 Y49.0 I-14.8256 J5.3164
G3 X37.125 Y62.6399 I-15.75 J0.0
G3 Y35.3601 I7.875 J-13.6399
G3 X59.8256 Y43.6836 I7.875 J13.6399
G1 F100.0 Z-4.0
G3 F200.0 X60.75 Y49.0 I-14.8256 J5.3164
G3 X37.125 Y62.6399 I-15.75 J0.0
G3 Y35.3601 I7.875 J-13.6399
G3 X59.8256 Y43.6836 I7.875 J13.6399
G1 F100.0 Z-5.0
G3 F200.0 X60.75 Y49.0 I-14.8256 J5.3164
G3 X37.125 Y62.6399 I-15.75 J0.0
G3 Y35.3601 I7.875 J-13.6399
G3 X59.8256 Y43.6836 I7.875 J13.6399
G1 F100.0 Z-6.0
G3 F200.0 X60.75 Y49.0 I-14.8256 J5.3164
G3 X37.125 Y62.6399 I-15.75 J0.0
G3 Y35.3601 I7.875 J-13.6399
G3 X59.8256 Y43.6836 I7.875 J13.6399
G1 F100.0 Z-7.0
G3 F200.0 X60.75 Y49.0 I-14.8256 J5.3164
G3 X37.125 Y62.6399 I-15.75 J0.0
G3 Y35.3601 I7.875 J-13.6399
G3 X59.8256 Y43.6836 I7.875 J13.6399
G1 F100.0 Z-8.0
G3 F200.0 X60.75 Y49.0 I-14.8256 J5.3164
G3 X37.125 Y62.6399 I-15.75 J0.0
G3 Y35.3601 I7.875 J-13.6399
G3 X59.8256 Y43.6836 I7.875 J13.6399
G1 F100.0 Z-9.0
G3 F200.0 X60.75 Y49.0 I-14.8256 J5.3164
G3 X37.125 Y62.6399 I-15.75 J0.0
G3 Y35.3601 I7.875 J-13.6399
G3 X59.8256 Y43.6836 I7.875 J13.6399
G1 F100.0 Z-9.6
G3 F200.0 X60.75 Y49.0 I-14.8256 J5.3164
G3 X37.125 Y62.6399 I-15.75 J0.0
G3 Y35.3601 I7.875 J-13.6399
G3 X59.8256 Y43.6836 I7.875 J13.6399
G0 Z3.0
G0 X63.8438 Y55.6036
G0 Z1.0
G1 F100.0 Z-1.0
G3 F200.0 X72.75 Y62.0 I2.1562 J6.3964
G3 X62.625 Y67.8457 I-6.75 J0.0
G3 Y56.1543 I3.375 J-5.8457
G3 X63.8438 Y55.6036 I3.375 J5.8457
G1 F100.0 Z-2.0
G3 F200.0 X72.75 Y62.0 I2.1562 J6.3964
G3 X62.625 Y67.8457 I-6.75 J0.0
G3 Y56.1543 I3.375 J-5.8457
G3 X63.8438 Y55.6036 I3.375 J5.8457
G1 F100.0 Z-3.0
G3 F200.0 X72.75 Y62.0 I2.1562 J6.3964
G3 X62.625 Y67.8457 I-6.75 J0.0
G3 Y56.1543 I3.375 J-5.8457
G3 X63.8438 Y55.6036 I3.375 J5.8457
G1 F100.0 Z-4.0
G3 F200.0 X72.75 Y62.0 I2.1562 J6.3964
G3 X62.625 Y67.8457 I-6.75 J0.0
G3 Y56.1543 I3.375 J-5.8457
G3 X63.8438 Y55.6036 I3.375 J5.8457
G1 F100.0 Z-5.0
G3 F200.0 X72.75 Y62.0 I2.1562 J6.3964
G3 X62.625 Y67.8457 I-6.75 J0.0
G3 Y56.1543 I3.375 J-5.8457
G3 X63.8438 Y55.6036 I3.375 J5.8457
G1 F100.0 Z-6.0
G3 F200.0 X72.75 Y62.0 I2.1562 J6.3964
G3 X62.625 Y67.8457 I-6.75 J0.0
G3 Y56.1543 I3.375 J-5.8457
G3 X63.8438 Y55.6036 I3.375 J5.8457
G1 F100.0 Z-7.0
G3 F200.0 X72.75 Y62.0 I2.1562 J6.3964
G3 X62.625 Y67.8457 I-6.75 J0.0
G3 Y56.1543 I3.375 J-5.8457
G3 X63.8438 Y55.6036 I3.375 J5.8457
G1 F100.0 Z-8.0
G3 F200.0 X72.75 Y62.0 I2.1562 J6.3964
G3 X62.625 Y67.8457 I-6.75 J0.0
G3 Y56.1543 I3.375 J-5.8457
G3 X63.8438 Y55.6036 I3.375 J5.8457
G1 F100.0 Z-9.0
G3 F200.0 X72.75 Y62.0 I2.1562 J6.3964
G3 X62.625 Y67.8457 I-6.75 J0.0
G3 Y56.1543 I3.375 J-5.8457
G3 X63.8438 Y55.6036 I3.375 J5.8457
G1 F100.0 Z-9.6
G3 F200.0 X72.75 Y62.0 I2.1562 J6.3964
G3 X62.625 Y67.8457 I-6.75 J0.0
G3 Y56.1543 I3.375 J-5.8457
G3 X63.8438 Y55.6036 I3.375 J5.8457
G0 Z3.0
G0 X75.4396 Y58.4115
G0 Z1.0
G1 F100.0 Z-1.0
G3 F200.0 X78.625 Y54.1543 I6.5604 J1.5885
G3 X88.75 Y60.0 I3.375 J5.8457
G3 X78.625 Y65.8457 I-6.75 J0.0
G3 X75.4396 Y58.4115 I3.375 J-5.8457
G1 F100.0 Z-2.0
G3 F200.0 X78.625 Y54.1543 I6.5604 J1.5885
G3 X88.75 Y60.0 I3.375 J5.8457
G3 X78.625 Y65.8457 I-6.75 J0.0
G3 X75.4396 Y58.4115 I3.375 J-5.8457
G1 F100.0 Z-3.0
G3 F200.0 X78.625 Y54.1543 I6.5604 J1.5885
G3 X88.75 Y60.0 I3.375 J5.8457
G3 X78.625 Y65.8457 I-6.75 J0.0
G3 X75.4396 Y58.4115 I3.375 J-5.8457
G1 F100.0 Z-4.0
G3 F200.0 X78.625 Y54.1543 I6.5604 J1.5885
G3 X88.75 Y60.0 I3.375 J5.8457
G3 X78.625 Y65.8457 I-6.75 J0.0
G3 X75.4396 Y58.4115 I3.375 J-5.8457
G1 F100.0 Z-5.0
G3 F200.0 X78.625 Y54.1543 I6.5604 J1.5885
G3 X88.75 Y60.0 I3.375 J5.8457
G3 X78.625 Y65.8457 I-6.75 J0.0
G3 X75.4396 Y58.4115 I3.375 J-5.8457
G1 F100.0 Z-6.0
G3 F200.0 X78.625 Y54.1543 I6.5604 J1.5885
G3 X88.75 Y60.0 I3.375 J5.8457
G3 X78.625 Y65.8457 I-6.75 J0.0
G3 X75.4396 Y58.4115 I3.375 J-5.8457
G1 F100.0 Z-7.0
G3 F200.0 X78.625 Y54.1543 I6.5604 J1.5885
G3 X88.75 Y60.0 I3.375 J5.8457
G3 X78.625 Y65.8457 I-6.75 J0.0
G3 X75.4396 Y58.4115 I3.375 J-5.8457
G1 F100.0 Z-8.0
G3 F200.0 X78.625 Y54.1543 I6.5604 J1.5885
G3 X88.75 Y60.0 I3.375 J5.8457
G3 X78.625 Y65.8457 I-6.75 J0.0
G3 X75.4396 Y58.4115 I3.375 J-5.8457
G1 F100.0 Z-9.0
G3 F200.0 X78.625 Y54.1543 I6.5604 J1.5885
G3 X88.75 Y60.0 I3.375 J5.8457
G3 X78.625 Y65.8457 I-6.75 J0.0
G3 X75.4396 Y58.4115 I3.375 J-5.8457
G1 F100.0 Z-9.6
G3 F200.0 X78.625 Y54.1543 I6.5604 J1.5885
G3 X88.75 Y60.0 I3.375 J5.8457
G3 X78.625 Y65.8457 I-6.75 J0.0
G3 X75.4396 Y58.4115 I3.375 J-5.8457
( Pocket1 )
S1000
G0 Z3.0
G0 X16.25 Y16.0
G0 Z1.0
G1 F100.0 Z-1.0
G2 F300.0 X15.875 Y15.7835 I-0.25 J0.0
G2 Y16.2165 I0.125 J0.2165
G2 X16.25 Y16.0 I0.125 J-0.2165
G1 F100.0 X16.85
G2 F300.0 X15.575 Y15.2639 I-0.85 J0.0
G2 Y16.7361 I0.425 J0.7361
G2 X16.85 Y16.0 I0.425 J-0.7361
G1 F100.0 X18.05
G2 F300.0 X14.975 Y14.2246 I-2.05 J0.0
G2 Y17.7754 I1.025 J1.7754
G2 X18.05 Y16.0 I1.025 J-1.7754
G1 F100.0 X19.25
G2 F300.0 X14.375 Y13.1854 I-3.25 J0.0
G2 Y18.8146 I1.625 J2.8146
G2 X19.25 Y16.0 I1.625 J-2.8146
G1 F100.0 X20.45
G2 F300.0 X13.775 Y12.1462 I-4.45 J0.0
G2 Y19.8538 I2.225 J3.8538
G2 X20.45 Y16.0 I2.225 J-3.8538
G1 F100.0 X21.65
G2 F300.0 X13.175 Y11.107 I-5.65 J0.0
G2 Y20.893 I2.825 J4.893
G2 X21.65 Y16.0 I2.825 J-4.893
G1 F100.0 X22.85
G2 F300.0 X12.575 Y10.0677 I-6.85 J0.0
G2 Y21.9323 I3.425 J5.9323
G2 X22.85 Y16.0 I3.425 J-5.9323
G1 F100.0 X24.05
G2 F300.0 X11.975 Y9.0285 I-8.05 J0.0
G2 Y22.9715 I4.025 J6.9715
G2 X24.05 Y16.0 I4.025 J-6.9715
G1 F100.0 X25.25
G2 F300.0 X11.375 Y7.9893 I-9.25 J0.0
G2 Y24.0107 I4.625 J8.0107
G2 X25.25 Y16.0 I4.625 J-8.0107
G0 Z3.0
G0 X16.25
G0 Z0.0
G1 F100.0 Z-2.0
G2 F300.0 X15.875 Y15.7835 I-0.25 J0.0
G2 Y16.2165 I0.125 J0.2165
G2 X16.25 Y16.0 I0.125 J-0.2165
G1 F100.0 X16.85
G2 F300.0 X15.575 Y15.2639 I-0.85 J0.0
G2 Y16.7361 I0.425 J0.7361
G2 X16.85 Y16.0 I0.425 J-0.7361
G1 F100.0 X18.05
G2 F300.0 X14.975 Y14.2246 I-2.05 J0.0
G2 Y17.7754 I1.025 J1.7754
G2 X18.05 Y16.0 I1.025 J-1.7754
G1 F100.0 X19.25
G2 F300.0 X14.375 Y13.1854 I-3.25 J0.0
G2 Y18.8146 I1.625 J2.8146
G2 X19.25 Y16.0 I1.625 J-2.8146
G1 F100.0 X20.45
G2 F300.0 X13.775 Y12.1462 I-4.45 J0.0
G2 Y19.8538 I2.225 J3.8538
G2 X20.45 Y16.0 I2.225 J-3.8538
G1 F100.0 X21.65
G2 F300.0 X13.175 Y11.107 I-5.65 J0.0
G2 Y20.893 I2.825 J4.893
G2 X21.65 Y16.0 I2.825 J-4.893
G1 F100.0 X22.85
G2 F300.0 X12.575 Y10.0677 I-6.85 J0.0
G2 Y21.9323 I3.425 J5.9323
G2 X22.85 Y16.0 I3.425 J-5.9323
G1 F100.0 X24.05
G2 F300.0 X11.975 Y9.0285 I-8.05 J0.0
G2 Y22.9715 I4.025 J6.9715
G2 X24.05 Y16.0 I4.025 J-6.9715
G1 F100.0 X25.25
G2 F300.0 X11.375 Y7.9893 I-9.25 J0.0
G2 Y24.0107 I4.625 J8.0107
G2 X25.25 Y16.0 I4.625 J-8.0107
G0 Z3.0
G0 X16.25
G0 Z-1.0
G1 F100.0 Z-3.0
G2 F300.0 X15.875 Y15.7835 I-0.25 J0.0
G2 Y16.2165 I0.125 J0.2165
G2 X16.25 Y16.0 I0.125 J-0.2165
G1 F100.0 X16.85
G2 F300.0 X15.575 Y15.2639 I-0.85 J0.0
G2 Y16.7361 I0.425 J0.7361
G2 X16.85 Y16.0 I0.425 J-0.7361
G1 F100.0 X18.05
G2 F300.0 X14.975 Y14.2246 I-2.05 J0.0
G2 Y17.7754 I1.025 J1.7754
G2 X18.05 Y16.0 I1.025 J-1.7754
G1 F100.0 X19.25
G2 F300.0 X14.375 Y13.1854 I-3.25 J0.0
G2 Y18.8146 I1.625 J2.8146
G2 X19.25 Y16.0 I1.625 J-2.8146
G1 F100.0 X20.45
G2 F300.0 X13.775 Y12.1462 I-4.45 J0.0
G2 Y19.8538 I2.225 J3.8538
G2 X20.45 Y16.0 I2.225 J-3.8538
G1 F100.0 X21.65
G2 F300.0 X13.175 Y11.107 I-5.65 J0.0
G2 Y20.893 I2.825 J4.893
G2 X21.65 Y16.0 I2.825 J-4.893
G1 F100.0 X22.85
G2 F300.0 X12.575 Y10.0677 I-6.85 J0.0
G2 Y21.9323 I3.425 J5.9323
G2 X22.85 Y16.0 I3.425 J-5.9323
G1 F100.0 X24.05
G2 F300.0 X11.975 Y9.0285 I-8.05 J0.0
G2 Y22.9715 I4.025 J6.9715
G2 X24.05 Y16.0 I4.025 J-6.9715
G1 F100.0 X25.25
G2 F300.0 X11.375 Y7.9893 I-9.25 J0.0
G2 Y24.0107 I4.625 J8.0107
G2 X25.25 Y16.0 I4.625 J-8.0107
G0 Z3.0
G0 X16.25
G0 Z-2.0
G1 F100.0 Z-4.0
G2 F300.0 X15.875 Y15.7835 I-0.25 J0.0
G2 Y16.2165 I0.125 J0.2165
G2 X16.25 Y16.0 I0.125 J-0.2165
G1 F100.0 X16.85
G2 F300.0 X15.575 Y15.2639 I-0.85 J0.0
G2 Y16.7361 I0.425 J0.7361
G2 X16.85 Y16.0 I0.425 J-0.7361
G1 F100.0 X18.05
G2 F300.0 X14.975 Y14.2246 I-2.05 J0.0
G2 Y17.7754 I1.025 J1.7754
G2 X18.05 Y16.0 I1.025 J-1.7754
G1 F100.0 X19.25
G2 F300.0 X14.375 Y13.1854 I-3.25 J0.0
G2 Y18.8146 I1.625 J2.8146
G2 X19.25 Y16.0 I1.625 J-2.8146
G1 F100.0 X20.45
G2 F300.0 X13.775 Y12.1462 I-4.45 J0.0
G2 Y19.8538 I2.225 J3.8538
G2 X20.45 Y16.0 I2.225 J-3.8538
G1 F100.0 X21.65
G2 F300.0 X13.175 Y11.107 I-5.65 J0.0
G2 Y20.893 I2.825 J4.893
G2 X21.65 Y16.0 I2.825 J-4.893
G1 F100.0 X22.85
G2 F300.0 X12.575 Y10.0677 I-6.85 J0.0
G2 Y21.9323 I3.425 J5.9323
G2 X22.85 Y16.0 I3.425 J-5.9323
G1 F100.0 X24.05
G2 F300.0 X11.975 Y9.0285 I-8.05 J0.0
G2 Y22.9715 I4.025 J6.9715
G2 X24.05 Y16.0 I4.025 J-6.9715
G1 F100.0 X25.25
G2 F300.0 X11.375 Y7.9893 I-9.25 J0.0
G2 Y24.0107 I4.625 J8.0107
G2 X25.25 Y16.0 I4.625 J-8.0107
( Profile1 )
S1000
G0 Z3.0
G0 X17.25 Y43.0
G0 Z1.0
G1 F100.0 Z-1.0
G2 F200.0 X9.375 Y38.4534 I-5.25 J0.0
G2 Y47.5466 I2.625 J4.5466
G2 X17.25 Y43.0 I2.625 J-4.5466
G1 F100.0 Z-2.0
G2 F200.0 X9.375 Y38.4534 I-5.25 J0.0
G2 Y47.5466 I2.625 J4.5466
G2 X17.25 Y43.0 I2.625 J-4.5466
G1 F100.0 Z-3.0
G2 F200.0 X9.375 Y38.4534 I-5.25 J0.0
G2 Y47.5466 I2.625 J4.5466
G2 X17.25 Y43.0 I2.625 J-4.5466
G1 F100.0 Z-4.0
G2 F200.0 X9.375 Y38.4534 I-5.25 J0.0
G2 Y47.5466 I2.625 J4.5466
G2 X17.25 Y43.0 I2.625 J-4.5466
G1 F100.0 Z-5.0
G2 F200.0 X9.375 Y38.4534 I-5.25 J0.0
G2 Y47.5466 I2.625 J4.5466
G2 X17.25 Y43.0 I2.625 J-4.5466
G1 F100.0 Z-6.0
G2 F200.0 X9.375 Y38.4534 I-5.25 J0.0
G2 Y47.5466 I2.625 J4.5466
G2 X17.25 Y43.0 I2.625 J-4.5466
G1 F100.0 Z-7.0
G2 F200.0 X9.375 Y38.4534 I-5.25 J0.0
G2 Y47.5466 I2.625 J4.5466
G2 X17.25 Y43.0 I2.625 J-4.5466
G1 F100.0 Z-8.0
G2 F200.0 X9.375 Y38.4534 I-5.25 J0.0
G2 Y47.5466 I2.625 J4.5466
G2 X17.25 Y43.0 I2.625 J-4.5466
G1 F100.0 Z-9.0
G2 F200.0 X9.375 Y38.4534 I-5.25 J0.0
G2 Y47.5466 I2.625 J4.5466
G2 X17.25 Y43.0 I2.625 J-4.5466
G1 F100.0 Z-9.6
G2 F200.0 X9.375 Y38.4534 I-5.25 J0.0
G2 Y47.5466 I2.625 J4.5466
G2 X17.25 Y43.0 I2.625 J-4.5466
G0 Z3.0
G0 X12.3231 Y61.9194
G0 Z1.0
G1 F100.0 Z-1.0
G2 F200.0 X8.375 Y62.4534 I-1.3231 J5.0806
G2 Y71.5466 I2.625 J4.5466
G2 X16.25 Y67.0 I2.625 J-4.5466
G2 X12.3231 Y61.9194 I-5.25 J0.0
G1 F100.0 Z-2.0
G2 F200.0 X8.375 Y62.4534 I-1.3231 J5.0806
G2 Y71.5466 I2.625 J4.5466
G2 X16.25 Y67.0 I2.625 J-4.5466
G2 X12.3231 Y61.9194 I-5.25 J0.0
G1 F100.0 Z-3.0
G2 F200.0 X8.375 Y62.4534 I-1.3231 J5.0806
G2 Y71.5466 I2.625 J4.5466
G2 X16.25 Y67.0 I2.625 J-4.5466
G2 X12.3231 Y61.9194 I-5.25 J0.0
G1 F100.0 Z-4.0
G2 F200.0 X8.375 Y62.4534 I-1.3231 J5.0806
G2 Y71.5466 I2.625 J4.5466
G2 X16.25 Y67.0 I2.625 J-4.5466
G2 X12.3231 Y61.9194 I-5.25 J0.0
G1 F100.0 Z-5.0
G2 F200.0 X8.375 Y62.4534 I-1.3231 J5.0806
G2 Y71.5466 I2.625 J4.5466
G2 X16.25 Y67.0 I2.625 J-4.5466
G2 X12.3231 Y61.9194 I-5.25 J0.0
G1 F100.0 Z-6.0
G2 F200.0 X8.375 Y62.4534 I-1.3231 J5.0806
G2 Y71.5466 I2.625 J4.5466
G2 X16.25 Y67.0 I2.625 J-4.5466
G2 X12.3231 Y61.9194 I-5.25 J0.0
G1 F100.0 Z-7.0
G2 F200.0 X8.375 Y62.4534 I-1.3231 J5.0806
G2 Y71.5466 I2.625 J4.5466
G2 X16.25 Y67.0 I2.625 J-4.5466
G2 X12.3231 Y61.9194 I-5.25 J0.0
G1 F100.0 Z-8.0
G2 F200.0 X8.375 Y62.4534 I-1.3231 J5.0806
G2 Y71.5466 I2.625 J4.5466
G2 X16.25 Y67.0 I2.625 J-4.5466
G2 X12.3231 Y61.9194 I-5.25 J0.0
G1 F100.0 Z-9.0
G2 F200.0 X8.375 Y62.4534 I-1.3231 J5.0806
G2 Y71.5466 I2.625 J4.5466
G2 X16.25 Y67.0 I2.625 J-4.5466
G2 X12.3231 Y61.9194 I-5.25 J0.0
G1 F100.0 Z-9.6
G2 F200.0 X8.375 Y62.4534 I-1.3231 J5.0806
G2 Y71.5466 I2.625 J4.5466
G2 X16.25 Y67.0 I2.625 J-4.5466
G2 X12.3231 Y61.9194 I-5.25 J0.0
G0 Z3.0
G0 X11.1067 Y121.7511
G0 Z1.0
G1 F100.0 Z-1.0
G2 F200.0 X8.375 Y122.4534 I-0.1067 J5.2489
G2 Y131.5466 I2.625 J4.5466
G2 X16.25 Y127.0 I2.625 J-4.5466
G2 X11.1067 Y121.7511 I-5.25 J0.0
G1 F100.0 Z-2.0
G2 F200.0 X8.375 Y122.4534 I-0.1067 J5.2489
G2 Y131.5466 I2.625 J4.5466
G2 X16.25 Y127.0 I2.625 J-4.5466
G2 X11.1067 Y121.7511 I-5.25 J0.0
G1 F100.0 Z-3.0
G2 F200.0 X8.375 Y122.4534 I-0.1067 J5.2489
G2 Y131.5466 I2.625 J4.5466
G2 X16.25 Y127.0 I2.625 J-4.5466
G2 X11.1067 Y121.7511 I-5.25 J0.0
G1 F100.0 Z-4.0
G2 F200.0 X8.375 Y122.4534 I-0.1067 J5.2489
G2 Y131.5466 I2.625 J4.5466
G2 X16.25 Y127.0 I2.625 J-4.5466
G2 X11.1067 Y121.7511 I-5.25 J0.0
G1 F100.0 Z-5.0
G2 F200.0 X8.375 Y122.4534 I-0.1067 J5.2489
G2 Y131.5466 I2.625 J4.5466
G2 X16.25 Y127.0 I2.625 J-4.5466
G2 X11.1067 Y121.7511 I-5.25 J0.0
G1 F100.0 Z-6.0
G2 F200.0 X8.375 Y122.4534 I-0.1067 J5.2489
G2 Y131.5466 I2.625 J4.5466
G2 X16.25 Y127.0 I2.625 J-4.5466
G2 X11.1067 Y121.7511 I-5.25 J0.0
G1 F100.0 Z-7.0
G2 F200.0 X8.375 Y122.4534 I-0.1067 J5.2489
G2 Y131.5466 I2.625 J4.5466
G2 X16.25 Y127.0 I2.625 J-4.5466
G2 X11.1067 Y121.7511 I-5.25 J0.0
G1 F100.0 Z-8.0
G2 F200.0 X8.375 Y122.4534 I-0.1067 J5.2489
G2 Y131.5466 I2.625 J4.5466
G2 X16.25 Y127.0 I2.625 J-4.5466
G2 X11.1067 Y121.7511 I-5.25 J0.0
G1 F100.0 Z-9.0
G2 F200.0 X8.375 Y122.4534 I-0.1067 J5.2489
G2 Y131.5466 I2.625 J4.5466
G2 X16.25 Y127.0 I2.625 J-4.5466
G2 X11.1067 Y121.7511 I-5.25 J0.0
G1 F100.0 Z-9.6
G2 F200.0 X8.375 Y122.4534 I-0.1067 J5.2489
G2 Y131.5466 I2.625 J4.5466
G2 X16.25 Y127.0 I2.625 J-4.5466
G2 X11.1067 Y121.7511 I-5.25 J0.0
G0 Z3.0
G0 X81.4144 Y82.5563
G0 Z1.0
G1 F100.0 Z-1.0
G2 F200.0 X83.375 Y84.5466 I4.5856 J-2.5563
G2 X91.25 Y80.0 I2.625 J-4.5466
G2 X83.375 Y75.4534 I-5.25 J0.0
G2 X81.4144 Y82.5563 I2.625 J4.5466
G1 F100.0 Z-2.0
G2 F200.0 X83.375 Y84.5466 I4.5856 J-2.5563
G2 X91.25 Y80.0 I2.625 J-4.5466
G2 X83.375 Y75.4534 I-5.25 J0.0
G2 X81.4144 Y82.5563 I2.625 J4.5466
G1 F100.0 Z-3.0
G2 F200.0 X83.375 Y84.5466 I4.5856 J-2.5563
G2 X91.25 Y80.0 I2.625 J-4.5466
G2 X83.375 Y75.4534 I-5.25 J0.0
G2 X81.4144 Y82.5563 I2.625 J4.5466
G1 F100.0 Z-4.0
G2 F200.0 X83.375 Y84.5466 I4.5856 J-2.5563
G2 X91.25 Y80.0 I2.625 J-4.5466
G2 X83.375 Y75.4534 I-5.25 J0.0
G2 X81.4144 Y82.5563 I2.625 J4.5466
G1 F100.0 Z-5.0
G2 F200.0 X83.375 Y84.5466 I4.5856 J-2.5563
G2 X91.25 Y80.0 I2.625 J-4.5466
G2 X83.375 Y75.4534 I-5.25 J0.0
G2 X81.4144 Y82.5563 I2.625 J4.5466
G1 F100.0 Z-6.0
G2 F200.0 X83.375 Y84.5466 I4.5856 J-2.5563
G2 X91.25 Y80.0 I2.625 J-4.5466
G2 X83.375 Y75.4534 I-5.25 J0.0
G2 X81.4144 Y82.5563 I2.625 J4.5466
G1 F100.0 Z-7.0
G2 F200.0 X83.375 Y84.5466 I4.5856 J-2.5563
G2 X91.25 Y80.0 I2.625 J-4.5466
G2 X83.375 Y75.4534 I-5.25 J0.0
G2 X81.4144 Y82.5563 I2.625 J4.5466
G1 F100.0 Z-8.0
G2 F200.0 X83.375 Y84.5466 I4.5856 J-2.5563
G2 X91.25 Y80.0 I2.625 J-4.5466
G2 X83.375 Y75.4534 I-5.25 J0.0
G2 X81.4144 Y82.5563 I2.625 J4.5466
G1 F100.0 Z-9.0
G2 F200.0 X83.375 Y84.5466 I4.5856 J-2.5563
G2 X91.25 Y80.0 I2.625 J-4.5466
G2 X83.375 Y75.4534 I-5.25 J0.0
G2 X81.4144 Y82.5563 I2.625 J4.5466
G1 F100.0 Z-9.6
G2 F200.0 X83.375 Y84.5466 I4.5856 J-2.5563
G2 X91.25 Y80.0 I2.625 J-4.5466
G2 X83.375 Y75.4534 I-5.25 J0.0
G2 X81.4144 Y82.5563 I2.625 J4.5466
G0 Z3.0
G0 X104.0392 Y74.7185
G0 Z1.0
G1 F100.0 Z-1.0
G2 F200.0 X106.375 Y77.5466 I4.9608 J-1.7185
G2 X114.25 Y73.0 I2.625 J-4.5466
G2 X106.375 Y68.4534 I-5.25 J0.0
G2 X104.0392 Y74.7185 I2.625 J4.5466
G1 F100.0 Z-2.0
G2 F200.0 X106.375 Y77.5466 I4.9608 J-1.7185
G2 X114.25 Y73.0 I2.625 J-4.5466
G2 X106.375 Y68.4534 I-5.25 J0.0
G2 X104.0392 Y74.7185 I2.625 J4.5466
G1 F100.0 Z-3.0
G2 F200.0 X106.375 Y77.5466 I4.9608 J-1.7185
G2 X114.25 Y73.0 I2.625 J-4.5466
G2 X106.375 Y68.4534 I-5.25 J0.0
G2 X104.0392 Y74.7185 I2.625 J4.5466
G1 F100.0 Z-4.0
G2 F200.0 X106.375 Y77.5466 I4.9608 J-1.7185
G2 X114.25 Y73.0 I2.625 J-4.5466
G2 X106.375 Y68.4534 I-5.25 J0.0
G2 X104.0392 Y74.7185 I2.625 J4.5466
G1 F100.0 Z-5.0
G2 F200.0 X106.375 Y77.5466 I4.9608 J-1.7185
G2 X114.25 Y73.0 I2.625 J-4.5466
G2 X106.375 Y68.4534 I-5.25 J0.0
G2 X104.0392 Y74.7185 I2.625 J4.5466
G1 F100.0 Z-6.0
G2 F200.0 X106.375 Y77.5466 I4.9608 J-1.7185
G2 X114.25 Y73.0 I2.625 J-4.5466
G2 X106.375 Y68.4534 I-5.25 J0.0
G2 X104.0392 Y74.7185 I2.625 J4.5466
G1 F100.0 Z-7.0
G2 F200.0 X106.375 Y77.5466 I4.9608 J-1.7185
G2 X114.25 Y73.0 I2.625 J-4.5466
G2 X106.375 Y68.4534 I-5.25 J0.0
G2 X104.0392 Y74.7185 I2.625 J4.5466
G1 F100.0 Z-8.0
G2 F200.0 X106.375 Y77.5466 I4.9608 J-1.7185
G2 X114.25 Y73.0 I2.625 J-4.5466
G2 X106.375 Y68.4534 I-5.25 J0.0
G2 X104.0392 Y74.7185 I2.625 J4.5466
G1 F100.0 Z-9.0
G2 F200.0 X106.375 Y77.5466 I4.9608 J-1.7185
G2 X114.25 Y73.0 I2.625 J-4.5466
G2 X106.375 Y68.4534 I-5.25 J0.0
G2 X104.0392 Y74.7185 I2.625 J4.5466
G1 F100.0 Z-9.6
G2 F200.0 X106.375 Y77.5466 I4.9608 J-1.7185
G2 X114.25 Y73.0 I2.625 J-4.5466
G2 X106.375 Y68.4534 I-5.25 J0.0
G2 X104.0392 Y74.7185 I2.625 J4.5466
( Profile2 )
S1000
G0 Z3.0
G0 X96.75 Y80.0
G0 Z1.0
G1 F100.0 Z-1.0
G3 F200.0 X80.625 Y89.3098 I-10.75 J0.0
G3 Y70.6902 I5.375 J-9.3098
G3 X96.75 Y80.0 I5.375 J9.3098
G1 F100.0 Z-2.0
G3 F200.0 X80.625 Y89.3098 I-10.75 J0.0
G3 Y70.6902 I5.375 J-9.3098
G3 X96.75 Y80.0 I5.375 J9.3098
G1 F100.0 Z-3.0
G3 F200.0 X80.625 Y89.3098 I-10.75 J0.0
G3 Y70.6902 I5.375 J-9.3098
G3 X96.75 Y80.0 I5.375 J9.3098
G1 F100.0 Z-4.0
G3 F200.0 X80.625 Y89.3098 I-10.75 J0.0
G3 Y70.6902 I5.375 J-9.3098
G3 X96.75 Y80.0 I5.375 J9.3098
G1 F100.0 Z-5.0
G3 F200.0 X80.625 Y89.3098 I-10.75 J0.0
G3 Y70.6902 I5.375 J-9.3098
G3 X96.75 Y80.0 I5.375 J9.3098
G1 F100.0 Z-6.0
G3 F200.0 X80.625 Y89.3098 I-10.75 J0.0
G3 Y70.6902 I5.375 J-9.3098
G3 X96.75 Y80.0 I5.375 J9.3098
G1 F100.0 Z-7.0
G3 F200.0 X80.625 Y89.3098 I-10.75 J0.0
G3 Y70.6902 I5.375 J-9.3098
G3 X96.75 Y80.0 I5.375 J9.3098
G1 F100.0 Z-8.0
G3 F200.0 X80.625 Y89.3098 I-10.75 J0.0
G3 Y70.6902 I5.375 J-9.3098
G3 X96.75 Y80.0 I5.375 J9.3098
G1 F100.0 Z-9.0
G3 F200.0 X80.625 Y89.3098 I-10.75 J0.0
G3 Y70.6902 I5.375 J-9.3098
G3 X96.75 Y80.0 I5.375 J9.3098
G1 F100.0 Z-9.6
G3 F200.0 X80.625 Y89.3098 I-10.75 J0.0
G3 Y70.6902 I5.375 J-9.3098
G3 X96.75 Y80.0 I5.375 J9.3098
G0 Z3.0
G0 X99.6664 Y78.3335
G0 Z1.0
G1 F100.0 Z-1.0
G3 F200.0 X103.625 Y63.6902 I9.3336 J-5.3335
G3 X119.75 Y73.0 I5.375 J9.3098
G3 X103.625 Y82.3098 I-10.75 J0.0
G3 X99.6664 Y78.3335 I5.375 J-9.3098
G1 F100.0 Z-2.0
G3 F200.0 X103.625 Y63.6902 I9.3336 J-5.3335
G3 X119.75 Y73.0 I5.375 J9.3098
G3 X103.625 Y82.3098 I-10.75 J0.0
G3 X99.6664 Y78.3335 I5.375 J-9.3098
G1 F100.0 Z-3.0
G3 F200.0 X103.625 Y63.6902 I9.3336 J-5.3335
G3 X119.75 Y73.0 I5.375 J9.3098
G3 X103.625 Y82.3098 I-10.75 J0.0
G3 X99.6664 Y78.3335 I5.375 J-9.3098
G1 F100.0 Z-4.0
G3 F200.0 X103.625 Y63.6902 I9.3336 J-5.3335
G3 X119.75 Y73.0 I5.375 J9.3098
G3 X103.625 Y82.3098 I-10.75 J0.0
G3 X99.6664 Y78.3335 I5.375 J-9.3098
G1 F100.0 Z-5.0
G3 F200.0 X103.625 Y63.6902 I9.3336 J-5.3335
G3 X119.75 Y73.0 I5.375 J9.3098
G3 X103.625 Y82.3098 I-10.75 J0.0
G3 X99.6664 Y78.3335 I5.375 J-9.3098
G1 F100.0 Z-6.0
G3 F200.0 X103.625 Y63.6902 I9.3336 J-5.3335
G3 X119.75 Y73.0 I5.375 J9.3098
G3 X103.625 Y82.3098 I-10.75 J0.0
G3 X99.6664 Y78.3335 I5.375 J-9.3098
G1 F100.0 Z-7.0
G3 F200.0 X103.625 Y63.6902 I9.3336 J-5.3335
G3 X119.75 Y73.0 I5.375 J9.3098
G3 X103.625 Y82.3098 I-10.75 J0.0
G3 X99.6664 Y78.3335 I5.375 J-9.3098
G1 F100.0 Z-8.0
G3 F200.0 X103.625 Y63.6902 I9.3336 J-5.3335
G3 X119.75 Y73.0 I5.375 J9.3098
G3 X103.625 Y82.3098 I-10.75 J0.0
G3 X99.6664 Y78.3335 I5.375 J-9.3098
G1 F100.0 Z-9.0
G3 F200.0 X103.625 Y63.6902 I9.3336 J-5.3335
G3 X119.75 Y73.0 I5.375 J9.3098
G3 X103.625 Y82.3098 I-10.75 J0.0
G3 X99.6664 Y78.3335 I5.375 J-9.3098
G1 F100.0 Z-9.6
G3 F200.0 X103.625 Y63.6902 I9.3336 J-5.3335
G3 X119.75 Y73.0 I5.375 J9.3098
G3 X103.625 Y82.3098 I-10.75 J0.0
G3 X99.6664 Y78.3335 I5.375 J-9.3098
G0 Z3.0
G0 X21.6632 Y68.363
G0 Z1.0
G1 F100.0 Z-1.0
G3 F200.0 X5.625 Y76.3098 I-10.6632 J-1.363
G3 Y57.6902 I5.375 J-9.3098
G3 X21.75 Y67.0 I5.375 J9.3098
G3 X21.6632 Y68.363 I-10.75 J0.0
G1 F100.0 Z-2.0
G3 F200.0 X5.625 Y76.3098 I-10.6632 J-1.363
G3 Y57.6902 I5.375 J-9.3098
G3 X21.75 Y67.0 I5.375 J9.3098
G3 X21.6632 Y68.363 I-10.75 J0.0
G1 F100.0 Z-3.0
G3 F200.0 X5.625 Y76.3098 I-10.6632 J-1.363
G3 Y57.6902 I5.375 J-9.3098
G3 X21.75 Y67.0 I5.375 J9.3098
G3 X21.6632 Y68.363 I-10.75 J0.0
G1 F100.0 Z-4.0
G3 F200.0 X5.625 Y76.3098 I-10.6632 J-1.363
G3 Y57.6902 I5.375 J-9.3098
G3 X21.75 Y67.0 I5.375 J9.3098
G3 X21.6632 Y68.363 I-10.75 J0.0
G1 F100.0 Z-5.0
G3 F200.0 X5.625 Y76.3098 I-10.6632 J-1.363
G3 Y57.6902 I5.375 J-9.3098
G3 X21.75 Y67.0 I5.375 J9.3098
G3 X21.6632 Y68.363 I-10.75 J0.0
G1 F100.0 Z-6.0
G3 F200.0 X5.625 Y76.3098 I-10.6632 J-1.363
G3 Y57.6902 I5.375 J-9.3098
G3 X21.75 Y67.0 I5.375 J9.3098
G3 X21.6632 Y68.363 I-10.75 J0.0
G1 F100.0 Z-7.0
G3 F200.0 X5.625 Y76.3098 I-10.6632 J-1.363
G3 Y57.6902 I5.375 J-9.3098
G3 X21.75 Y67.0 I5.375 J9.3098
G3 X21.6632 Y68.363 I-10.75 J0.0
G1 F100.0 Z-8.0
G3 F200.0 X5.625 Y76.3098 I-10.6632 J-1.363
G3 Y57.6902 I5.375 J-9.3098
G3 X21.75 Y67.0 I5.375 J9.3098
G3 X21.6632 Y68.363 I-10.75 J0.0
G1 F100.0 Z-9.0
G3 F200.0 X5.625 Y76.3098 I-10.6632 J-1.363
G3 Y57.6902 I5.375 J-9.3098
G3 X21.75 Y67.0 I5.375 J9.3098
G3 X21.6632 Y68.363 I-10.75 J0.0
G1 F100.0 Z-9.6
G3 F200.0 X5.625 Y76.3098 I-10.6632 J-1.363
G3 Y57.6902 I5.375 J-9.3098
G3 X21.75 Y67.0 I5.375 J9.3098
G3 X21.6632 Y68.363 I-10.75 J0.0
G0 Z3.0
G0 X15.8273 Y53.0456
G0 Z1.0
G1 F100.0 Z-1.0
G3 F200.0 X6.625 Y52.3098 I-3.8273 J-10.0456
G3 Y33.6902 I5.375 J-9.3098
G3 X22.75 Y43.0 I5.375 J9.3098
G3 X15.8273 Y53.0456 I-10.75 J0.0
G0 Z3.0
G0 X15.9266 Y31.7498
G0 Z1.0
G1 F100.0 Z-1.0
G3 F200.0 X8.125 Y29.6399 I0.0734 J-15.7498
G3 Y2.3601 I7.875 J-13.6399
G3 X31.75 Y16.0 I7.875 J13.6399
G3 X15.9266 Y31.7498 I-15.75 J0.0
G1 F100.0 Z-2.0
G3 F200.0 X8.125 Y29.6399 I0.0734 J-15.7498
G3 Y2.3601 I7.875 J-13.6399
G3 X31.75 Y16.0 I7.875 J13.6399
G3 X15.9266 Y31.7498 I-15.75 J0.0
G0 Z3.0
G0 X15.5425 Y32.8504
G0 Z0.0
G1 F100.0 Z-2.0
G3 F200.0 X22.75 Y43.0 I-3.5425 J10.1496
G3 X6.625 Y52.3098 I-10.75 J0.0
G3 Y33.6902 I5.375 J-9.3098
G3 X15.5425 Y32.8504 I5.375 J9.3098
G1 F100.0 Z-3.0
G3 F200.0 X22.75 Y43.0 I-3.5425 J10.1496
G3 X6.625 Y52.3098 I-10.75 J0.0
G3 Y33.6902 I5.375 J-9.3098
G3 X15.5425 Y32.8504 I5.375 J9.3098
G0 Z3.0
G0 X15.5725 Y31.7442
G0 Z-1.0
G1 F100.0 Z-3.0
G3 F200.0 X8.125 Y29.6399 I0.4275 J-15.7442
G3 Y2.3601 I7.875 J-13.6399
G3 X31.75 Y16.0 I7.875 J13.6399
G3 X15.5725 Y31.7442 I-15.75 J0.0
G1 F100.0 Z-4.0
G3 F200.0 X8.125 Y29.6399 I0.4275 J-15.7442
G3 Y2.3601 I7.875 J-13.6399
G3 X31.75 Y16.0 I7.875 J13.6399
G3 X15.5725 Y31.7442 I-15.75 J0.0
G0 Z3.0
G0 X15.2521 Y32.7537
G0 Z-2.0
G1 F100.0 Z-4.0
G3 F200.0 X22.75 Y43.0 I-3.2521 J10.2463
G3 X6.625 Y52.3098 I-10.75 J0.0
G3 Y33.6902 I5.375 J-9.3098
G3 X15.2521 Y32.7537 I5.375 J9.3098
G1 F100.0 Z-5.0
G3 F200.0 X22.75 Y43.0 I-3.2521 J10.2463
G3 X6.625 Y52.3098 I-10.75 J0.0
G3 Y33.6902 I5.375 J-9.3098
G3 X15.2521 Y32.7537 I5.375 J9.3098
G1 F100.0 X15.2976 Y31.7343
G3 F200.0 X8.125 Y29.6399 I0.7024 J-15.7343
G3 Y2.3601 I7.875 J-13.6399
G3 X31.75 Y16.0 I7.875 J13.6399
G3 X15.2976 Y31.7343 I-15.75 J0.0
G1 F100.0 Z-6.0
G3 F200.0 X8.125 Y29.6399 I0.7024 J-15.7343
G3 Y2.3601 I7.875 J-13.6399
G3 X31.75 Y16.0 I7.875 J13.6399
G3 X15.2976 Y31.7343 I-15.75 J0.0
G1 F100.0 X15.0199 Y32.6829
G3 F200.0 X22.75 Y43.0 I-3.0199 J10.3171
G3 X6.625 Y52.3098 I-10.75 J0.0
G3 Y33.6902 I5.375 J-9.3098
G3 X15.0199 Y32.6829 I5.375 J9.3098
G1 F100.0 Z-7.0
G3 F200.0 X22.75 Y43.0 I-3.0199 J10.3171
G3 X6.625 Y52.3098 I-10.75 J0.0
G3 Y33.6902 I5.375 J-9.3098
G3 X15.0199 Y32.6829 I5.375 J9.3098
G1 F100.0 X15.0763 Y31.7229
G3 F200.0 X8.125 Y29.6399 I0.9237 J-15.7229
G3 Y2.3601 I7.875 J-13.6399
G3 X31.75 Y16.0 I7.875 J13.6399
G3 X15.0763 Y31.7229 I-15.75 J0.0
G1 F100.0 Z-8.0
G3 F200.0 X8.125 Y29.6399 I0.9237 J-15.7229
G3 Y2.3601 I7.875 J-13.6399
G3 X31.75 Y16.0 I7.875 J13.6399
G3 X15.0763 Y31.7229 I-15.75 J0.0
G1 F100.0 X14.8292 Y32.629
G3 F200.0 X22.75 Y43.0 I-2.8292 J10.371
G3 X6.625 Y52.3098 I-10.75 J0.0
G3 Y33.6902 I5.375 J-9.3098
G3 X14.8292 Y32.629 I5.375 J9.3098
G1 F100.0 Z-9.0
G3 F200.0 X22.75 Y43.0 I-2.8292 J10.371
G3 X6.625 Y52.3098 I-10.75 J0.0
G3 Y33.6902 I5.375 J-9.3098
G3 X14.8292 Y32.629 I5.375 J9.3098
G1 F100.0 X14.8938 Y31.7111
G3 F200.0 X8.125 Y29.6399 I1.1062 J-15.7111
G3 Y2.3601 I7.875 J-13.6399
G3 X31.75 Y16.0 I7.875 J13.6399
G3 X14.8938 Y31.7111 I-15.75 J0.0
G1 F100.0 Z-9.6
G3 F200.0 X8.125 Y29.6399 I1.1062 J-15.7111
G3 Y2.3601 I7.875 J-13.6399
G3 X31.75 Y16.0 I7.875 J13.6399
G3 X14.8938 Y31.7111 I-15.75 J0.0
G1 F100.0 X14.6693 Y32.5867
G3 F200.0 X22.75 Y43.0 I-2.6693 J10.4133
G3 X6.625 Y52.3098 I-10.75 J0.0
G3 Y33.6902 I5.375 J-9.3098
G3 X14.6693 Y32.5867 I5.375 J9.3098
G0 Z3.0
G0 X11.4175 Y116.2581
G0 Z1.0
G1 F100.0 Z-1.0
G3 F200.0 X21.75 Y127.0 I-0.4175 J10.7419
G3 X5.625 Y136.3098 I-10.75 J0.0
G3 Y117.6902 I5.375 J-9.3098
G3 X11.4175 Y116.2581 I5.375 J9.3098
G1 F100.0 Z-2.0
G3 F200.0 X21.75 Y127.0 I-0.4175 J10.7419
G3 X5.625 Y136.3098 I-10.75 J0.0
G3 Y117.6902 I5.375 J-9.3098
G3 X11.4175 Y116.2581 I5.375 J9.3098
G1 F100.0 Z-3.0
G3 F200.0 X21.75 Y127.0 I-0.4175 J10.7419
G3 X5.625 Y136.3098 I-10.75 J0.0
G3 Y117.6902 I5.375 J-9.3098
G3 X11.4175 Y116.2581 I5.375 J9.3098
G1 F100.0 Z-4.0
G3 F200.0 X21.75 Y127.0 I-0.4175 J10.7419
G3 X5.625 Y136.3098 I-10.75 J0.0
G3 Y117.6902 I5.375 J-9.3098
G3 X11.4175 Y116.2581 I5.375 J9.3098
G1 F100.0 Z-5.0
G3 F200.0 X21.75 Y127.0 I-0.4175 J10.7419
G3 X5.625 Y136.3098 I-10.75 J0.0
G3 Y117.6902 I5.375 J-9.3098
G3 X11.4175 Y116.2581 I5.375 J9.3098
G1 F100.0 Z-6.0
G3 F200.0 X21.75 Y127.0 I-0.4175 J10.7419
G3 X5.625 Y136.3098 I-10.75 J0.0
G3 Y117.6902 I5.375 J-9.3098
G3 X11.4175 Y116.2581 I5.375 J9.3098
G1 F100.0 Z-7.0
G3 F200.0 X21.75 Y127.0 I-0.4175 J10.7419
G3 X5.625 Y136.3098 I-10.75 J0.0
G3 Y117.6902 I5.375 J-9.3098
G3 X11.4175 Y116.2581 I5.375 J9.3098
G1 F100.0 Z-8.0
G3 F200.0 X21.75 Y127.0 I-0.4175 J10.7419
G3 X5.625 Y136.3098 I-10.75 J0.0
G3 Y117.6902 I5.375 J-9.3098
G3 X11.4175 Y116.2581 I5.375 J9.3098
G1 F100.0 Z-9.0
G3 F200.0 X21.75 Y127.0 I-0.4175 J10.7419
G3 X5.625 Y136.3098 I-10.75 J0.0
G3 Y117.6902 I5.375 J-9.3098
G3 X11.4175 Y116.2581 I5.375 J9.3098
G1 F100.0 Z-9.6
G3 F200.0 X21.75 Y127.0 I-0.4175 J10.7419
G3 X5.625 Y136.3098 I-10.75 J0.0
G3 Y117.6902 I5.375 J-9.3098
G3 X11.4175 Y116.2581 I5.375 J9.3098
G0 Z3.0
M5
M30
