( Made using CamBam - http://www.cambam.co.uk )
( Clock1-pg6 3/30/2019 3:44:25 PM )
( T0 : 1.5 )
G21 G90 G64 G40
G0 Z3.0
( T0 : 1.5 )
T0 M6
( Profile2 )
G17
M3 S1000
G0 X98.1757 Y39.8522
G0 Z1.0
G1 F100.0 Z-1.0
G1 X98.176 Y38.6669
G1 X100.8792 Y32.2412
G1 X101.3837 Y31.9061
G1 X100.8792 Y32.2412
G1 X95.4764
G1 X94.9724 Y31.9063
G1 X95.4764 Y32.2412
G1 X98.176 Y38.6669
G1 X98.1757 Y39.8522
G1 Z-2.0
G1 X98.176 Y38.6669
G1 X100.8792 Y32.2412
G1 X101.3837 Y31.9061
G1 X100.8792 Y32.2412
G1 X95.4764
G1 X94.9724 Y31.9063
G1 X95.4764 Y32.2412
G1 X98.176 Y38.6669
G1 X98.1757 Y39.8522
G1 Z-2.95
G1 X98.176 Y38.6669
G1 X100.8792 Y32.2412
G1 X101.3837 Y31.9061
G1 X100.8792 Y32.2412
G1 X95.4764
G1 X94.9724 Y31.9063
G1 X95.4764 Y32.2412
G1 X98.176 Y38.6669
G1 X98.1757 Y39.8522
G0 Z3.0
G0 X108.5572
G0 Z1.0
G1 Z-1.0
G1 Y50.7412
G1 X108.3376 Y50.9608
G1 X108.5572 Y50.7412
G1 X109.0588
G1 X109.2784 Y50.9608
G1 X109.0588 Y50.7412
G1 Y32.2412
G1 X109.2784 Y32.0215
G1 X109.0588 Y32.2412
G1 X108.5572
G1 X108.3376 Y32.0215
G1 X108.5572 Y32.2412
G1 Y39.8522
G1 Z-2.0
G1 Y50.7412
G1 X108.3376 Y50.9608
G1 X108.5572 Y50.7412
G1 X109.0588
G1 X109.2784 Y50.9608
G1 X109.0588 Y50.7412
G1 Y32.2412
G1 X109.2784 Y32.0215
G1 X109.0588 Y32.2412
G1 X108.5572
G1 X108.3376 Y32.0215
G1 X108.5572 Y32.2412
G1 Y39.8522
G1 Z-2.95
G1 Y50.7412
G1 X108.3376 Y50.9608
G1 X108.5572 Y50.7412
G1 X109.0588
G1 X109.2784 Y50.9608
G1 X109.0588 Y50.7412
G1 Y32.2412
G1 X109.2784 Y32.0215
G1 X109.0588 Y32.2412
G1 X108.5572
G1 X108.3376 Y32.0215
G1 X108.5572 Y32.2412
G1 Y39.8522
G0 Z3.0
G0 X113.1236 Y22.8095
G0 Z1.0
G1 Z-1.0
G1 X113.6279 Y22.4746
G1 X119.0307 Y22.4745
G1 X119.535 Y22.8095
G1 X119.0307 Y22.4745
G1 X116.3289 Y16.05
G1 X116.3288 Y14.8651
G1 X116.3289 Y16.05
G1 X113.6279 Y22.4746
G1 X113.1236 Y22.8095
G1 Z-2.0
G1 X113.6279 Y22.4746
G1 X119.0307 Y22.4745
G1 X119.535 Y22.8095
G1 X119.0307 Y22.4745
G1 X116.3289 Y16.05
G1 X116.3288 Y14.8651
G1 X116.3289 Y16.05
G1 X113.6279 Y22.4746
G1 X113.1236 Y22.8095
G1 Z-2.95
G1 X113.6279 Y22.4746
G1 X119.0307 Y22.4745
G1 X119.535 Y22.8095
G1 X119.0307 Y22.4745
G1 X116.3289 Y16.05
G1 X116.3288 Y14.8651
G1 X116.3289 Y16.05
G1 X113.6279 Y22.4746
G1 X113.1236 Y22.8095
G0 Z3.0
G0 X121.4903 Y19.292
G0 Z1.0
G1 Z-1.0
G1 X122.8281 Y22.4741
G1 X122.7449 Y22.5993
G1 X122.8281 Y22.4741
G1 X123.5803 Y22.4743
G1 X123.8001 Y22.6941
G1 X123.5803 Y22.4743
G1 X123.5784 Y3.9758
G1 X123.7979 Y3.7563
G1 X123.5784 Y3.9758
G1 X122.826 Y3.9756
G1 X122.7427 Y3.8502
G1 X122.826 Y3.9756
G1 X118.9392 Y13.2243
G1 X118.8757
G1 X118.9392
G1 X121.4903 Y19.292
G1 Z-2.0
G1 X122.8281 Y22.4741
G1 X122.7449 Y22.5993
G1 X122.8281 Y22.4741
G1 X123.5803 Y22.4743
G1 X123.8001 Y22.6941
G1 X123.5803 Y22.4743
G1 X123.5784 Y3.9758
G1 X123.7979 Y3.7563
G1 X123.5784 Y3.9758
G1 X122.826 Y3.9756
G1 X122.7427 Y3.8502
G1 X122.826 Y3.9756
G1 X118.9392 Y13.2243
G1 X118.8757
G1 X118.9392
G1 X121.4903 Y19.292
G1 Z-2.95
G1 X122.8281 Y22.4741
G1 X122.7449 Y22.5993
G1 X122.8281 Y22.4741
G1 X123.5803 Y22.4743
G1 X123.8001 Y22.6941
G1 X123.5803 Y22.4743
G1 X123.5784 Y3.9758
G1 X123.7979 Y3.7563
G1 X123.5784 Y3.9758
G1 X122.826 Y3.9756
G1 X122.7427 Y3.8502
G1 X122.826 Y3.9756
G1 X118.9392 Y13.2243
G1 X118.8757
G1 X118.9392
G1 X121.4903 Y19.292
G0 Z3.0
G0 X116.4987 Y11.5865
G0 Z1.0
G1 Z-1.0
G1 X116.4988 Y10.4015
G1 X119.2016 Y3.9755
G1 X119.7058 Y3.6407
G1 X119.2016 Y3.9755
G1 X113.7974 Y3.974
G1 X113.2932 Y3.6389
G1 X113.7974 Y3.974
G1 X116.4988 Y10.4015
G1 X116.4987 Y11.5865
G1 Z-2.0
G1 X116.4988 Y10.4015
G1 X119.2016 Y3.9755
G1 X119.7058 Y3.6407
G1 X119.2016 Y3.9755
G1 X113.7974 Y3.974
G1 X113.2932 Y3.6389
G1 X113.7974 Y3.974
G1 X116.4988 Y10.4015
G1 X116.4987 Y11.5865
G1 Z-2.95
G1 X116.4988 Y10.4015
G1 X119.2016 Y3.9755
G1 X119.7058 Y3.6407
G1 X119.2016 Y3.9755
G1 X113.7974 Y3.974
G1 X113.2932 Y3.6389
G1 X113.7974 Y3.974
G1 X116.4988 Y10.4015
G1 X116.4987 Y11.5865
G0 Z3.0
G0 X100.5121
G0 Z1.0
G1 Z-1.0
G1 Y4.2564
G1 X100.7318 Y4.0367
G1 X100.5121 Y4.2564
G1 X100.0113
G1 X99.7917 Y4.0367
G1 X100.0113 Y4.2564
G1 Y22.7564
G1 X99.7917 Y22.9761
G1 X100.0113 Y22.7564
G1 X100.5121
G1 X100.7318 Y22.9761
G1 X100.5121 Y22.7564
G1 Y11.5865
G1 Z-2.0
G1 Y4.2564
G1 X100.7318 Y4.0367
G1 X100.5121 Y4.2564
G1 X100.0113
G1 X99.7917 Y4.0367
G1 X100.0113 Y4.2564
G1 Y22.7564
G1 X99.7917 Y22.9761
G1 X100.0113 Y22.7564
G1 X100.5121
G1 X100.7318 Y22.9761
G1 X100.5121 Y22.7564
G1 Y11.5865
G1 Z-2.95
G1 Y4.2564
G1 X100.7318 Y4.0367
G1 X100.5121 Y4.2564
G1 X100.0113
G1 X99.7917 Y4.0367
G1 X100.0113 Y4.2564
G1 Y22.7564
G1 X99.7917 Y22.9761
G1 X100.0113 Y22.7564
G1 X100.5121
G1 X100.7318 Y22.9761
G1 X100.5121 Y22.7564
G1 Y11.5865
G0 Z3.0
G0 X83.6303 Y11.587
G0 Z1.0
G1 Z-1.0
G1 X83.6301 Y4.0967
G1 X83.8495 Y3.8774
G1 X83.6301 Y4.0967
G1 X83.1308 Y4.0963
G1 X82.9109 Y3.8762
G1 X83.1308 Y4.0963
G1 X83.1315 Y22.5964
G1 X82.912 Y22.8157
G1 X83.1315 Y22.5964
G1 X83.6306 Y22.5968
G1 X83.8505 Y22.8168
G1 X83.6306 Y22.5968
G1 X83.6303 Y11.587
G1 Z-2.0
G1 X83.6301 Y4.0967
G1 X83.8495 Y3.8774
G1 X83.6301 Y4.0967
G1 X83.1308 Y4.0963
G1 X82.9109 Y3.8762
G1 X83.1308 Y4.0963
G1 X83.1315 Y22.5964
G1 X82.912 Y22.8157
G1 X83.1315 Y22.5964
G1 X83.6306 Y22.5968
G1 X83.8505 Y22.8168
G1 X83.6306 Y22.5968
G1 X83.6303 Y11.587
G1 Z-2.95
G1 X83.6301 Y4.0967
G1 X83.8495 Y3.8774
G1 X83.6301 Y4.0967
G1 X83.1308 Y4.0963
G1 X82.9109 Y3.8762
G1 X83.1308 Y4.0963
G1 X83.1315 Y22.5964
G1 X82.912 Y22.8157
G1 X83.1315 Y22.5964
G1 X83.6306 Y22.5968
G1 X83.8505 Y22.8168
G1 X83.6306 Y22.5968
G1 X83.6303 Y11.587
G0 Z3.0
G0 X79.6301 Y11.5869
G0 Z1.0
G1 Z-1.0
G1 X79.6304 Y4.0957
G1 X79.8498 Y3.8764
G1 X79.6304 Y4.0957
G1 X79.1311 Y4.0953
G1 X78.9112 Y3.8752
G1 X79.1311 Y4.0953
G1 X79.1306 Y22.5976
G1 X78.9111 Y22.8169
G1 X79.1306 Y22.5976
G1 X79.6297 Y22.598
G1 X79.8495 Y22.818
G1 X79.6297 Y22.598
G1 X79.6301 Y11.5869
G1 Z-2.0
G1 X79.6304 Y4.0957
G1 X79.8498 Y3.8764
G1 X79.6304 Y4.0957
G1 X79.1311 Y4.0953
G1 X78.9112 Y3.8752
G1 X79.1311 Y4.0953
G1 X79.1306 Y22.5976
G1 X78.9111 Y22.8169
G1 X79.1306 Y22.5976
G1 X79.6297 Y22.598
G1 X79.8495 Y22.818
G1 X79.6297 Y22.598
G1 X79.6301 Y11.5869
G1 Z-2.95
G1 X79.6304 Y4.0957
G1 X79.8498 Y3.8764
G1 X79.6304 Y4.0957
G1 X79.1311 Y4.0953
G1 X78.9112 Y3.8752
G1 X79.1311 Y4.0953
G1 X79.1306 Y22.5976
G1 X78.9111 Y22.8169
G1 X79.1306 Y22.5976
G1 X79.6297 Y22.598
G1 X79.8495 Y22.818
G1 X79.6297 Y22.598
G1 X79.6301 Y11.5869
G0 Z3.0
G0 X75.6301 Y11.5872
G0 Z1.0
G1 Z-1.0
G1 X75.6295 Y4.097
G1 X75.8489 Y3.8777
G1 X75.6295 Y4.097
G1 X75.1304 Y4.0966
G1 X74.9105 Y3.8766
G1 X75.1304 Y4.0966
G1 X75.1305 Y22.5956
G1 X74.9107 Y22.8154
G1 X75.1305 Y22.5956
G1 X75.631 Y22.5955
G1 X75.8506 Y22.815
G1 X75.631 Y22.5955
G1 X75.6301 Y11.5872
G1 Z-2.0
G1 X75.6295 Y4.097
G1 X75.8489 Y3.8777
G1 X75.6295 Y4.097
G1 X75.1304 Y4.0966
G1 X74.9105 Y3.8766
G1 X75.1304 Y4.0966
G1 X75.1305 Y22.5956
G1 X74.9107 Y22.8154
G1 X75.1305 Y22.5956
G1 X75.631 Y22.5955
G1 X75.8506 Y22.815
G1 X75.631 Y22.5955
G1 X75.6301 Y11.5872
G1 Z-2.95
G1 X75.6295 Y4.097
G1 X75.8489 Y3.8777
G1 X75.6295 Y4.097
G1 X75.1304 Y4.0966
G1 X74.9105 Y3.8766
G1 X75.1304 Y4.0966
G1 X75.1305 Y22.5956
G1 X74.9107 Y22.8154
G1 X75.1305 Y22.5956
G1 X75.631 Y22.5955
G1 X75.8506 Y22.815
G1 X75.631 Y22.5955
G1 X75.6301 Y11.5872
G0 Z3.0
G0 X44.2436
G0 Z1.0
G1 Z-1.0
G1 Y4.2604
G1 X44.4633 Y4.0407
G1 X44.2436 Y4.2604
G1 X39.4918
G1 X39.1422 Y3.9798
G1 X39.4918 Y4.2604
G1 X43.594 Y22.7596
G1 X43.4615 Y22.9247
G1 X43.594 Y22.7596
G1 X44.2436
G1 X44.4633 Y22.9793
G1 X44.2436 Y22.7596
G1 Y11.5872
G1 Z-2.0
G1 Y4.2604
G1 X44.4633 Y4.0407
G1 X44.2436 Y4.2604
G1 X39.4918
G1 X39.1422 Y3.9798
G1 X39.4918 Y4.2604
G1 X43.594 Y22.7596
G1 X43.4615 Y22.9247
G1 X43.594 Y22.7596
G1 X44.2436
G1 X44.4633 Y22.9793
G1 X44.2436 Y22.7596
G1 Y11.5872
G1 Z-2.95
G1 Y4.2604
G1 X44.4633 Y4.0407
G1 X44.2436 Y4.2604
G1 X39.4918
G1 X39.1422 Y3.9798
G1 X39.4918 Y4.2604
G1 X43.594 Y22.7596
G1 X43.4615 Y22.9247
G1 X43.594 Y22.7596
G1 X44.2436
G1 X44.4633 Y22.9793
G1 X44.2436 Y22.7596
G1 Y11.5872
G0 Z3.0
G0 X37.8462 Y13.0049
G0 Z1.0
G1 Z-1.0
G1 X36.9924 Y9.1519
G1 X36.9926 Y6.4364
G1 X36.9924 Y9.1519
G1 X33.9749 Y22.7596
G1 X33.6253 Y23.0402
G1 X33.9749 Y22.7596
G1 X40.0079
G1 X40.3574 Y23.0402
G1 X40.0079 Y22.7596
G1 X37.8462 Y13.0049
G1 Z-2.0
G1 X36.9924 Y9.1519
G1 X36.9926 Y6.4364
G1 X36.9924 Y9.1519
G1 X33.9749 Y22.7596
G1 X33.6253 Y23.0402
G1 X33.9749 Y22.7596
G1 X40.0079
G1 X40.3574 Y23.0402
G1 X40.0079 Y22.7596
G1 X37.8462 Y13.0049
G1 Z-2.95
G1 X36.9924 Y9.1519
G1 X36.9926 Y6.4364
G1 X36.9924 Y9.1519
G1 X33.9749 Y22.7596
G1 X33.6253 Y23.0402
G1 X33.9749 Y22.7596
G1 X40.0079
G1 X40.3574 Y23.0402
G1 X40.0079 Y22.7596
G1 X37.8462 Y13.0049
G0 Z3.0
G0 X20.8961 Y13.0047
G0 Z1.0
G1 Z-1.0
G1 X20.8962 Y3.492
G1 X21.1157 Y3.2725
G1 X20.8962 Y3.492
G1 X20.3963 Y3.4918
G1 X20.1766 Y3.272
G1 X20.3963 Y3.4918
G1 Y21.9919
G1 X20.1768 Y22.2113
G1 X20.3963 Y21.9919
G1 X20.896 Y21.9922
G1 X21.1158 Y22.2121
G1 X20.896 Y21.9922
G1 X20.8961 Y13.0047
G1 Z-2.0
G1 X20.8962 Y3.492
G1 X21.1157 Y3.2725
G1 X20.8962 Y3.492
G1 X20.3963 Y3.4918
G1 X20.1766 Y3.272
G1 X20.3963 Y3.4918
G1 Y21.9919
G1 X20.1768 Y22.2113
G1 X20.3963 Y21.9919
G1 X20.896 Y21.9922
G1 X21.1158 Y22.2121
G1 X20.896 Y21.9922
G1 X20.8961 Y13.0047
G1 Z-2.95
G1 X20.8962 Y3.492
G1 X21.1157 Y3.2725
G1 X20.8962 Y3.492
G1 X20.3963 Y3.4918
G1 X20.1766 Y3.272
G1 X20.3963 Y3.4918
G1 Y21.9919
G1 X20.1768 Y22.2113
G1 X20.3963 Y21.9919
G1 X20.896 Y21.9922
G1 X21.1158 Y22.2121
G1 X20.896 Y21.9922
G1 X20.8961 Y13.0047
G0 Z3.0
G0 X16.8959
G0 Z1.0
G1 Z-1.0
G1 X16.896 Y3.4917
G1 X17.1157 Y3.272
G1 X16.896 Y3.4917
G1 X12.1455 Y3.4918
G1 X11.7959 Y3.2113
G1 X12.1455 Y3.4918
G1 X16.2473 Y21.9921
G1 X16.1148 Y22.1572
G1 X16.2473 Y21.9921
G1 X16.8959 Y21.992
G1 X17.1155 Y22.2116
G1 X16.8959 Y21.992
G1 Y13.0047
G1 Z-2.0
G1 X16.896 Y3.4917
G1 X17.1157 Y3.272
G1 X16.896 Y3.4917
G1 X12.1455 Y3.4918
G1 X11.7959 Y3.2113
G1 X12.1455 Y3.4918
G1 X16.2473 Y21.9921
G1 X16.1148 Y22.1572
G1 X16.2473 Y21.9921
G1 X16.8959 Y21.992
G1 X17.1155 Y22.2116
G1 X16.8959 Y21.992
G1 Y13.0047
G1 Z-2.95
G1 X16.896 Y3.4917
G1 X17.1157 Y3.272
G1 X16.896 Y3.4917
G1 X12.1455 Y3.4918
G1 X11.7959 Y3.2113
G1 X12.1455 Y3.4918
G1 X16.2473 Y21.9921
G1 X16.1148 Y22.1572
G1 X16.2473 Y21.9921
G1 X16.8959 Y21.992
G1 X17.1155 Y22.2116
G1 X16.8959 Y21.992
G1 Y13.0047
G0 Z3.0
G0 X10.9617 Y14.3196
G0 Z1.0
G1 Z-1.0
G1 X9.6464 Y8.3835
G1 X9.6466 Y5.668
G1 X9.6464 Y8.3835
G1 X6.6285 Y21.9922
G1 X6.2788 Y22.2728
G1 X6.6285 Y21.9922
G1 X12.6615 Y21.9913
G1 X13.011 Y22.2717
G1 X12.6615 Y21.9913
G1 X10.9617 Y14.3196
G1 Z-2.0
G1 X9.6464 Y8.3835
G1 X9.6466 Y5.668
G1 X9.6464 Y8.3835
G1 X6.6285 Y21.9922
G1 X6.2788 Y22.2728
G1 X6.6285 Y21.9922
G1 X12.6615 Y21.9913
G1 X13.011 Y22.2717
G1 X12.6615 Y21.9913
G1 X10.9617 Y14.3196
G1 Z-2.95
G1 X9.6464 Y8.3835
G1 X9.6466 Y5.668
G1 X9.6464 Y8.3835
G1 X6.6285 Y21.9922
G1 X6.2788 Y22.2728
G1 X6.6285 Y21.9922
G1 X12.6615 Y21.9913
G1 X13.011 Y22.2717
G1 X12.6615 Y21.9913
G1 X10.9617 Y14.3196
G0 Z3.0
G0 X12.929 Y31.4727
G0 Z1.0
G1 Z-1.0
G1 X13.2787 Y31.7534
G1 X17.3802 Y50.253
G1 X17.2478 Y50.418
G1 X17.3802 Y50.253
G1 X18.0285 Y50.2531
G1 X18.2482 Y50.4729
G1 X18.0285 Y50.2531
G1 X18.0283 Y31.7544
G1 X18.2479 Y31.5348
G1 X18.0283 Y31.7544
G1 X13.2787 Y31.7534
G1 X12.929 Y31.4727
G1 Z-2.0
G1 X13.2787 Y31.7534
G1 X17.3802 Y50.253
G1 X17.2478 Y50.418
G1 X17.3802 Y50.253
G1 X18.0285 Y50.2531
G1 X18.2482 Y50.4729
G1 X18.0285 Y50.2531
G1 X18.0283 Y31.7544
G1 X18.2479 Y31.5348
G1 X18.0283 Y31.7544
G1 X13.2787 Y31.7534
G1 X12.929 Y31.4727
G1 Z-2.95
G1 X13.2787 Y31.7534
G1 X17.3802 Y50.253
G1 X17.2478 Y50.418
G1 X17.3802 Y50.253
G1 X18.0285 Y50.2531
G1 X18.2482 Y50.4729
G1 X18.0285 Y50.2531
G1 X18.0283 Y31.7544
G1 X18.2479 Y31.5348
G1 X18.0283 Y31.7544
G1 X13.2787 Y31.7534
G1 X12.929 Y31.4727
G0 Z3.0
G0 X20.4892 Y31.5289
G0 Z1.0
G1 Z-1.0
G1 X20.717 Y31.7531
G1 X21.0186 Y50.2533
G1 X20.8068 Y50.4686
G1 X21.0186 Y50.2533
G1 X21.5189 Y50.2534
G1 X21.7466 Y50.4775
G1 X21.5189 Y50.2534
G1 X21.2174 Y31.7532
G1 X21.4292 Y31.538
G1 X21.2174 Y31.7532
G1 X20.717 Y31.7531
G1 X20.4892 Y31.5289
G1 Z-2.0
G1 X20.717 Y31.7531
G1 X21.0186 Y50.2533
G1 X20.8068 Y50.4686
G1 X21.0186 Y50.2533
G1 X21.5189 Y50.2534
G1 X21.7466 Y50.4775
G1 X21.5189 Y50.2534
G1 X21.2174 Y31.7532
G1 X21.4292 Y31.538
G1 X21.2174 Y31.7532
G1 X20.717 Y31.7531
G1 X20.4892 Y31.5289
G1 Z-2.95
G1 X20.717 Y31.7531
G1 X21.0186 Y50.2533
G1 X20.8068 Y50.4686
G1 X21.0186 Y50.2533
G1 X21.5189 Y50.2534
G1 X21.7466 Y50.4775
G1 X21.5189 Y50.2534
G1 X21.2174 Y31.7532
G1 X21.4292 Y31.538
G1 X21.2174 Y31.7532
G1 X20.717 Y31.7531
G1 X20.4892 Y31.5289
G0 Z3.0
G0 X24.4891 Y31.5278
G0 Z1.0
G1 Z-1.0
G1 X24.7169 Y31.752
G1 X25.0121 Y49.8832
G1 X24.7962 Y50.1062
G1 X25.0121 Y49.8832
G1 X25.5133 Y49.8752
G1 X25.7367 Y50.0915
G1 X25.5133 Y49.8752
G1 X25.2171 Y31.7522
G1 X25.4288 Y31.537
G1 X25.2171 Y31.7522
G1 X24.7169 Y31.752
G1 X24.4891 Y31.5278
G1 Z-2.0
G1 X24.7169 Y31.752
G1 X25.0121 Y49.8832
G1 X24.7962 Y50.1062
G1 X25.0121 Y49.8832
G1 X25.5133 Y49.8752
G1 X25.7367 Y50.0915
G1 X25.5133 Y49.8752
G1 X25.2171 Y31.7522
G1 X25.4288 Y31.537
G1 X25.2171 Y31.7522
G1 X24.7169 Y31.752
G1 X24.4891 Y31.5278
G1 Z-2.95
G1 X24.7169 Y31.752
G1 X25.0121 Y49.8832
G1 X24.7962 Y50.1062
G1 X25.0121 Y49.8832
G1 X25.5133 Y49.8752
G1 X25.7367 Y50.0915
G1 X25.5133 Y49.8752
G1 X25.2171 Y31.7522
G1 X25.4288 Y31.537
G1 X25.2171 Y31.7522
G1 X24.7169 Y31.752
G1 X24.4891 Y31.5278
G0 Z3.0
G0 X38.3157 Y31.0225
G0 Z1.0
G1 Z-1.0
G1 X38.5354 Y31.2421
G1 Y49.7419
G1 X38.3157 Y49.9615
G1 X38.5354 Y49.7419
G1 X39.2882
G1 X39.3714 Y49.8671
G1 X39.2882 Y49.7419
G1 X43.1773 Y40.4926
G1 X43.2409
G1 X43.1773
G1 X39.2882 Y31.2421
G1 X39.3714 Y31.1168
G1 X39.2882 Y31.2421
G1 X38.5354
G1 X38.3157 Y31.0225
G1 Z-2.0
G1 X38.5354 Y31.2421
G1 Y49.7419
G1 X38.3157 Y49.9615
G1 X38.5354 Y49.7419
G1 X39.2882
G1 X39.3714 Y49.8671
G1 X39.2882 Y49.7419
G1 X43.1773 Y40.4926
G1 X43.2409
G1 X43.1773
G1 X39.2882 Y31.2421
G1 X39.3714 Y31.1168
G1 X39.2882 Y31.2421
G1 X38.5354
G1 X38.3157 Y31.0225
G1 Z-2.95
G1 X38.5354 Y31.2421
G1 Y49.7419
G1 X38.3157 Y49.9615
G1 X38.5354 Y49.7419
G1 X39.2882
G1 X39.3714 Y49.8671
G1 X39.2882 Y49.7419
G1 X43.1773 Y40.4926
G1 X43.2409
G1 X43.1773
G1 X39.2882 Y31.2421
G1 X39.3714 Y31.1168
G1 X39.2882 Y31.2421
G1 X38.5354
G1 X38.3157 Y31.0225
G0 Z3.0
G0 X42.4106 Y30.9071
G0 Z1.0
G1 Z-1.0
G1 X42.9149 Y31.2421
G1 X45.6171 Y37.6675
G1 X45.6172 Y38.8526
G1 X45.6171 Y37.6675
G1 X48.3178 Y31.2421
G1 X48.8219 Y30.9072
G1 X48.3178 Y31.2421
G1 X42.9149
G1 X42.4106 Y30.9071
G1 Z-2.0
G1 X42.9149 Y31.2421
G1 X45.6171 Y37.6675
G1 X45.6172 Y38.8526
G1 X45.6171 Y37.6675
G1 X48.3178 Y31.2421
G1 X48.8219 Y30.9072
G1 X48.3178 Y31.2421
G1 X42.9149
G1 X42.4106 Y30.9071
G1 Z-2.95
G1 X42.9149 Y31.2421
G1 X45.6171 Y37.6675
G1 X45.6172 Y38.8526
G1 X45.6171 Y37.6675
G1 X48.3178 Y31.2421
G1 X48.8219 Y30.9072
G1 X48.3178 Y31.2421
G1 X42.9149
G1 X42.4106 Y30.9071
G0 Z3.0
G0 X45.7864 Y42.1316
G0 Z1.0
G1 Z-1.0
G1 X45.7863 Y43.3167
G1 X43.0846 Y49.7419
G1 X42.5803 Y50.0768
G1 X43.0846 Y49.7419
G1 X48.4874
G1 X48.9915 Y50.0768
G1 X48.4874 Y49.7419
G1 X45.7863 Y43.3167
G1 X45.7864 Y42.1316
G1 Z-2.0
G1 X45.7863 Y43.3167
G1 X43.0846 Y49.7419
G1 X42.5803 Y50.0768
G1 X43.0846 Y49.7419
G1 X48.4874
G1 X48.9915 Y50.0768
G1 X48.4874 Y49.7419
G1 X45.7863 Y43.3167
G1 X45.7864 Y42.1316
G1 Z-2.95
G1 X45.7863 Y43.3167
G1 X43.0846 Y49.7419
G1 X42.5803 Y50.0768
G1 X43.0846 Y49.7419
G1 X48.4874
G1 X48.9915 Y50.0768
G1 X48.4874 Y49.7419
G1 X45.7863 Y43.3167
G1 X45.7864 Y42.1316
G0 Z3.0
G0 X61.9065 Y50.9572
G0 Z1.0
G1 Z-1.0
G1 X62.4084 Y50.6202
G1 X67.7415 Y50.5961
G1 X68.2373 Y50.9257
G1 X67.7415 Y50.5961
G1 X65.0797 Y44.17
G1 X65.0796 Y42.9601
G1 X65.0797 Y44.17
G1 X62.4084 Y50.6202
G1 X61.9065 Y50.9572
G1 Z-2.0
G1 X62.4084 Y50.6202
G1 X67.7415 Y50.5961
G1 X68.2373 Y50.9257
G1 X67.7415 Y50.5961
G1 X65.0797 Y44.17
G1 X65.0796 Y42.9601
G1 X65.0797 Y44.17
G1 X62.4084 Y50.6202
G1 X61.9065 Y50.9572
G1 Z-2.95
G1 X62.4084 Y50.6202
G1 X67.7415 Y50.5961
G1 X68.2373 Y50.9257
G1 X67.7415 Y50.5961
G1 X65.0797 Y44.17
G1 X65.0796 Y42.9601
G1 X65.0797 Y44.17
G1 X62.4084 Y50.6202
G1 X61.9065 Y50.9572
G0 Z3.0
G0 X54.5362
G0 Z1.0
G1 Z-1.0
G1 Y52.4929
G3 X53.7862 Y53.2429 I-0.75 J0.0
G1 X33.7867
G3 X33.0367 Y52.4929 I0.0 J-0.75
G1 Y50.4919
G3 X33.7867 Y49.7419 I0.75 J0.0
G1 X35.0362
G1 X35.2558 Y49.9615
G1 X35.0362 Y49.7419
G1 Y31.2421
G1 X35.2558 Y31.0225
G1 X35.0362 Y31.2421
G1 X33.7867
G3 X33.0367 Y30.4921 I0.0 J-0.75
G1 Y28.4931
G3 X33.7867 Y27.7431 I0.75 J0.0
G1 X53.7862
G3 X54.5362 Y28.4931 I0.0 J0.75
G1 Y30.4921
G3 X53.7862 Y31.2421 I-0.75 J0.0
G1 X52.2849
G1 X52.2017 Y31.1168
G1 X52.2849 Y31.2421
G1 X48.3958 Y40.4926
G1 X48.3322
G1 X48.3958
G1 X52.2849 Y49.7419
G1 X52.2017 Y49.8671
G1 X52.2849 Y49.7419
G1 X53.7862
G3 X54.5362 Y50.4919 I0.0 J0.75
G1 Y50.9572
G1 Z-2.0
G1 Y52.4929
G3 X53.7862 Y53.2429 I-0.75 J0.0
G1 X33.7867
G3 X33.0367 Y52.4929 I0.0 J-0.75
G1 Y50.4919
G3 X33.7867 Y49.7419 I0.75 J0.0
G1 X35.0362
G1 X35.2558 Y49.9615
G1 X35.0362 Y49.7419
G1 Y31.2421
G1 X35.2558 Y31.0225
G1 X35.0362 Y31.2421
G1 X33.7867
G3 X33.0367 Y30.4921 I0.0 J-0.75
G1 Y28.4931
G3 X33.7867 Y27.7431 I0.75 J0.0
G1 X53.7862
G3 X54.5362 Y28.4931 I0.0 J0.75
G1 Y30.4921
G3 X53.7862 Y31.2421 I-0.75 J0.0
G1 X52.2849
G1 X52.2017 Y31.1168
G1 X52.2849 Y31.2421
G1 X48.3958 Y40.4926
G1 X48.3322
G1 X48.3958
G1 X52.2849 Y49.7419
G1 X52.2017 Y49.8671
G1 X52.2849 Y49.7419
G1 X53.7862
G3 X54.5362 Y50.4919 I0.0 J0.75
G1 Y50.9572
G1 Z-2.95
G1 Y52.4929
G3 X53.7862 Y53.2429 I-0.75 J0.0
G1 X33.7867
G3 X33.0367 Y52.4929 I0.0 J-0.75
G1 Y50.4919
G3 X33.7867 Y49.7419 I0.75 J0.0
G1 X35.0362
G1 X35.2558 Y49.9615
G1 X35.0362 Y49.7419
G1 Y31.2421
G1 X35.2558 Y31.0225
G1 X35.0362 Y31.2421
G1 X33.7867
G3 X33.0367 Y30.4921 I0.0 J-0.75
G1 Y28.4931
G3 X33.7867 Y27.7431 I0.75 J0.0
G1 X53.7862
G3 X54.5362 Y28.4931 I0.0 J0.75
G1 Y30.4921
G3 X53.7862 Y31.2421 I-0.75 J0.0
G1 X52.2849
G1 X52.2017 Y31.1168
G1 X52.2849 Y31.2421
G1 X48.3958 Y40.4926
G1 X48.3322
G1 X48.3958
G1 X52.2849 Y49.7419
G1 X52.2017 Y49.8671
G1 X52.2849 Y49.7419
G1 X53.7862
G3 X54.5362 Y50.4919 I0.0 J0.75
G1 Y50.9572
G0 Z3.0
G0 X65.059 Y39.7587
G0 Z1.0
G1 Z-1.0
G1 X65.0592 Y38.5488
G1 X67.7319 Y32.1
G1 X68.2339 Y31.763
G1 X67.7319 Y32.1
G1 X62.3993 Y32.1234
G1 X61.9036 Y31.7937
G1 X62.3993 Y32.1234
G1 X65.0592 Y38.5488
G1 X65.059 Y39.7587
G0 Z3.0
G0 X67.6334 Y41.3363
G0 Z1.0
G1 Z-1.0
G1 X67.6951
G1 X71.5439 Y50.6325
G1 X71.4598 Y50.7577
G1 X71.5439 Y50.6325
G1 X73.0462 Y50.639
G3 X73.7924 Y51.3611 I-0.0032 J0.75
G1 X73.8647 Y53.3034
G3 X73.1193 Y54.0812 I-0.7495 J0.0279
G1 X57.1206 Y54.1667
G3 X56.3666 Y53.4205 I-0.004 J-0.75
G1 X56.3566 Y51.4209
G3 X57.102 Y50.6672 I0.75 J-0.0037
G1 X58.6028 Y50.658
G1 X58.6866 Y50.7826
G1 X58.6028 Y50.658
G1 X62.4454 Y41.3837
G1 X62.5072
G1 X62.4454
G1 X58.6055 Y32.1119
G1 X58.69 Y31.9854
G1 X58.6055 Y32.1119
G1 X57.1063 Y32.1123
G3 X56.3561 Y31.3625 I-0.0002 J-0.75
G1 X56.3555 Y29.3619
G3 X57.1055 Y28.6117 I0.75 J-0.0002
G1 X73.1054 Y28.6105
G3 X73.8548 Y29.3903 I0.0001 J0.75
G1 X73.7764 Y31.36
G3 X73.0264 Y32.0802 I-0.7494 J-0.0298
G1 X71.5287 Y32.0789
G1 X71.4442 Y31.9523
G1 X71.5287 Y32.0789
G1 X67.6951 Y41.3363
G1 X67.6334
G0 Z3.0
G0 X65.059 Y39.7587
G0 Z0.0
G1 Z-2.0
G1 X65.0592 Y38.5488
G1 X67.7319 Y32.1
G1 X68.2339 Y31.763
G1 X67.7319 Y32.1
G1 X62.3993 Y32.1234
G1 X61.9036 Y31.7937
G1 X62.3993 Y32.1234
G1 X65.0592 Y38.5488
G1 X65.059 Y39.7587
G0 Z3.0
G0 X67.6334 Y41.3363
G0 Z0.0
G1 Z-2.0
G1 X67.6951
G1 X71.5439 Y50.6325
G1 X71.4598 Y50.7577
G1 X71.5439 Y50.6325
G1 X73.0462 Y50.639
G3 X73.7924 Y51.3611 I-0.0032 J0.75
G1 X73.8647 Y53.3034
G3 X73.1193 Y54.0812 I-0.7495 J0.0279
G1 X57.1206 Y54.1667
G3 X56.3666 Y53.4205 I-0.004 J-0.75
G1 X56.3566 Y51.4209
G3 X57.102 Y50.6672 I0.75 J-0.0037
G1 X58.6028 Y50.658
G1 X58.6866 Y50.7826
G1 X58.6028 Y50.658
G1 X62.4454 Y41.3837
G1 X62.5072
G1 X62.4454
G1 X58.6055 Y32.1119
G1 X58.69 Y31.9854
G1 X58.6055 Y32.1119
G1 X57.1063 Y32.1123
G3 X56.3561 Y31.3625 I-0.0002 J-0.75
G1 X56.3555 Y29.3619
G3 X57.1055 Y28.6117 I0.75 J-0.0002
G1 X73.1054 Y28.6105
G3 X73.8548 Y29.3903 I0.0001 J0.75
G1 X73.7764 Y31.36
G3 X73.0264 Y32.0802 I-0.7494 J-0.0298
G1 X71.5287 Y32.0789
G1 X71.4442 Y31.9523
G1 X71.5287 Y32.0789
G1 X67.6951 Y41.3363
G1 X67.6334
G0 Z3.0
G0 X65.059 Y39.7587
G0 Z-1.0
G1 Z-2.95
G1 X65.0592 Y38.5488
G1 X67.7319 Y32.1
G1 X68.2339 Y31.763
G1 X67.7319 Y32.1
G1 X62.3993 Y32.1234
G1 X61.9036 Y31.7937
G1 X62.3993 Y32.1234
G1 X65.0592 Y38.5488
G1 X65.059 Y39.7587
G0 Z3.0
G0 X67.6334 Y41.3363
G0 Z-1.0
G1 Z-2.95
G1 X67.6951
G1 X71.5439 Y50.6325
G1 X71.4598 Y50.7577
G1 X71.5439 Y50.6325
G1 X73.0462 Y50.639
G3 X73.7924 Y51.3611 I-0.0032 J0.75
G1 X73.8647 Y53.3034
G3 X73.1193 Y54.0812 I-0.7495 J0.0279
G1 X57.1206 Y54.1667
G3 X56.3666 Y53.4205 I-0.004 J-0.75
G1 X56.3566 Y51.4209
G3 X57.102 Y50.6672 I0.75 J-0.0037
G1 X58.6028 Y50.658
G1 X58.6866 Y50.7826
G1 X58.6028 Y50.658
G1 X62.4454 Y41.3837
G1 X62.5072
G1 X62.4454
G1 X58.6055 Y32.1119
G1 X58.69 Y31.9854
G1 X58.6055 Y32.1119
G1 X57.1063 Y32.1123
G3 X56.3561 Y31.3625 I-0.0002 J-0.75
G1 X56.3555 Y29.3619
G3 X57.1055 Y28.6117 I0.75 J-0.0002
G1 X73.1054 Y28.6105
G3 X73.8548 Y29.3903 I0.0001 J0.75
G1 X73.7764 Y31.36
G3 X73.0264 Y32.0802 I-0.7494 J-0.0298
G1 X71.5287 Y32.0789
G1 X71.4442 Y31.9523
G1 X71.5287 Y32.0789
G1 X67.6951 Y41.3363
G1 X67.6334
G0 Z3.0
G0 X80.6872 Y41.3364
G0 Z1.0
G1 Z-1.0
G1 X80.6871 Y50.3554
G1 X80.4675 Y50.5749
G1 X80.6871 Y50.3554
G1 X81.1877 Y50.3555
G1 X81.4074 Y50.5753
G1 X81.1877 Y50.3555
G1 X81.1878 Y31.8557
G1 X81.4074 Y31.6362
G1 X81.1878 Y31.8557
G1 X80.6872 Y31.8556
G1 X80.4675 Y31.6358
G1 X80.6872 Y31.8556
G1 Y41.3364
G0 Z3.0
G0 X77.1872 Y41.3361
G0 Z1.0
G1 Z-1.0
G1 X77.1879 Y31.856
G1 X77.4072 Y31.637
G1 X77.1879 Y31.856
G1 X75.935 Y31.8543
G3 X75.1861 Y31.1036 I0.001 J-0.75
G1 X75.1879 Y29.1052
G3 X75.9377 Y28.3559 I0.75 J0.0007
G1 X85.9381 Y28.3542
G3 X86.6882 Y29.1039 I0.0001 J0.75
G1 X86.689 Y31.1067
G3 X85.9388 Y31.857 I-0.75 J0.0003
G1 X84.6884 Y31.8566
G1 X84.4686 Y31.6368
G1 X84.6884 Y31.8566
G1 X84.6883 Y50.3556
G1 X84.4684 Y50.5757
G1 X84.6883 Y50.3556
G1 X85.937 Y50.3546
G3 X86.6876 Y51.1048 I0.0006 J0.75
G1 X86.687 Y53.1054
G3 X85.9371 Y53.8552 I-0.75 J-0.0002
G1 X75.9389 Y53.8556
G3 X75.1889 Y53.1054 I0.0 J-0.75
G1 X75.1894 Y51.1048
G3 X75.9393 Y50.355 I0.75 J0.0002
G1 X77.1866 Y50.3548
G1 X77.4062 Y50.5743
G1 X77.1866 Y50.3548
G1 X77.1872 Y41.3361
G0 Z3.0
G0 X80.6872
G0 Z0.0
G1 Z-2.0
G1 X80.6871 Y50.3554
G1 X80.4675 Y50.5749
G1 X80.6871 Y50.3554
G1 X81.1877 Y50.3555
G1 X81.4074 Y50.5753
G1 X81.1877 Y50.3555
G1 X81.1878 Y31.8557
G1 X81.4074 Y31.6362
G1 X81.1878 Y31.8557
G1 X80.6872 Y31.8556
G1 X80.4675 Y31.6358
G1 X80.6872 Y31.8556
G1 Y41.3361
G0 Z3.0
G0 X77.1872 Y41.3359
G0 Z0.0
G1 Z-2.0
G1 X77.1879 Y31.856
G1 X77.4072 Y31.637
G1 X77.1879 Y31.856
G1 X75.935 Y31.8543
G3 X75.1861 Y31.1036 I0.001 J-0.75
G1 X75.1879 Y29.1052
G3 X75.9377 Y28.3559 I0.75 J0.0007
G1 X85.9381 Y28.3542
G3 X86.6882 Y29.1039 I0.0001 J0.75
G1 X86.689 Y31.1067
G3 X85.9388 Y31.857 I-0.75 J0.0003
G1 X84.6884 Y31.8566
G1 X84.4686 Y31.6368
G1 X84.6884 Y31.8566
G1 X84.6883 Y50.3556
G1 X84.4684 Y50.5757
G1 X84.6883 Y50.3556
G1 X85.937 Y50.3546
G3 X86.6876 Y51.1048 I0.0006 J0.75
G1 X86.687 Y53.1054
G3 X85.9371 Y53.8552 I-0.75 J-0.0002
G1 X75.9389 Y53.8556
G3 X75.1889 Y53.1054 I0.0 J-0.75
G1 X75.1894 Y51.1048
G3 X75.9393 Y50.355 I0.75 J0.0002
G1 X77.1866 Y50.3548
G1 X77.4062 Y50.5743
G1 X77.1866 Y50.3548
G1 X77.1872 Y41.3359
G0 Z3.0
G0 X80.6872
G0 Z-0.95
G1 Z-2.95
G1 X80.6871 Y50.3554
G1 X80.4675 Y50.5749
G1 X80.6871 Y50.3554
G1 X81.1877 Y50.3555
G1 X81.4074 Y50.5753
G1 X81.1877 Y50.3555
G1 X81.1878 Y31.8557
G1 X81.4074 Y31.6362
G1 X81.1878 Y31.8557
G1 X80.6872 Y31.8556
G1 X80.4675 Y31.6358
G1 X80.6872 Y31.8556
G1 Y41.3359
G0 Z3.0
G0 X77.1872 Y41.3357
G0 Z-0.95
G1 Z-2.95
G1 X77.1879 Y31.856
G1 X77.4072 Y31.637
G1 X77.1879 Y31.856
G1 X75.935 Y31.8543
G3 X75.1861 Y31.1036 I0.001 J-0.75
G1 X75.1879 Y29.1052
G3 X75.9377 Y28.3559 I0.75 J0.0007
G1 X85.9381 Y28.3542
G3 X86.6882 Y29.1039 I0.0001 J0.75
G1 X86.689 Y31.1067
G3 X85.9388 Y31.857 I-0.75 J0.0003
G1 X84.6884 Y31.8566
G1 X84.4686 Y31.6368
G1 X84.6884 Y31.8566
G1 X84.6883 Y50.3556
G1 X84.4684 Y50.5757
G1 X84.6883 Y50.3556
G1 X85.937 Y50.3546
G3 X86.6876 Y51.1048 I0.0006 J0.75
G1 X86.687 Y53.1054
G3 X85.9371 Y53.8552 I-0.75 J-0.0002
G1 X75.9389 Y53.8556
G3 X75.1889 Y53.1054 I0.0 J-0.75
G1 X75.1894 Y51.1048
G3 X75.9393 Y50.355 I0.75 J0.0002
G1 X77.1866 Y50.3548
G1 X77.4062 Y50.5743
G1 X77.1866 Y50.3548
G1 X77.1872 Y41.3357
G0 Z3.0
G0 X77.1858 Y26.0969
G0 Z1.0
G1 Z-1.0
G1 X70.3799 Y26.0975
G3 X69.6298 Y25.3476 I-0.0001 J-0.75
G1 X69.6295 Y23.3472
G3 X70.3801 Y22.597 I0.75 J-0.0001
G1 X71.6289 Y22.5981
G1 X71.8488 Y22.8181
G1 X71.6289 Y22.5981
G1 X71.6318 Y4.0951
G1 X71.8516 Y3.8752
G1 X71.6318 Y4.0951
G1 X70.3818 Y4.0955
G3 X69.6316 Y3.3457 I-0.0003 J-0.75
G1 X69.6312 Y1.3452
G3 X70.3813 Y0.5951 I0.75 J-0.0001
G1 X88.3809 Y0.5958
G3 X89.1309 Y1.3457 I0.0 J0.75
G1 X89.1312 Y3.3461
G3 X88.3806 Y4.0962 I-0.75 J0.0001
G1 X87.1321 Y4.0953
G1 X86.9122 Y3.8753
G1 X87.1321 Y4.0953
G1 X87.131 Y22.5971
G1 X86.9115 Y22.8165
G1 X87.131 Y22.5971
G1 X88.3798 Y22.5978
G3 X89.1294 Y23.3474 I-0.0004 J0.75
G1 X89.1305 Y25.3454
G3 X88.3806 Y26.0958 I-0.75 J0.0004
G1 X77.1858 Y26.0969
G1 Z-2.0
G1 X70.3799 Y26.0975
G3 X69.6298 Y25.3476 I-0.0001 J-0.75
G1 X69.6295 Y23.3472
G3 X70.3801 Y22.597 I0.75 J-0.0001
G1 X71.6289 Y22.5981
G1 X71.8488 Y22.8181
G1 X71.6289 Y22.5981
G1 X71.6318 Y4.0951
G1 X71.8516 Y3.8752
G1 X71.6318 Y4.0951
G1 X70.3818 Y4.0955
G3 X69.6316 Y3.3457 I-0.0003 J-0.75
G1 X69.6312 Y1.3452
G3 X70.3813 Y0.5951 I0.75 J-0.0001
G1 X88.3809 Y0.5958
G3 X89.1309 Y1.3457 I0.0 J0.75
G1 X89.1312 Y3.3461
G3 X88.3806 Y4.0962 I-0.75 J0.0001
G1 X87.1321 Y4.0953
G1 X86.9122 Y3.8753
G1 X87.1321 Y4.0953
G1 X87.131 Y22.5971
G1 X86.9115 Y22.8165
G1 X87.131 Y22.5971
G1 X88.3798 Y22.5978
G3 X89.1294 Y23.3474 I-0.0004 J0.75
G1 X89.1305 Y25.3454
G3 X88.3806 Y26.0958 I-0.75 J0.0004
G1 X77.1858 Y26.0969
G1 Z-2.95
G1 X70.3799 Y26.0975
G3 X69.6298 Y25.3476 I-0.0001 J-0.75
G1 X69.6295 Y23.3472
G3 X70.3801 Y22.597 I0.75 J-0.0001
G1 X71.6289 Y22.5981
G1 X71.8488 Y22.8181
G1 X71.6289 Y22.5981
G1 X71.6318 Y4.0951
G1 X71.8516 Y3.8752
G1 X71.6318 Y4.0951
G1 X70.3818 Y4.0955
G3 X69.6316 Y3.3457 I-0.0003 J-0.75
G1 X69.6312 Y1.3452
G3 X70.3813 Y0.5951 I0.75 J-0.0001
G1 X88.3809 Y0.5958
G3 X89.1309 Y1.3457 I0.0 J0.75
G1 X89.1312 Y3.3461
G3 X88.3806 Y4.0962 I-0.75 J0.0001
G1 X87.1321 Y4.0953
G1 X86.9122 Y3.8753
G1 X87.1321 Y4.0953
G1 X87.131 Y22.5971
G1 X86.9115 Y22.8165
G1 X87.131 Y22.5971
G1 X88.3798 Y22.5978
G3 X89.1294 Y23.3474 I-0.0004 J0.75
G1 X89.1305 Y25.3454
G3 X88.3806 Y26.0958 I-0.75 J0.0004
G1 X77.1858 Y26.0969
G0 Z3.0
G0 X89.0845 Y29.295
G0 Z1.0
G1 Z-1.0
G3 X89.8088 Y28.7397 I0.7243 J0.1947
G1 X113.8093
G3 X114.5593 Y29.4897 I0.0 J0.75
G1 Y31.4912
G3 X113.8093 Y32.2412 I-0.75 J0.0
G1 X112.5577
G1 X112.3381 Y32.0215
G1 X112.5577 Y32.2412
G1 Y50.7412
G1 X112.3381 Y50.9608
G1 X112.5577 Y50.7412
G1 X113.8093
G3 X114.5593 Y51.4912 I0.0 J0.75
G1 Y53.4927
G3 X113.8093 Y54.2427 I-0.75 J0.0
G1 X89.8088
G3 X89.0588 Y53.4927 I0.0 J-0.75
G1 Y51.4912
G3 X89.8088 Y50.7412 I0.75 J0.0
G1 X91.3094
G1 X91.3927 Y50.8665
G1 X91.3094 Y50.7412
G1 X95.1979 Y41.4887
G1 X95.2615
G1 X95.1979
G1 X91.3095 Y32.2412
G1 X91.3927 Y32.1159
G1 X91.3095 Y32.2412
G1 X89.8088
G3 X89.0588 Y31.4912 I0.0 J-0.75
G1 Y29.4897
G3 X89.0845 Y29.295 I0.75 J0.0
G0 Z3.0
G0 X103.073 Y35.1733
G0 Z1.0
G1 Z-1.0
G1 X100.4191 Y41.4887
G1 X100.3556
G1 X100.4191
G1 X104.3052 Y50.7412
G1 X104.2219 Y50.8665
G1 X104.3052 Y50.7412
G1 X105.0583
G1 X105.2779 Y50.9608
G1 X105.0583 Y50.7412
G1 Y32.2412
G1 X105.2779 Y32.0215
G1 X105.0583 Y32.2412
G1 X104.3051
G1 X104.2218 Y32.1158
G1 X104.3051 Y32.2412
G1 X103.073 Y35.1733
G0 Z3.0
G0 X97.8073 Y43.1302
G0 Z1.0
G1 Z-1.0
G1 X97.8075 Y44.3159
G1 X95.1081 Y50.7412
G1 X94.6041 Y51.0761
G1 X95.1081 Y50.7412
G1 X100.5087
G1 X101.0129 Y51.0761
G1 X100.5087 Y50.7412
G1 X97.8075 Y44.3159
G1 X97.8073 Y43.1302
G1 Z-2.0
G1 X97.8075 Y44.3159
G1 X95.1081 Y50.7412
G1 X94.6041 Y51.0761
G1 X95.1081 Y50.7412
G1 X100.5087
G1 X101.0129 Y51.0761
G1 X100.5087 Y50.7412
G1 X97.8075 Y44.3159
G1 X97.8073 Y43.1302
G0 Z3.0
G0 X100.3556 Y41.4887
G0 Z0.0
G1 Z-2.0
G1 X100.4191
G1 X104.3052 Y50.7412
G1 X104.2219 Y50.8665
G1 X104.3052 Y50.7412
G1 X105.0583
G1 X105.2779 Y50.9608
G1 X105.0583 Y50.7412
G1 Y32.2412
G1 X105.2779 Y32.0215
G1 X105.0583 Y32.2412
G1 X104.3051
G1 X104.2218 Y32.1158
G1 X104.3051 Y32.2412
G1 X100.4191 Y41.4887
G1 X100.3556
G0 Z3.0
G0 X95.2615
G0 Z0.0
G1 Z-2.0
G1 X95.1979
G1 X91.3095 Y32.2412
G1 X91.3927 Y32.1159
G1 X91.3095 Y32.2412
G1 X89.8088
G3 X89.0588 Y31.4912 I0.0 J-0.75
G1 Y29.4897
G3 X89.8088 Y28.7397 I0.75 J0.0
G1 X113.8093
G3 X114.5593 Y29.4897 I0.0 J0.75
G1 Y31.4912
G3 X113.8093 Y32.2412 I-0.75 J0.0
G1 X112.5577
G1 X112.3381 Y32.0215
G1 X112.5577 Y32.2412
G1 Y50.7412
G1 X112.3381 Y50.9608
G1 X112.5577 Y50.7412
G1 X113.8093
G3 X114.5593 Y51.4912 I0.0 J0.75
G1 Y53.4927
G3 X113.8093 Y54.2427 I-0.75 J0.0
G1 X89.8088
G3 X89.0588 Y53.4927 I0.0 J-0.75
G1 Y51.4912
G3 X89.8088 Y50.7412 I0.75 J0.0
G1 X91.3094
G1 X91.3927 Y50.8665
G1 X91.3094 Y50.7412
G1 X95.1979 Y41.4887
G1 X95.2615
G0 Z3.0
G0 X97.8073 Y43.1302
G0 Z-1.0
G1 Z-2.95
G1 X97.8075 Y44.3159
G1 X95.1081 Y50.7412
G1 X94.6041 Y51.0761
G1 X95.1081 Y50.7412
G1 X100.5087
G1 X101.0129 Y51.0761
G1 X100.5087 Y50.7412
G1 X97.8075 Y44.3159
G1 X97.8073 Y43.1302
G0 Z3.0
G0 X100.3556 Y41.4887
G0 Z-1.0
G1 Z-2.95
G1 X100.4191
G1 X104.3052 Y50.7412
G1 X104.2219 Y50.8665
G1 X104.3052 Y50.7412
G1 X105.0583
G1 X105.2779 Y50.9608
G1 X105.0583 Y50.7412
G1 Y32.2412
G1 X105.2779 Y32.0215
G1 X105.0583 Y32.2412
G1 X104.3051
G1 X104.2218 Y32.1158
G1 X104.3051 Y32.2412
G1 X100.4191 Y41.4887
G1 X100.3556
G0 Z3.0
G0 X95.2615
G0 Z-1.0
G1 Z-2.95
G1 X95.1979
G1 X91.3095 Y32.2412
G1 X91.3927 Y32.1159
G1 X91.3095 Y32.2412
G1 X89.8088
G3 X89.0588 Y31.4912 I0.0 J-0.75
G1 Y29.4897
G3 X89.8088 Y28.7397 I0.75 J0.0
G1 X113.8093
G3 X114.5593 Y29.4897 I0.0 J0.75
G1 Y31.4912
G3 X113.8093 Y32.2412 I-0.75 J0.0
G1 X112.5577
G1 X112.3381 Y32.0215
G1 X112.5577 Y32.2412
G1 Y50.7412
G1 X112.3381 Y50.9608
G1 X112.5577 Y50.7412
G1 X113.8093
G3 X114.5593 Y51.4912 I0.0 J0.75
G1 Y53.4927
G3 X113.8093 Y54.2427 I-0.75 J0.0
G1 X89.8088
G3 X89.0588 Y53.4927 I0.0 J-0.75
G1 Y51.4912
G3 X89.8088 Y50.7412 I0.75 J0.0
G1 X91.3094
G1 X91.3927 Y50.8665
G1 X91.3094 Y50.7412
G1 X95.1979 Y41.4887
G1 X95.2615
G0 Z3.0
G0 X95.7927 Y22.9761
G0 Z1.0
G1 Z-1.0
G1 X96.0123 Y22.7564
G1 X96.5118
G1 X96.7315 Y22.9761
G1 X96.5118 Y22.7564
G1 Y4.2564
G1 X96.7315 Y4.0367
G1 X96.5118 Y4.2564
G1 X96.0123
G1 X95.7927 Y4.0367
G1 X96.0123 Y4.2564
G1 Y22.7564
G1 X95.7927 Y22.9761
G0 Z3.0
G0 X92.731
G0 Z1.0
G1 Z-1.0
G1 X92.5113 Y22.7564
G1 Y4.2564
G1 X92.731 Y4.0367
G1 X92.5113 Y4.2564
G1 X92.021
G3 X91.271 Y3.5064 I0.0 J-0.75
G1 Y1.5049
G3 X92.021 Y0.7549 I0.75 J0.0
G1 X105.2611
G3 X106.0111 Y1.5049 I0.0 J0.75
G1 Y3.5064
G3 X105.2611 Y4.2564 I-0.75 J0.0
G1 X104.0116
G1 X103.7919 Y4.0367
G1 X104.0116 Y4.2564
G1 Y22.7564
G1 X103.7919 Y22.9761
G1 X104.0116 Y22.7564
G1 X105.2611
G3 X106.0111 Y23.5064 I0.0 J0.75
G1 Y25.5079
G3 X105.2611 Y26.2579 I-0.75 J0.0
G1 X91.2618
G3 X90.5118 Y25.5079 I0.0 J-0.75
G1 Y23.5064
G3 X91.2618 Y22.7564 I0.75 J0.0
G1 X92.5113
G1 X92.731 Y22.9761
G0 Z3.0
G0 X95.7927
G0 Z0.0
G1 Z-2.0
G1 X96.0123 Y22.7564
G1 X96.5118
G1 X96.7315 Y22.9761
G1 X96.5118 Y22.7564
G1 Y4.2564
G1 X96.7315 Y4.0367
G1 X96.5118 Y4.2564
G1 X96.0123
G1 X95.7927 Y4.0367
G1 X96.0123 Y4.2564
G1 Y22.7564
G1 X95.7927 Y22.9761
G0 Z3.0
G0 X92.731
G0 Z0.0
G1 Z-2.0
G1 X92.5113 Y22.7564
G1 Y4.2564
G1 X92.731 Y4.0367
G1 X92.5113 Y4.2564
G1 X92.021
G3 X91.271 Y3.5064 I0.0 J-0.75
G1 Y1.5049
G3 X92.021 Y0.7549 I0.75 J0.0
G1 X105.2611
G3 X106.0111 Y1.5049 I0.0 J0.75
G1 Y3.5064
G3 X105.2611 Y4.2564 I-0.75 J0.0
G1 X104.0116
G1 X103.7919 Y4.0367
G1 X104.0116 Y4.2564
G1 Y22.7564
G1 X103.7919 Y22.9761
G1 X104.0116 Y22.7564
G1 X105.2611
G3 X106.0111 Y23.5064 I0.0 J0.75
G1 Y25.5079
G3 X105.2611 Y26.2579 I-0.75 J0.0
G1 X91.2618
G3 X90.5118 Y25.5079 I0.0 J-0.75
G1 Y23.5064
G3 X91.2618 Y22.7564 I0.75 J0.0
G1 X92.5113
G1 X92.731 Y22.9761
G0 Z3.0
G0 X95.7927
G0 Z-1.0
G1 Z-2.95
G1 X96.0123 Y22.7564
G1 X96.5118
G1 X96.7315 Y22.9761
G1 X96.5118 Y22.7564
G1 Y4.2564
G1 X96.7315 Y4.0367
G1 X96.5118 Y4.2564
G1 X96.0123
G1 X95.7927 Y4.0367
G1 X96.0123 Y4.2564
G1 Y22.7564
G1 X95.7927 Y22.9761
G0 Z3.0
G0 X92.731
G0 Z-1.0
G1 Z-2.95
G1 X92.5113 Y22.7564
G1 Y4.2564
G1 X92.731 Y4.0367
G1 X92.5113 Y4.2564
G1 X92.021
G3 X91.271 Y3.5064 I0.0 J-0.75
G1 Y1.5049
G3 X92.021 Y0.7549 I0.75 J0.0
G1 X105.2611
G3 X106.0111 Y1.5049 I0.0 J0.75
G1 Y3.5064
G3 X105.2611 Y4.2564 I-0.75 J0.0
G1 X104.0116
G1 X103.7919 Y4.0367
G1 X104.0116 Y4.2564
G1 Y22.7564
G1 X103.7919 Y22.9761
G1 X104.0116 Y22.7564
G1 X105.2611
G3 X106.0111 Y23.5064 I0.0 J0.75
G1 Y25.5079
G3 X105.2611 Y26.2579 I-0.75 J0.0
G1 X91.2618
G3 X90.5118 Y25.5079 I0.0 J-0.75
G1 Y23.5064
G3 X91.2618 Y22.7564 I0.75 J0.0
G1 X92.5113
G1 X92.731 Y22.9761
G0 Z3.0
G0 X107.5797 Y23.2147
G0 Z1.0
G1 Z-1.0
G3 X108.3289 Y22.4768 I0.7499 J0.0121
G1 X109.8304 Y22.4755
G1 X109.9136 Y22.6006
G1 X109.8304 Y22.4755
G1 X113.7195 Y13.2249
G1 X113.7831
G1 X113.7195
G1 X109.8307 Y3.9752
G1 X109.9139 Y3.85
G1 X109.8307 Y3.9752
G1 X108.3282 Y3.9748
G3 X107.5784 Y3.2246 I0.0002 J-0.75
G1 X107.5789 Y1.224
G3 X108.3289 Y0.4742 I0.75 J0.0002
G1 X128.3287 Y0.4743
G3 X129.0787 Y1.2245 I0.0 J0.75
G1 X129.0782 Y3.2251
G3 X128.3288 Y3.9749 I-0.75 J-0.0002
G1 X127.079 Y3.9759
G1 X126.8595 Y3.7566
G1 X127.079 Y3.9759
G1 X127.0809 Y22.4744
G1 X126.8611 Y22.6945
G1 X127.0809 Y22.4744
G1 X128.3297 Y22.4734
G3 X129.0803 Y23.2236 I0.0006 J0.75
G1 X129.0797 Y25.2242
G3 X128.3298 Y25.974 I-0.75 J-0.0002
G1 X108.3313 Y25.9761
G3 X107.5812 Y25.2267 I-0.0001 J-0.75
G1 X107.5796 Y23.2274
G3 X107.5797 Y23.2147 I0.75 J-0.0006
G1 Z-2.0
G3 X108.3289 Y22.4768 I0.7499 J0.0121
G1 X109.8304 Y22.4755
G1 X109.9136 Y22.6006
G1 X109.8304 Y22.4755
G1 X113.7195 Y13.2249
G1 X113.7831
G1 X113.7195
G1 X109.8307 Y3.9752
G1 X109.9139 Y3.85
G1 X109.8307 Y3.9752
G1 X108.3282 Y3.9748
G3 X107.5784 Y3.2246 I0.0002 J-0.75
G1 X107.5789 Y1.224
G3 X108.3289 Y0.4742 I0.75 J0.0002
G1 X128.3287 Y0.4743
G3 X129.0787 Y1.2245 I0.0 J0.75
G1 X129.0782 Y3.2251
G3 X128.3288 Y3.9749 I-0.75 J-0.0002
G1 X127.079 Y3.9759
G1 X126.8595 Y3.7566
G1 X127.079 Y3.9759
G1 X127.0809 Y22.4744
G1 X126.8611 Y22.6945
G1 X127.0809 Y22.4744
G1 X128.3297 Y22.4734
G3 X129.0803 Y23.2236 I0.0006 J0.75
G1 X129.0797 Y25.2242
G3 X128.3298 Y25.974 I-0.75 J-0.0002
G1 X108.3313 Y25.9761
G3 X107.5812 Y25.2267 I-0.0001 J-0.75
G1 X107.5796 Y23.2274
G3 X107.5797 Y23.2147 I0.75 J-0.0006
G1 Z-2.95
G3 X108.3289 Y22.4768 I0.7499 J0.0121
G1 X109.8304 Y22.4755
G1 X109.9136 Y22.6006
G1 X109.8304 Y22.4755
G1 X113.7195 Y13.2249
G1 X113.7831
G1 X113.7195
G1 X109.8307 Y3.9752
G1 X109.9139 Y3.85
G1 X109.8307 Y3.9752
G1 X108.3282 Y3.9748
G3 X107.5784 Y3.2246 I0.0002 J-0.75
G1 X107.5789 Y1.224
G3 X108.3289 Y0.4742 I0.75 J0.0002
G1 X128.3287 Y0.4743
G3 X129.0787 Y1.2245 I0.0 J0.75
G1 X129.0782 Y3.2251
G3 X128.3288 Y3.9749 I-0.75 J-0.0002
G1 X127.079 Y3.9759
G1 X126.8595 Y3.7566
G1 X127.079 Y3.9759
G1 X127.0809 Y22.4744
G1 X126.8611 Y22.6945
G1 X127.0809 Y22.4744
G1 X128.3297 Y22.4734
G3 X129.0803 Y23.2236 I0.0006 J0.75
G1 X129.0797 Y25.2242
G3 X128.3298 Y25.974 I-0.75 J-0.0002
G1 X108.3313 Y25.9761
G3 X107.5812 Y25.2267 I-0.0001 J-0.75
G1 X107.5796 Y23.2274
G3 X107.5797 Y23.2147 I0.75 J-0.0006
G0 Z3.0
G0 X116.0795 Y28.3469
G0 Z1.0
G1 Z-1.0
G3 X116.7214 Y27.9846 I0.642 J0.3877
G1 X122.7197 Y27.9839
G3 X123.4698 Y28.7345 I0.0001 J0.75
G1 X123.4681 Y30.7338
G3 X122.718 Y31.4832 I-0.75 J-0.0006
G1 X121.471 Y31.483
G1 X121.2513 Y31.2632
G1 X121.471 Y31.483
G1 X121.4711 Y49.9832
G1 X121.2517 Y50.2025
G1 X121.4711 Y49.9832
G1 X122.7211 Y49.9843
G3 X123.4704 Y50.7344 I-0.0006 J0.75
G1 X123.4701 Y52.7315
G3 X122.7203 Y53.4814 I-0.75 J-0.0001
G1 X116.7185 Y53.483
G3 X115.9683 Y52.7324 I-0.0002 J-0.75
G1 X115.97 Y50.7331
G3 X116.7198 Y49.9837 I0.75 J0.0006
G1 X117.9705 Y49.9834
G1 X118.1901 Y50.2029
G1 X117.9705 Y49.9834
G1 X117.9704 Y31.4836
G1 X118.1902 Y31.2638
G1 X117.9704 Y31.4836
G1 X116.7201 Y31.4839
G3 X115.9699 Y30.7333 I-0.0002 J-0.75
G1 X115.9715 Y28.734
G3 X116.0795 Y28.3469 I0.75 J0.0006
G1 Z-2.0
G3 X116.7214 Y27.9846 I0.642 J0.3877
G1 X122.7197 Y27.9839
G3 X123.4698 Y28.7345 I0.0001 J0.75
G1 X123.4681 Y30.7338
G3 X122.718 Y31.4832 I-0.75 J-0.0006
G1 X121.471 Y31.483
G1 X121.2513 Y31.2632
G1 X121.471 Y31.483
G1 X121.4711 Y49.9832
G1 X121.2517 Y50.2025
G1 X121.4711 Y49.9832
G1 X122.7211 Y49.9843
G3 X123.4704 Y50.7344 I-0.0006 J0.75
G1 X123.4701 Y52.7315
G3 X122.7203 Y53.4814 I-0.75 J-0.0001
G1 X116.7185 Y53.483
G3 X115.9683 Y52.7324 I-0.0002 J-0.75
G1 X115.97 Y50.7331
G3 X116.7198 Y49.9837 I0.75 J0.0006
G1 X117.9705 Y49.9834
G1 X118.1901 Y50.2029
G1 X117.9705 Y49.9834
G1 X117.9704 Y31.4836
G1 X118.1902 Y31.2638
G1 X117.9704 Y31.4836
G1 X116.7201 Y31.4839
G3 X115.9699 Y30.7333 I-0.0002 J-0.75
G1 X115.9715 Y28.734
G3 X116.0795 Y28.3469 I0.75 J0.0006
G1 Z-2.95
G3 X116.7214 Y27.9846 I0.642 J0.3877
G1 X122.7197 Y27.9839
G3 X123.4698 Y28.7345 I0.0001 J0.75
G1 X123.4681 Y30.7338
G3 X122.718 Y31.4832 I-0.75 J-0.0006
G1 X121.471 Y31.483
G1 X121.2513 Y31.2632
G1 X121.471 Y31.483
G1 X121.4711 Y49.9832
G1 X121.2517 Y50.2025
G1 X121.4711 Y49.9832
G1 X122.7211 Y49.9843
G3 X123.4704 Y50.7344 I-0.0006 J0.75
G1 X123.4701 Y52.7315
G3 X122.7203 Y53.4814 I-0.75 J-0.0001
G1 X116.7185 Y53.483
G3 X115.9683 Y52.7324 I-0.0002 J-0.75
G1 X115.97 Y50.7331
G3 X116.7198 Y49.9837 I0.75 J0.0006
G1 X117.9705 Y49.9834
G1 X118.1901 Y50.2029
G1 X117.9705 Y49.9834
G1 X117.9704 Y31.4836
G1 X118.1902 Y31.2638
G1 X117.9704 Y31.4836
G1 X116.7201 Y31.4839
G3 X115.9699 Y30.7333 I-0.0002 J-0.75
G1 X115.9715 Y28.734
G3 X116.0795 Y28.3469 I0.75 J0.0006
G0 Z3.0
G0 X62.9253 Y22.5479
G0 Z1.0
G1 Z-1.0
G1 X62.5757 Y22.2673
G1 X59.5581 Y8.6586
G1 Y5.9441
G1 Y8.6586
G1 X56.5404 Y22.2673
G1 X56.1908 Y22.5478
G1 X56.5404 Y22.2673
G1 X62.5757
G1 X62.9253 Y22.5479
G0 Z3.0
G0 X66.0269 Y22.4325
G0 Z1.0
G1 Z-1.0
G1 X66.1594 Y22.2675
G1 X67.558 Y22.2677
G3 X68.3079 Y23.0179 I-0.0001 J0.75
G1 X68.3075 Y25.0187
G3 X67.5575 Y25.7685 I-0.75 J-0.0002
G1 X51.5554
G3 X50.8054 Y25.0175 I0.0 J-0.75
G1 X50.8081 Y23.0157
G3 X51.5582 Y22.2667 I0.75 J0.001
G1 X52.9566 Y22.2669
G1 X53.0892 Y22.4321
G1 X52.9566 Y22.2669
G1 X57.0565 Y3.7681
G1 X57.406 Y3.4876
G1 X57.0565 Y3.7681
G1 X51.5559 Y3.7679
G3 X50.8059 Y3.0175 I0.0 J-0.75
G1 X50.8072 Y1.0182
G3 X51.5571 Y0.2687 I0.75 J0.0005
G1 X67.5585 Y0.2673
G3 X68.3086 Y1.0175 I0.0001 J0.75
G1 X68.308 Y3.0181
G3 X67.558 Y3.7679 I-0.75 J-0.0002
G1 X62.0575 Y3.7677
G1 X61.7079 Y3.4871
G1 X62.0575 Y3.7677
G1 X66.1594 Y22.2675
G1 X66.0269 Y22.4325
G0 Z3.0
G0 X62.9253 Y22.5479
G0 Z0.0
G1 Z-2.0
G1 X62.5757 Y22.2673
G1 X59.5581 Y8.6586
G1 Y5.9441
G1 Y8.6586
G1 X56.5404 Y22.2673
G1 X56.1908 Y22.5478
G1 X56.5404 Y22.2673
G1 X62.5757
G1 X62.9253 Y22.5479
G0 Z3.0
G0 X66.0269 Y22.4325
G0 Z0.0
G1 Z-2.0
G1 X66.1594 Y22.2675
G1 X67.558 Y22.2677
G3 X68.3079 Y23.0179 I-0.0001 J0.75
G1 X68.3075 Y25.0187
G3 X67.5575 Y25.7685 I-0.75 J-0.0002
G1 X51.5554
G3 X50.8054 Y25.0175 I0.0 J-0.75
G1 X50.8081 Y23.0157
G3 X51.5582 Y22.2667 I0.75 J0.001
G1 X52.9566 Y22.2669
G1 X53.0892 Y22.4321
G1 X52.9566 Y22.2669
G1 X57.0565 Y3.7681
G1 X57.406 Y3.4876
G1 X57.0565 Y3.7681
G1 X51.5559 Y3.7679
G3 X50.8059 Y3.0175 I0.0 J-0.75
G1 X50.8072 Y1.0182
G3 X51.5571 Y0.2687 I0.75 J0.0005
G1 X67.5585 Y0.2673
G3 X68.3086 Y1.0175 I0.0001 J0.75
G1 X68.308 Y3.0181
G3 X67.558 Y3.7679 I-0.75 J-0.0002
G1 X62.0575 Y3.7677
G1 X61.7079 Y3.4871
G1 X62.0575 Y3.7677
G1 X66.1594 Y22.2675
G1 X66.0269 Y22.4325
G0 Z3.0
G0 X62.9253 Y22.5479
G0 Z-1.0
G1 Z-2.95
G1 X62.5757 Y22.2673
G1 X59.5581 Y8.6586
G1 Y5.9441
G1 Y8.6586
G1 X56.5404 Y22.2673
G1 X56.1908 Y22.5478
G1 X56.5404 Y22.2673
G1 X62.5757
G1 X62.9253 Y22.5479
G0 Z3.0
G0 X66.0269 Y22.4325
G0 Z-1.0
G1 Z-2.95
G1 X66.1594 Y22.2675
G1 X67.558 Y22.2677
G3 X68.3079 Y23.0179 I-0.0001 J0.75
G1 X68.3075 Y25.0187
G3 X67.5575 Y25.7685 I-0.75 J-0.0002
G1 X51.5554
G3 X50.8054 Y25.0175 I0.0 J-0.75
G1 X50.8081 Y23.0157
G3 X51.5582 Y22.2667 I0.75 J0.001
G1 X52.9566 Y22.2669
G1 X53.0892 Y22.4321
G1 X52.9566 Y22.2669
G1 X57.0565 Y3.7681
G1 X57.406 Y3.4876
G1 X57.0565 Y3.7681
G1 X51.5559 Y3.7679
G3 X50.8059 Y3.0175 I0.0 J-0.75
G1 X50.8072 Y1.0182
G3 X51.5571 Y0.2687 I0.75 J0.0005
G1 X67.5585 Y0.2673
G3 X68.3086 Y1.0175 I0.0001 J0.75
G1 X68.308 Y3.0181
G3 X67.558 Y3.7679 I-0.75 J-0.0002
G1 X62.0575 Y3.7677
G1 X61.7079 Y3.4871
G1 X62.0575 Y3.7677
G1 X66.1594 Y22.2675
G1 X66.0269 Y22.4325
G0 Z3.0
G0 X49.7426 Y23.4623
G0 Z1.0
G1 Z-1.0
G3 X49.7441 Y23.5096 I-0.7485 J0.0473
G1 Y25.5094
G3 X48.9941 Y26.2594 I-0.75 J0.0
G1 X28.9916
G3 X28.2416 Y25.5094 I0.0 J-0.75
G1 Y23.5096
G3 X28.9916 Y22.7596 I0.75 J0.0
G1 X30.3887
G1 X30.5212 Y22.9247
G1 X30.3887 Y22.7596
G1 X34.4909 Y4.2604
G1 X34.8405 Y3.9798
G1 X34.4909 Y4.2604
G1 X28.9916
G3 X28.2416 Y3.5104 I0.0 J-0.75
G1 Y1.5094
G3 X28.9916 Y0.7594 I0.75 J0.0
G1 X48.9941
G3 X49.7441 Y1.5094 I0.0 J0.75
G1 Y3.5104
G3 X48.9941 Y4.2604 I-0.75 J0.0
G1 X47.7426
G1 X47.5229 Y4.0407
G1 X47.7426 Y4.2604
G1 Y22.7596
G1 X47.5229 Y22.9793
G1 X47.7426 Y22.7596
G1 X48.9941
G3 X49.7426 Y23.4623 I0.0 J0.75
G1 Z-2.0
G3 X49.7441 Y23.5096 I-0.7485 J0.0473
G1 Y25.5094
G3 X48.9941 Y26.2594 I-0.75 J0.0
G1 X28.9916
G3 X28.2416 Y25.5094 I0.0 J-0.75
G1 Y23.5096
G3 X28.9916 Y22.7596 I0.75 J0.0
G1 X30.3887
G1 X30.5212 Y22.9247
G1 X30.3887 Y22.7596
G1 X34.4909 Y4.2604
G1 X34.8405 Y3.9798
G1 X34.4909 Y4.2604
G1 X28.9916
G3 X28.2416 Y3.5104 I0.0 J-0.75
G1 Y1.5094
G3 X28.9916 Y0.7594 I0.75 J0.0
G1 X48.9941
G3 X49.7441 Y1.5094 I0.0 J0.75
G1 Y3.5104
G3 X48.9941 Y4.2604 I-0.75 J0.0
G1 X47.7426
G1 X47.5229 Y4.0407
G1 X47.7426 Y4.2604
G1 Y22.7596
G1 X47.5229 Y22.9793
G1 X47.7426 Y22.7596
G1 X48.9941
G3 X49.7426 Y23.4623 I0.0 J0.75
G1 Z-2.95
G3 X49.7441 Y23.5096 I-0.7485 J0.0473
G1 Y25.5094
G3 X48.9941 Y26.2594 I-0.75 J0.0
G1 X28.9916
G3 X28.2416 Y25.5094 I0.0 J-0.75
G1 Y23.5096
G3 X28.9916 Y22.7596 I0.75 J0.0
G1 X30.3887
G1 X30.5212 Y22.9247
G1 X30.3887 Y22.7596
G1 X34.4909 Y4.2604
G1 X34.8405 Y3.9798
G1 X34.4909 Y4.2604
G1 X28.9916
G3 X28.2416 Y3.5104 I0.0 J-0.75
G1 Y1.5094
G3 X28.9916 Y0.7594 I0.75 J0.0
G1 X48.9941
G3 X49.7441 Y1.5094 I0.0 J0.75
G1 Y3.5104
G3 X48.9941 Y4.2604 I-0.75 J0.0
G1 X47.7426
G1 X47.5229 Y4.0407
G1 X47.7426 Y4.2604
G1 Y22.7596
G1 X47.5229 Y22.9793
G1 X47.7426 Y22.7596
G1 X48.9941
G3 X49.7426 Y23.4623 I0.0 J0.75
G0 Z3.0
G0 X26.6522 Y23.4686
G0 Z1.0
G1 Z-1.0
G1 X26.6526 Y24.7526
G3 X25.9025 Y25.5028 I-0.75 J0.0002
G1 X1.9029 Y25.5016
G3 X1.153 Y24.752 I0.0 J-0.75
G1 X1.1517 Y22.7528
G3 X1.9016 Y22.0023 I0.75 J-0.0005
G1 X3.3002 Y22.0021
G1 X3.4327 Y22.1671
G1 X3.3002 Y22.0021
G1 X7.4023 Y3.5019
G1 X7.7519 Y3.2213
G1 X7.4023 Y3.5019
G1 X1.9019 Y3.5021
G3 X1.1518 Y2.7515 I0.0 J-0.75
G1 X1.1534 Y0.7524
G3 X1.9033 Y0.003 I0.75 J0.0006
G1 X25.9014 Y0.0016
G3 X26.6515 Y0.7512 I0.0 J0.75
G1 X26.6525 Y2.7509
G3 X25.9026 Y3.5013 I-0.75 J0.0004
G1 X24.6523 Y3.5014
G1 X24.4326 Y3.2817
G1 X24.6523 Y3.5014
G1 X24.6543 Y22.0025
G1 X24.4346 Y22.2223
G1 X24.6543 Y22.0025
G1 X25.9018 Y22.0022
G3 X26.652 Y22.752 I0.0002 J0.75
G1 X26.6522 Y23.4686
G1 Z-2.0
G1 X26.6526 Y24.7526
G3 X25.9025 Y25.5028 I-0.75 J0.0002
G1 X1.9029 Y25.5016
G3 X1.153 Y24.752 I0.0 J-0.75
G1 X1.1517 Y22.7528
G3 X1.9016 Y22.0023 I0.75 J-0.0005
G1 X3.3002 Y22.0021
G1 X3.4327 Y22.1671
G1 X3.3002 Y22.0021
G1 X7.4023 Y3.5019
G1 X7.7519 Y3.2213
G1 X7.4023 Y3.5019
G1 X1.9019 Y3.5021
G3 X1.1518 Y2.7515 I0.0 J-0.75
G1 X1.1534 Y0.7524
G3 X1.9033 Y0.003 I0.75 J0.0006
G1 X25.9014 Y0.0016
G3 X26.6515 Y0.7512 I0.0 J0.75
G1 X26.6525 Y2.7509
G3 X25.9026 Y3.5013 I-0.75 J0.0004
G1 X24.6523 Y3.5014
G1 X24.4326 Y3.2817
G1 X24.6523 Y3.5014
G1 X24.6543 Y22.0025
G1 X24.4346 Y22.2223
G1 X24.6543 Y22.0025
G1 X25.9018 Y22.0022
G3 X26.652 Y22.752 I0.0002 J0.75
G1 X26.6522 Y23.4686
G1 Z-2.95
G1 X26.6526 Y24.7526
G3 X25.9025 Y25.5028 I-0.75 J0.0002
G1 X1.9029 Y25.5016
G3 X1.153 Y24.752 I0.0 J-0.75
G1 X1.1517 Y22.7528
G3 X1.9016 Y22.0023 I0.75 J-0.0005
G1 X3.3002 Y22.0021
G1 X3.4327 Y22.1671
G1 X3.3002 Y22.0021
G1 X7.4023 Y3.5019
G1 X7.7519 Y3.2213
G1 X7.4023 Y3.5019
G1 X1.9019 Y3.5021
G3 X1.1518 Y2.7515 I0.0 J-0.75
G1 X1.1534 Y0.7524
G3 X1.9033 Y0.003 I0.75 J0.0006
G1 X25.9014 Y0.0016
G3 X26.6515 Y0.7512 I0.0 J0.75
G1 X26.6525 Y2.7509
G3 X25.9026 Y3.5013 I-0.75 J0.0004
G1 X24.6523 Y3.5014
G1 X24.4326 Y3.2817
G1 X24.6523 Y3.5014
G1 X24.6543 Y22.0025
G1 X24.4346 Y22.2223
G1 X24.6543 Y22.0025
G1 X25.9018 Y22.0022
G3 X26.652 Y22.752 I0.0002 J0.75
G1 X26.6522 Y23.4686
G0 Z3.0
G0 X10.5346 Y32.8303
G0 Z1.0
G1 Z-1.0
G1 Y35.5457
G1 X7.2741 Y50.253
G1 X6.9246 Y50.5335
G1 X7.2741 Y50.253
G1 X13.7948 Y50.2537
G1 X14.1444 Y50.5343
G1 X13.7948 Y50.2537
G1 X10.5346 Y35.5457
G1 Y32.8303
G0 Z3.0
G0 X8.141 Y31.4734
G0 Z1.0
G1 Z-1.0
G1 X7.7914 Y31.7539
G1 X1.9658 Y31.7531
G3 X1.216 Y31.0153 I0.0001 J-0.75
G1 X1.1836 Y29.0161
G3 X1.9335 Y28.254 I0.7499 J-0.0121
G1 X29.9248 Y28.2537
G3 X30.6747 Y28.9916 I0.0 J0.75
G1 X30.7071 Y30.9907
G3 X29.9572 Y31.7529 I-0.7499 J0.0121
G1 X28.7179
G1 X28.4902 Y31.5289
G1 X28.7179 Y31.7529
G1 X29.0134 Y49.8182
G1 X28.7974 Y50.0414
G1 X29.0134 Y49.8182
G1 X30.2626 Y49.7981
G3 X31.0246 Y50.5358 I0.0121 J0.7499
G1 X31.0645 Y52.992
G3 X30.3146 Y53.7542 I-0.7499 J0.0122
G1 X2.324 Y53.7546
G3 X1.5741 Y53.0169 I0.0 J-0.75
G1 X1.5413 Y51.015
G3 X2.2916 Y50.2527 I0.7499 J-0.0123
G1 X3.6891 Y50.2535
G1 X3.8217 Y50.4187
G1 X3.6891 Y50.2535
G1 X7.7914 Y31.7539
G1 X8.141 Y31.4734
G0 Z3.0
G0 X10.5346 Y32.8303
G0 Z0.0
G1 Z-2.0
G1 Y35.5457
G1 X7.2741 Y50.253
G1 X6.9246 Y50.5335
G1 X7.2741 Y50.253
G1 X13.7948 Y50.2537
G1 X14.1444 Y50.5343
G1 X13.7948 Y50.2537
G1 X10.5346 Y35.5457
G1 Y32.8303
G0 Z3.0
G0 X8.141 Y31.4734
G0 Z0.0
G1 Z-2.0
G1 X7.7914 Y31.7539
G1 X1.9658 Y31.7531
G3 X1.216 Y31.0153 I0.0001 J-0.75
G1 X1.1836 Y29.0161
G3 X1.9335 Y28.254 I0.7499 J-0.0121
G1 X29.9248 Y28.2537
G3 X30.6747 Y28.9916 I0.0 J0.75
G1 X30.7071 Y30.9907
G3 X29.9572 Y31.7529 I-0.7499 J0.0121
G1 X28.7179
G1 X28.4902 Y31.5289
G1 X28.7179 Y31.7529
G1 X29.0134 Y49.8182
G1 X28.7974 Y50.0414
G1 X29.0134 Y49.8182
G1 X30.2626 Y49.7981
G3 X31.0246 Y50.5358 I0.0121 J0.7499
G1 X31.0645 Y52.992
G3 X30.3146 Y53.7542 I-0.7499 J0.0122
G1 X2.324 Y53.7546
G3 X1.5741 Y53.0169 I0.0 J-0.75
G1 X1.5413 Y51.015
G3 X2.2916 Y50.2527 I0.7499 J-0.0123
G1 X3.6891 Y50.2535
G1 X3.8217 Y50.4187
G1 X3.6891 Y50.2535
G1 X7.7914 Y31.7539
G1 X8.141 Y31.4734
G0 Z3.0
G0 X10.5346 Y32.8303
G0 Z-1.0
G1 Z-2.95
G1 Y35.5457
G1 X7.2741 Y50.253
G1 X6.9246 Y50.5335
G1 X7.2741 Y50.253
G1 X13.7948 Y50.2537
G1 X14.1444 Y50.5343
G1 X13.7948 Y50.2537
G1 X10.5346 Y35.5457
G1 Y32.8303
G0 Z3.0
G0 X8.141 Y31.4734
G0 Z-1.0
G1 Z-2.95
G1 X7.7914 Y31.7539
G1 X1.9658 Y31.7531
G3 X1.216 Y31.0153 I0.0001 J-0.75
G1 X1.1836 Y29.0161
G3 X1.9335 Y28.254 I0.7499 J-0.0121
G1 X29.9248 Y28.2537
G3 X30.6747 Y28.9916 I0.0 J0.75
G1 X30.7071 Y30.9907
G3 X29.9572 Y31.7529 I-0.7499 J0.0121
G1 X28.7179
G1 X28.4902 Y31.5289
G1 X28.7179 Y31.7529
G1 X29.0134 Y49.8182
G1 X28.7974 Y50.0414
G1 X29.0134 Y49.8182
G1 X30.2626 Y49.7981
G3 X31.0246 Y50.5358 I0.0121 J0.7499
G1 X31.0645 Y52.992
G3 X30.3146 Y53.7542 I-0.7499 J0.0122
G1 X2.324 Y53.7546
G3 X1.5741 Y53.0169 I0.0 J-0.75
G1 X1.5413 Y51.015
G3 X2.2916 Y50.2527 I0.7499 J-0.0123
G1 X3.6891 Y50.2535
G1 X3.8217 Y50.4187
G1 X3.6891 Y50.2535
G1 X7.7914 Y31.7539
G1 X8.141 Y31.4734
G0 Z3.0
M5
M30
