( Made using CamBam - http://www.cambam.co.uk )
( Clock1-pg5 2/15/2019 6:29:27 PM )
( T0 : 0.0 )
G21 G90 G64 G40
G0 Z5.0
( T0 : 0.0 )
T0 M6
( Drill1 )
G17
M3 S1000
G0 X16.0 Y62.0
G98
G0 X16.0 Y62.0
G0 Z5.0
G1 Z-1.0 F300.0
G0 Z5.0
G0 X33.0 Y114.0
G0 Z5.0
G1 Z-1.0
G0 Z5.0
G0 X259.0 Y107.0
G0 Z5.0
G1 Z-1.0
G0 Z5.0
G0 Y51.0
G0 Z5.0
G1 Z-1.0
G0 Z5.0
G80
G0 Z5.0
M5
M30
