( Made using CamBam - http://www.cambam.co.uk )
( Clock1-pg7 3/18/2019 10:09:28 PM )
( T0 : 1.5 )
G21 G90 G64 G40
G0 Z5.0
( T0 : 1.5 )
T0 M6
( Profile1 )
G17
M3 S1000
G0 X291.2139 Y371.3396
G0 Z1.0
G1 F100.0 Z-1.0
G1 F300.0 X290.9265 Y371.2332
G1 X290.5354 Y371.0885
G3 X290.5298 Y371.0864 I0.2603 J-0.7034
G1 X290.1412 Y370.9391
G3 X290.1333 Y370.936 I0.2659 J-0.7013
G1 X289.7466 Y370.7844
G1 X289.36 Y370.6353
G3 X289.3505 Y370.6315 I0.2698 J-0.6998
G1 X289.0661 Y370.5174
G1 X288.6414 Y371.4742
G3 X288.6301 Y371.4986 I-0.6855 J-0.3043
G1 X288.4828 Y371.8008
G3 X288.4666 Y371.8322 I-0.6742 J-0.3286
G1 X288.304 Y372.1293
G3 X288.2827 Y372.1659 I-0.658 J-0.3599
G1 X288.1023 Y372.4555
G3 X288.0768 Y372.4939 I-0.6366 J-0.3965
G1 X287.8761 Y372.7758
G3 X287.8496 Y372.8108 I-0.611 J-0.4349
G1 X287.6312 Y373.0826
G3 X287.606 Y373.1123 I-0.5846 J-0.4699
G1 X287.3723 Y373.3739
G3 X287.3359 Y373.4119 I-0.5594 J-0.4996
G1 X287.054 Y373.6862
G3 X287.0163 Y373.7205 I-0.523 J-0.5375
G1 X286.714 Y373.977
G3 X286.681 Y374.0035 I-0.4853 J-0.5718
G1 X286.3584 Y374.2473
G3 X286.3178 Y374.2759 I-0.4523 J-0.5983
G1 X285.9775 Y374.4995
G3 X285.2543 Y374.5548 I-0.4117 J-0.6269
G1 X285.1436 Y374.5043
G1 X285.033 Y374.4562
G1 X284.9162 Y374.4054
G1 X284.7994 Y374.3546
G3 X284.7812 Y374.3465 I0.299 J-0.6878
G1 X284.6698 Y374.2944
G1 X284.562 Y374.2452
G1 X284.4514 Y374.1971
G3 X284.4389 Y374.1916 I0.299 J-0.6878
G1 X284.3221 Y374.1383
G3 X283.8927 Y373.5725 I0.3115 J-0.6823
G1 X283.8292 Y373.1686
G3 X283.8234 Y373.1226 I0.7409 J-0.1165
G1 X283.7853 Y372.7187
G3 X283.7824 Y372.6721 I0.7467 J-0.0704
G1 X283.7697 Y372.2733
G3 X283.77 Y372.2161 I0.7496 J-0.0239
G1 X283.7878 Y371.8173
G3 X283.791 Y371.7739 I0.7493 J0.0334
G1 X283.8266 Y371.4284
G3 X283.8322 Y371.3855 I0.7461 J0.0768
G1 X283.8881 Y371.04
G3 X283.8966 Y370.9959 I0.7404 J0.1198
G1 X283.9728 Y370.6556
G3 X283.9827 Y370.6164 I0.7319 J0.1639
G1 X284.0741 Y370.2913
G3 X284.0863 Y370.2521 I0.722 J0.2031
G1 X284.1956 Y369.932
G3 X284.2134 Y369.885 I0.7098 J0.2422
G1 X284.3429 Y369.5751
G3 X284.3495 Y369.5598 I0.692 J0.2893
G1 X284.7741 Y368.6046
G1 X284.5018 Y368.4703
G1 X284.1277 Y368.2883
G3 X284.1131 Y368.281 I0.3281 J-0.6744
G1 X283.7422 Y368.0905
G3 X283.7404 Y368.0896 I0.3427 J-0.6671
G1 X283.373 Y367.8996
G1 X283.0031 Y367.7095
G3 X282.9905 Y367.7029 I0.3427 J-0.6671
G1 X282.7255 Y367.5603
G1 X282.1991 Y368.4697
G3 X282.1916 Y368.4823 I-0.6491 J-0.3757
G1 X282.0163 Y368.7719
G3 X281.9873 Y368.8163 I-0.6416 J-0.3884
G1 X281.7917 Y369.0931
G3 X281.7681 Y369.1248 I-0.6126 J-0.4327
G1 X281.5598 Y369.3889
G3 X281.5356 Y369.4181 I-0.589 J-0.4644
G1 X281.307 Y369.6797
G3 X281.2726 Y369.7165 I-0.5648 J-0.4935
G1 X281.0262 Y369.9629
G3 X280.9982 Y369.9895 I-0.5303 J-0.5303
G1 X280.7391 Y370.2232
G3 X280.7035 Y370.2533 I-0.5023 J-0.5569
G1 X280.3936 Y370.4997
G3 X280.355 Y370.5284 I-0.4668 J-0.5871
G1 X280.0299 Y370.7545
G3 X279.9849 Y370.7835 I-0.4282 J-0.6158
G1 X279.6344 Y370.9918
G3 X279.5904 Y371.0159 I-0.3831 J-0.6448
G1 X279.2297 Y371.1988
G3 X278.5136 Y371.1783 I-0.3392 J-0.6689
G1 X278.4076 Y371.1166
G1 X278.2991 Y371.055
G3 X278.2959 Y371.0531 I0.3705 J-0.6521
G1 X278.0749 Y370.9261
G3 X278.0716 Y370.9243 I0.3737 J-0.6503
G1 X277.9656 Y370.8626
G1 X277.8571 Y370.801
G3 X277.8506 Y370.7972 I0.3705 J-0.6521
G1 X277.7414 Y370.7337
G1 X277.6322 Y370.6702
G3 X277.2603 Y370.0637 I0.377 J-0.6484
G1 X277.2375 Y369.6548
G3 X277.2364 Y369.6035 I0.7488 J-0.0419
G1 X277.2414 Y369.1996
G3 X277.2436 Y369.1519 I0.7499 J0.0094
G1 X277.274 Y368.7531
G3 X277.2799 Y368.7009 I0.7478 J0.0572
G1 X277.3383 Y368.3046
G3 X277.3459 Y368.2617 I0.742 J0.1094
G1 X277.417 Y367.9188
G3 X277.4278 Y367.8738 I0.7344 J0.1523
G1 X277.5193 Y367.5385
G3 X277.533 Y367.4937 I0.7236 J0.1973
G1 X277.6448 Y367.1661
G3 X277.6579 Y367.1306 I0.7098 J0.2421
G1 X277.7823 Y366.8182
G3 X277.7984 Y366.7807 I0.6967 J0.2776
G1 X277.9407 Y366.4734
G3 X277.961 Y366.4328 I0.6806 J0.315
G1 X278.121 Y366.1356
G3 X278.1317 Y366.1164 I0.6604 J0.3556
G1 X278.6535 Y365.2121
G1 X278.3935 Y365.0475
G1 X278.0435 Y364.8269
G3 X278.037 Y364.8228 I0.4 J-0.6344
G1 X277.6865 Y364.5967
G3 X277.678 Y364.5912 I0.4065 J-0.6303
G1 X277.3316 Y364.3611
G1 X276.9852 Y364.1335
G3 X276.9768 Y364.1279 I0.4118 J-0.6268
G1 X276.7263 Y363.9584
G1 X276.109 Y364.8085
G3 X276.0939 Y364.8286 I-0.6069 J-0.4407
G1 X275.8881 Y365.0928
G3 X275.867 Y365.1186 I-0.5917 J-0.4608
G1 X275.6461 Y365.3777
G3 X275.6114 Y365.4157 I-0.5706 J-0.4867
G1 X275.3751 Y365.657
G3 X275.3472 Y365.684 I-0.5359 J-0.5247
G1 X275.0907 Y365.9203
G3 X275.0585 Y365.9483 I-0.508 J-0.5517
G1 X274.7892 Y366.1692
G3 X274.7519 Y366.198 I-0.4758 J-0.5797
G1 X274.47 Y366.4012
G3 X274.4307 Y366.4276 I-0.4385 J-0.6084
G1 X274.0954 Y366.6384
G3 X274.0563 Y366.6614 I-0.3992 J-0.6349
G1 X273.7084 Y366.8519
G3 X273.6628 Y366.8749 I-0.3601 J-0.6579
G1 X273.2945 Y367.0451
G3 X273.2495 Y367.0641 I-0.3146 J-0.6808
G1 X272.8735 Y367.2089
G3 X272.181 Y367.1284 I-0.2696 J-0.6999
G1 X272.0769 Y367.0572
G3 X272.0667 Y367.0502 I0.423 J-0.6194
G1 X271.9626 Y366.9765
G3 X271.9457 Y366.9642 I0.4331 J-0.6123
G1 X271.8476 Y366.8907
G1 X271.7484 Y366.8181
G1 X271.6481 Y366.7454
G3 X271.6455 Y366.7434 I0.4402 J-0.6072
G1 X271.5427 Y366.6682
G1 X271.4424 Y366.5955
G3 X271.4397 Y366.5936 I0.4402 J-0.6072
G1 X271.3356 Y366.5174
G3 X271.0294 Y365.8744 I0.4429 J-0.6053
G1 X271.0497 Y365.4705
G3 X271.054 Y365.4198 I0.7491 J0.0377
G1 X271.1023 Y365.0134
G3 X271.1088 Y364.9693 I0.7448 J0.0884
G1 X271.18 Y364.5731
G3 X271.192 Y364.518 I0.7382 J0.1325
G1 X271.2911 Y364.1345
G3 X271.303 Y364.0931 I0.7262 J0.1876
G1 X271.4097 Y363.7603
G3 X271.426 Y363.7145 I0.7142 J0.229
G1 X271.553 Y363.392
G3 X271.5685 Y363.3555 I0.6979 J0.2747
G1 X271.7133 Y363.038
G3 X271.733 Y362.998 I0.6824 J0.3112
G1 X271.8905 Y362.7008
G3 X271.9076 Y362.6703 I0.6627 J0.3512
G1 X272.0803 Y362.3782
G3 X272.1062 Y362.3374 I0.6456 J0.3817
G1 X272.2967 Y362.058
G3 X272.3102 Y362.0389 I0.6197 J0.4225
G1 X272.924 Y361.1964
G1 X272.6827 Y361.004
G1 X272.3575 Y360.7494
G3 X272.3497 Y360.7432 I0.4624 J-0.5905
G1 X272.0246 Y360.4816
G3 X272.0196 Y360.4776 I0.4702 J-0.5843
G1 X271.697 Y360.2134
G3 X271.6947 Y360.2115 I0.4752 J-0.5803
G1 X271.3747 Y359.9474
G3 X271.3693 Y359.9429 I0.4774 J-0.5784
G1 X271.1374 Y359.7478
G1 X270.4338 Y360.5307
G3 X270.4176 Y360.5482 I-0.5578 J-0.5013
G1 X270.1864 Y360.7895
G3 X270.158 Y360.8177 I-0.5416 J-0.5188
G1 X269.9116 Y361.0488
G3 X269.8819 Y361.0752 I-0.5131 J-0.547
G1 X269.6228 Y361.2937
G3 X269.585 Y361.3235 I-0.4834 J-0.5734
G1 X269.3031 Y361.5318
G3 X269.2696 Y361.5551 I-0.4456 J-0.6032
G1 X268.9801 Y361.7456
G3 X268.9441 Y361.7679 I-0.4122 J-0.6266
G1 X268.6418 Y361.9431
G3 X268.601 Y361.9651 I-0.3762 J-0.6488
G1 X268.2454 Y362.1429
G3 X268.1902 Y362.1678 I-0.3354 J-0.6708
G1 X267.8244 Y362.3151
G3 X267.7926 Y362.3271 I-0.2802 J-0.6957
G1 X267.4091 Y362.4617
G3 X267.3492 Y362.48 I-0.2484 J-0.7077
G1 X266.9581 Y362.5816
G3 X266.2703 Y362.4154 I-0.1885 J-0.7259
G1 X266.1763 Y362.3316
G3 X266.1754 Y362.3308 I0.4992 J-0.5597
G1 X266.0812 Y362.2465
G1 X265.893 Y362.0809
G3 X265.881 Y362.0701 I0.4955 J-0.563
G1 X265.7871 Y361.9837
G1 X265.6931 Y361.8974
G1 X265.6032 Y361.8148
G1 X265.5134 Y361.7347
G3 X265.2711 Y361.0623 I0.4992 J-0.5597
G1 X265.3321 Y360.661
G3 X265.3415 Y360.6104 I0.7415 J0.1126
G1 X265.4304 Y360.2116
G3 X265.4441 Y360.1593 I0.732 J0.1632
G1 X265.5584 Y359.7783
G3 X265.5743 Y359.731 I0.7184 J0.2155
G1 X265.714 Y359.3576
G3 X265.7302 Y359.3178 I0.7024 J0.2628
G1 X265.8724 Y358.9952
G3 X265.8901 Y358.9581 I0.6862 J0.3026
G1 X266.0476 Y358.6482
G3 X266.0702 Y358.607 I0.6686 J0.3398
G1 X266.2454 Y358.3098
G3 X266.27 Y358.2709 I0.646 J0.381
G1 X266.4605 Y357.9889
G3 X266.4813 Y357.9597 I0.6214 J0.4199
G1 X266.6845 Y357.688
G3 X266.7141 Y357.6508 I0.6007 J0.4491
G1 X266.9326 Y357.3943
G3 X266.9462 Y357.3787 I0.571 J0.4862
G1 X267.642 Y356.6057
G1 X267.4244 Y356.3955
G3 X267.4152 Y356.3864 I0.5211 J-0.5394
G1 X267.1229 Y356.0941
G1 X266.828 Y355.8042
G3 X266.8188 Y355.7951 I0.5257 J-0.5349
G1 X266.5267 Y355.4979
G3 X266.5245 Y355.4956 I0.5349 J-0.5257
G1 X266.2335 Y355.197
G1 X266.0182 Y354.9779
G1 X265.2394 Y355.6793
G3 X265.2209 Y355.6954 I-0.5019 J-0.5573
G1 X264.9619 Y355.9139
G3 X264.9302 Y355.9391 I-0.4834 J-0.5734
G1 X264.661 Y356.1423
G3 X264.6317 Y356.1633 I-0.4518 J-0.5986
G1 X264.3523 Y356.3539
G3 X264.3124 Y356.3792 I-0.4225 J-0.6197
G1 X264.0127 Y356.557
G3 X263.9698 Y356.5806 I-0.3827 J-0.645
G1 X263.6599 Y356.7381
G3 X263.6248 Y356.7548 I-0.3398 J-0.6686
G1 X263.3047 Y356.8971
G3 X263.2645 Y356.9136 I-0.3046 J-0.6854
G1 X262.8937 Y357.0533
G3 X262.8448 Y357.0698 I-0.2644 J-0.7019
G1 X262.4638 Y357.1841
G3 X262.4135 Y357.1973 I-0.2155 J-0.7184
G1 X262.0198 Y357.2862
G3 X261.9718 Y357.2954 I-0.1652 J-0.7316
G1 X261.5704 Y357.3589
G3 X260.901 Y357.1256 I-0.1172 J-0.7408
G1 X260.8146 Y357.0316
G3 X260.8071 Y357.0233 I0.5522 J-0.5075
G1 X260.727 Y356.9335
G1 X260.6444 Y356.8436
G3 X260.6304 Y356.8279 I0.5522 J-0.5075
G1 X260.5535 Y356.7394
G1 X260.4743 Y356.6531
G3 X260.4668 Y356.6449 I0.5522 J-0.5075
G1 X260.383 Y356.5509
G1 X260.2995 Y356.4574
G1 X260.2136 Y356.3613
G3 X260.0474 Y355.6694 I0.5589 J-0.5001
G1 X260.1516 Y355.2757
G3 X260.1656 Y355.2289 I0.7251 J0.1918
G1 X260.2951 Y354.8428
G3 X260.3132 Y354.7946 I0.711 J0.2386
G1 X260.4656 Y354.4263
G3 X260.4868 Y354.3796 I0.693 J0.2868
G1 X260.6646 Y354.0214
G3 X260.6852 Y353.9828 I0.6718 J0.3335
G1 X260.8579 Y353.6806
G3 X260.8834 Y353.6392 I0.6512 J0.3721
G1 X261.0764 Y353.3471
G3 X261.0982 Y353.3159 I0.6257 J0.4135
G1 X261.304 Y353.0365
G3 X261.3341 Y352.9982 I0.6039 J0.4447
G1 X261.55 Y352.7417
G3 X261.5716 Y352.7171 I0.5738 J0.4829
G1 X261.8028 Y352.4656
G3 X261.839 Y352.4288 I0.5522 J0.5076
G1 X262.0828 Y352.1977
G3 X262.0976 Y352.1841 I0.516 J0.5443
G1 X262.8741 Y351.4865
G1 X262.6779 Y351.2511
G3 X262.6761 Y351.2489 I0.5762 J-0.4801
G1 X262.4094 Y350.9263
G3 X262.4049 Y350.9208 I0.578 J-0.4779
G1 X262.1433 Y350.5982
G3 X262.1415 Y350.596 I0.5825 J-0.4724
G1 X261.8799 Y350.2709
G3 X261.8776 Y350.2681 I0.5843 J-0.4702
G1 X261.6185 Y349.9429
G3 X261.6145 Y349.9379 I0.5865 J-0.4674
G1 X261.4258 Y349.6968
G1 X260.5788 Y350.3131
G3 X260.5638 Y350.3237 I-0.4413 J-0.6064
G1 X260.2844 Y350.5168
G3 X260.2423 Y350.5438 I-0.4263 J-0.617
G1 X259.9527 Y350.7166
G3 X259.9218 Y350.7341 I-0.3842 J-0.6441
G1 X259.622 Y350.8941
G3 X259.582 Y350.9139 I-0.3532 J-0.6616
G1 X259.2671 Y351.0587
G3 X259.2267 Y351.0758 I-0.3132 J-0.6815
G1 X258.9016 Y351.2028
G3 X258.8593 Y351.2179 I-0.2729 J-0.6986
G1 X258.5291 Y351.3246
G3 X258.4849 Y351.3374 I-0.2306 J-0.7137
G1 X258.0988 Y351.4365
G3 X258.0521 Y351.4469 I-0.1864 J-0.7265
G1 X257.6635 Y351.5205
G3 X257.6128 Y351.5284 I-0.1397 J-0.7369
G1 X257.2089 Y351.5766
G3 X257.1576 Y351.581 I-0.089 J-0.7447
G1 X256.7538 Y351.6013
G3 X256.1108 Y351.2951 I-0.0377 J-0.7491
G1 X256.0346 Y351.191
G3 X256.0327 Y351.1883 I0.6053 J-0.4429
G1 X255.96 Y351.088
G1 X255.8873 Y350.9888
G1 X255.8138 Y350.8908
G3 X255.8045 Y350.8781 I0.6 J-0.45
G1 X255.5073 Y350.4641
G3 X255.4155 Y349.7603 I0.6093 J-0.4373
G1 X255.5603 Y349.3793
G3 X255.5806 Y349.3311 I0.7011 J0.2664
G1 X255.7508 Y348.9628
G3 X255.7715 Y348.9213 I0.6808 J0.3146
G1 X255.962 Y348.5682
G3 X255.9893 Y348.5217 I0.66 J0.3561
G1 X256.2027 Y348.1864
G3 X256.227 Y348.1505 I0.6327 J0.4027
G1 X256.4302 Y347.8686
G3 X256.4567 Y347.834 I0.6084 J0.4385
G1 X256.6777 Y347.5622
G3 X256.7079 Y347.5273 I0.5819 J0.4731
G1 X256.9441 Y347.2708
G3 X256.9741 Y347.24 I0.5517 J0.508
G1 X257.2154 Y347.0063
G3 X257.2445 Y346.9796 I0.5218 J0.5388
G1 X257.501 Y346.7561
G3 X257.5356 Y346.7278 I0.4927 J0.5655
G1 X257.8023 Y346.522
G3 X257.8194 Y346.5092 I0.4581 J0.5938
G1 X258.6633 Y345.8956
G1 X258.4945 Y345.6453
G3 X258.4917 Y345.641 I0.6219 J-0.4192
G1 X258.2605 Y345.2931
G3 X258.2584 Y345.2899 I0.6247 J-0.415
G1 X258.0298 Y344.9419
G3 X258.0243 Y344.9333 I0.6268 J-0.4118
G1 X257.8011 Y344.5834
G1 X257.5754 Y344.2309
G3 X257.5713 Y344.2244 I0.6316 J-0.4044
G1 X257.4107 Y343.9678
G1 X256.5011 Y344.4917
G3 X256.4824 Y344.5021 I-0.3743 J-0.6499
G1 X256.1852 Y344.6621
G3 X256.1492 Y344.6803 I-0.3556 J-0.6604
G1 X255.8419 Y344.825
G3 X255.8047 Y344.8413 I-0.3196 J-0.6785
G1 X255.4923 Y344.9683
G3 X255.447 Y344.9851 I-0.2824 J-0.6948
G1 X255.1193 Y345.0943
G3 X255.0781 Y345.1067 I-0.2372 J-0.7115
G1 X254.7403 Y345.1982
G3 X254.703 Y345.2072 I-0.196 J-0.7239
G1 X254.3626 Y345.2809
G3 X254.3141 Y345.2898 I-0.1586 J-0.733
G1 X253.9204 Y345.3482
G3 X253.8727 Y345.3537 I-0.1101 J-0.7419
G1 X253.4772 Y345.3867
G3 X253.4242 Y345.3893 I-0.0624 J-0.7474
G1 X253.0206 Y345.3943
G3 X252.9689 Y345.3932 I-0.0094 J-0.7499
G1 X252.5638 Y345.3703
G3 X251.9616 Y345.0052 I0.0423 J-0.7488
G1 X251.8966 Y344.896
G3 X251.892 Y344.8882 I0.6444 J-0.3837
G1 X251.8288 Y344.779
G1 X251.7641 Y344.6674
G3 X251.7635 Y344.6664 I0.6489 J-0.3761
G1 X251.5098 Y344.227
G3 X251.5027 Y344.2145 I0.6495 J-0.3751
G1 X251.441 Y344.1027
G3 X251.4278 Y343.4025 I0.6565 J-0.3626
G1 X251.611 Y343.0393
G3 X251.6347 Y342.9959 I0.6697 J0.3377
G1 X251.8414 Y342.6454
G3 X251.8714 Y342.5985 I0.646 J0.381
G1 X252.099 Y342.2709
G3 X252.1245 Y342.2363 I0.616 J0.4279
G1 X252.3711 Y341.9214
G3 X252.4036 Y341.8826 I0.5905 J0.4624
G1 X252.6363 Y341.6236
G3 X252.6643 Y341.5941 I0.558 J0.5011
G1 X252.9109 Y341.3477
G3 X252.9477 Y341.3133 I0.5301 J0.5306
G1 X253.2096 Y341.0847
G3 X253.2353 Y341.0633 I0.4932 J0.565
G1 X253.4997 Y340.8525
G3 X253.5414 Y340.8215 I0.4676 J0.5864
G1 X253.8214 Y340.6284
G3 X253.8497 Y340.6098 I0.4258 J0.6174
G1 X254.1341 Y340.432
G3 X254.1567 Y340.4185 I0.3975 J0.636
G1 X255.0604 Y339.8968
G1 X254.9183 Y339.6291
G3 X254.9164 Y339.6255 I0.6624 J-0.3518
G1 X254.7233 Y339.2572
G3 X254.7205 Y339.2517 I0.6643 J-0.3482
G1 X254.53 Y338.8809
G3 X254.5254 Y338.8717 I0.6671 J-0.3427
G1 X254.3409 Y338.5002
G1 X254.1538 Y338.1286
G3 X254.1502 Y338.1213 I0.6699 J-0.3372
G1 X254.0165 Y337.8483
G1 X253.059 Y338.2756
G3 X253.0354 Y338.2857 I-0.3057 J-0.6849
G1 X252.7225 Y338.4127
G3 X252.688 Y338.4257 I-0.282 J-0.6949
G1 X252.3685 Y338.5374
G3 X252.3247 Y338.5513 I-0.2476 J-0.7079
G1 X252.0008 Y338.6427
G3 X251.9661 Y338.6516 I-0.2038 J-0.7218
G1 X251.6257 Y338.7304
G3 X251.572 Y338.7408 I-0.169 J-0.7307
G1 X251.2291 Y338.7941
G3 X251.1955 Y338.7985 I-0.1153 J-0.7411
G1 X250.848 Y338.8366
G3 X250.7951 Y338.8406 I-0.0817 J-0.7455
G1 X250.3981 Y338.8558
G3 X250.3549 Y338.8562 I-0.0288 J-0.7494
G1 X249.9581 Y338.8486
G3 X249.9018 Y338.8454 I0.0144 J-0.7499
G1 X249.4995 Y338.8073
G3 X249.4525 Y338.8013 I0.0707 J-0.7467
G1 X249.0529 Y338.7378
G3 X248.4893 Y338.3106 I0.1177 J-0.7407
G1 X248.4367 Y338.1963
G3 X248.4312 Y338.1839 I0.6814 J-0.3134
G1 X248.3806 Y338.0687
G1 X248.2779 Y337.8416
G3 X248.2733 Y337.8313 I0.6832 J-0.3093
G1 X248.2244 Y337.7189
G1 X248.1738 Y337.6064
G3 X248.1699 Y337.5977 I0.6839 J-0.3078
G1 X248.1209 Y337.4849
G1 X248.0714 Y337.3746
G3 X248.1248 Y336.6619 I0.6842 J-0.3071
G1 X248.3452 Y336.319
G3 X248.3735 Y336.278 I0.6309 J0.4056
G1 X248.6163 Y335.9504
G3 X248.6506 Y335.9074 I0.6026 J0.4466
G1 X248.911 Y335.6052
G3 X248.9432 Y335.5701 I0.5683 J0.4895
G1 X249.2216 Y335.2856
G3 X249.2521 Y335.2562 I0.536 J0.5246
G1 X249.5109 Y335.02
G3 X249.545 Y334.9906 I0.5056 J0.554
G1 X249.8153 Y334.7722
G3 X249.8539 Y334.743 I0.4715 J0.5833
G1 X250.1379 Y334.5423
G3 X250.1712 Y334.5201 I0.4328 J0.6125
G1 X250.4577 Y334.3398
G3 X250.4966 Y334.3169 I0.3995 J0.6347
G1 X250.793 Y334.1543
G3 X250.8268 Y334.1369 I0.3606 J0.6576
G1 X251.1311 Y333.9896
G3 X251.1521 Y333.9798 I0.3268 J0.675
G1 X252.1057 Y333.5538
G1 X251.9918 Y333.2712
G3 X251.99 Y333.2669 I0.6956 J-0.2805
G1 X251.8371 Y332.8808
G3 X251.8349 Y332.8753 I0.6973 J-0.2762
G1 X251.6846 Y332.4867
G3 X251.6829 Y332.4823 I0.6995 J-0.2706
G1 X251.5353 Y332.0936
G3 X251.5338 Y332.0897 I0.7011 J-0.2663
G1 X251.3878 Y331.6986
G3 X251.386 Y331.6937 I0.7026 J-0.2623
G1 X251.2814 Y331.4077
G1 X250.2833 Y331.7328
G3 X250.26 Y331.7399 I-0.2323 J-0.7131
G1 X249.9362 Y331.8339
G3 X249.8962 Y331.8443 I-0.209 J-0.7203
G1 X249.5667 Y331.9205
G3 X249.5272 Y331.9286 I-0.169 J-0.7307
G1 X249.194 Y331.987
G3 X249.1523 Y331.9931 I-0.1295 J-0.7387
G1 X248.8076 Y332.0337
G3 X248.7634 Y332.0376 I-0.0878 J-0.7448
G1 X248.4147 Y332.058
G3 X248.371 Y332.0592 I-0.0436 J-0.7487
G1 X248.0226
G3 X247.9745 Y332.0577 I0.0 J-0.75
G1 X247.579 Y332.0323
G3 X247.5312 Y332.0277 I0.0481 J-0.7485
G1 X247.1372 Y331.9769
G3 X247.0872 Y331.9687 I0.0959 J-0.7438
G1 X246.6902 Y331.8899
G3 X246.6433 Y331.8791 I0.1459 J-0.7357
G1 X246.2518 Y331.7749
G3 X245.7318 Y331.2833 I0.1928 J-0.7248
G1 X245.6927 Y331.1636
G1 X245.6536 Y331.0465
G3 X245.6503 Y331.0366 I0.7114 J-0.2376
G1 X245.6123 Y330.9174
G1 X245.5733 Y330.7981
G3 X245.5708 Y330.7901 I0.7128 J-0.2332
G1 X245.5348 Y330.6758
G1 X245.497 Y330.564
G3 X245.492 Y330.5488 I0.7104 J-0.2403
G1 X245.4153 Y330.3049
G3 X245.5455 Y329.6108 I0.7154 J-0.2251
G1 X245.8001 Y329.2932
G3 X245.8334 Y329.2544 I0.5852 J0.4691
G1 X246.1092 Y328.9547
G3 X246.1465 Y328.917 I0.5519 J0.5079
G1 X246.4373 Y328.6427
G3 X246.4727 Y328.6113 I0.5146 J0.5456
G1 X246.7786 Y328.3573
G3 X246.8164 Y328.3279 I0.4792 J0.577
G1 X247.0991 Y328.1221
G3 X247.1346 Y328.0978 I0.4413 J0.6064
G1 X247.4267 Y327.9099
G3 X247.4612 Y327.889 I0.4058 J0.6307
G1 X247.7642 Y327.7163
G3 X247.8079 Y327.6932 I0.3714 J0.6516
G1 X248.1112 Y327.5459
G3 X248.1458 Y327.5302 I0.3277 J0.6746
G1 X248.457 Y327.3981
G3 X248.4967 Y327.3825 I0.2931 J0.6904
G1 X248.8152 Y327.2682
G3 X248.8366 Y327.2609 I0.2533 J0.7059
G1 X249.8285 Y326.9383
G1 X249.7454 Y326.6433
G3 X249.7445 Y326.64 I0.7219 J-0.2033
G1 X249.6327 Y326.2361
G3 X249.632 Y326.2334 I0.7228 J-0.2
G1 X249.5233 Y325.8346
G3 X249.5221 Y325.8301 I0.7236 J-0.1973
G1 X249.4146 Y325.4263
G3 X249.4128 Y325.4194 I0.7248 J-0.1928
G1 X249.3095 Y325.0156
G3 X249.3089 Y325.0134 I0.7266 J-0.186
G1 X249.2339 Y324.7168
G1 X248.208 Y324.9357
G3 X248.187 Y324.9399 I-0.1565 J-0.7335
G1 X247.855 Y325.0008
G3 X247.8094 Y325.0078 I-0.1355 J-0.7377
G1 X247.4729 Y325.0484
G3 X247.4339 Y325.0521 I-0.0899 J-0.7446
G1 X247.0978 Y325.0749
G3 X247.0578 Y325.0766 I-0.0509 J-0.7483
G1 X246.7091 Y325.0817
G3 X246.6598 Y325.0808 I-0.0109 J-0.7499
G1 X246.3128 Y325.063
G3 X246.2749 Y325.0601 I0.0384 J-0.749
G1 X245.9274 Y325.0245
G3 X245.879 Y325.018 I0.0764 J-0.7461
G1 X245.4875 Y324.9519
G3 X245.4394 Y324.9422 I0.1248 J-0.7395
G1 X245.0535 Y324.8507
G3 X245.0056 Y324.8377 I0.173 J-0.7298
G1 X244.6182 Y324.7183
G3 X244.5664 Y324.7002 I0.2209 J-0.7167
G1 X244.189 Y324.5529
G3 X243.7296 Y324.0171 I0.2727 J-0.6987
G1 X243.7019 Y323.8926
G3 X243.6997 Y323.8826 I0.7321 J-0.1629
G1 X243.6749 Y323.7632
G1 X243.6483 Y323.6437
G3 X243.6466 Y323.6358 I0.7321 J-0.1629
G1 X243.594 Y323.3869
G3 X243.5936 Y323.3848 I0.7338 J-0.155
G1 X243.5678 Y323.261
G1 X243.5418 Y323.1373
G1 X243.5156 Y323.0128
G3 X243.7176 Y322.3298 I0.734 J-0.1543
G1 X244.0054 Y322.0403
G3 X244.0406 Y322.0071 I0.532 J0.5287
G1 X244.3452 Y321.7378
G3 X244.3879 Y321.7028 I0.4968 J0.5619
G1 X244.7051 Y321.4615
G3 X244.7401 Y321.4364 I0.454 J0.5969
G1 X245.0718 Y321.2129
G3 X245.1145 Y321.1862 I0.4191 J0.622
G1 X245.4165 Y321.011
G3 X245.4586 Y320.9883 I0.3764 J0.6487
G1 X245.7698 Y320.8333
G3 X245.803 Y320.8178 I0.3343 J0.6714
G1 X246.1218 Y320.6781
G3 X246.1642 Y320.661 I0.301 J0.6869
G1 X246.4822 Y320.5442
G3 X246.5259 Y320.5296 I0.2587 J0.704
G1 X246.8484 Y320.4331
G3 X246.8785 Y320.4248 I0.215 J0.7185
G1 X247.2079 Y320.341
G3 X247.238 Y320.334 I0.1849 J0.7268
G1 X248.2567 Y320.119
G1 X248.2042 Y319.8172
G3 X248.2035 Y319.8131 I0.7389 J-0.1286
G1 X248.1346 Y319.4041
G3 X248.1338 Y319.3989 I0.7396 J-0.1245
G1 X248.0675 Y318.9874
G3 X248.067 Y318.9843 I0.7405 J-0.1193
G1 X248.0025 Y318.5728
G3 X248.0014 Y318.5661 I0.7409 J-0.1162
G1 X247.9407 Y318.1546
G3 X247.9403 Y318.1517 I0.742 J-0.1095
G1 X247.8968 Y317.8485
G1 X246.8536 Y317.9579
G3 X246.8317 Y317.9599 I-0.0783 J-0.7459
G1 X246.4941 Y317.9853
G3 X246.4548 Y317.9872 I-0.0563 J-0.7479
G1 X246.1172 Y317.9949
G3 X246.0721 Y317.9945 I-0.0169 J-0.7498
G1 X245.7345 Y317.9818
G3 X245.6917 Y317.979 I0.0282 J-0.7495
G1 X245.3443 Y317.946
G3 X245.3004 Y317.9405 I0.071 J-0.7466
G1 X244.956 Y317.8872
G3 X244.9174 Y317.8801 I0.1148 J-0.7412
G1 X244.577 Y317.809
G3 X244.5286 Y317.7972 I0.1534 J-0.7341
G1 X244.1468 Y317.6905
G3 X244.0994 Y317.6756 I0.2018 J-0.7223
G1 X243.7245 Y317.5435
G3 X243.6773 Y317.525 I0.2492 J-0.7074
G1 X243.3054 Y317.365
G3 X243.2631 Y317.3452 I0.2965 J-0.6889
G1 X242.9019 Y317.1623
G3 X242.4951 Y316.5741 I0.3388 J-0.6691
G1 X242.4399 Y316.0661
G3 X242.439 Y316.0569 I0.7456 J-0.0809
G1 X242.4273 Y315.935
G1 X242.4139 Y315.8132
G3 X242.413 Y315.8043 I0.7455 J-0.082
G1 X242.4009 Y315.6806
G1 X242.3882 Y315.5544
G3 X242.6587 Y314.9 I0.7463 J-0.0746
G1 X242.9745 Y314.6409
G3 X243.0185 Y314.6074 I0.4758 J0.5798
G1 X243.3505 Y314.3737
G3 X243.3873 Y314.3494 I0.4317 J0.6133
G1 X243.7277 Y314.1385
G3 X243.7774 Y314.1103 I0.3949 J0.6376
G1 X244.1302 Y313.9274
G3 X244.165 Y313.9105 I0.3452 J0.6659
G1 X244.4836 Y313.7657
G3 X244.5315 Y313.7459 I0.3104 J0.6828
G1 X244.8579 Y313.624
G3 X244.896 Y313.6109 I0.2624 J0.7026
G1 X245.2282 Y313.5068
G3 X245.2661 Y313.496 I0.2243 J0.7157
G1 X245.5928 Y313.4121
G3 X245.6383 Y313.402 I0.1864 J0.7265
G1 X245.9703 Y313.3385
G3 X246.0097 Y313.332 I0.1409 J0.7366
G1 X246.3445 Y313.2863
G3 X246.3674 Y313.2835 I0.1015 J0.7431
G1 X247.4056 Y313.1742
G1 X247.3846 Y312.8693
G3 X247.3843 Y312.8651 I0.7482 J-0.0516
G1 X247.3581 Y312.4511
G3 X247.3577 Y312.443 I0.7485 J-0.0473
G1 X247.3358 Y312.0265
G3 X247.3357 Y312.0246 I0.749 J-0.0393
G1 X247.3149 Y311.6081
G3 X247.3147 Y311.6033 I0.7491 J-0.0375
G1 X247.2966 Y311.1892
G3 X247.2964 Y311.1839 I0.7493 J-0.0326
G1 X247.2853 Y310.8779
G1 X246.2364
G3 X246.2138 Y310.8775 I0.0 J-0.75
G1 X245.8763 Y310.8674
G3 X245.837 Y310.8652 I0.0226 J-0.7497
G1 X245.4994 Y310.8372
G3 X245.4542 Y310.8321 I0.0619 J-0.7474
G1 X245.1195 Y310.7839
G3 X245.0783 Y310.7767 I0.107 J-0.7423
G1 X244.738 Y310.7082
G3 X244.6952 Y310.6982 I0.1481 J-0.7352
G1 X244.3574 Y310.6093
G3 X244.3179 Y310.5978 I0.1909 J-0.7253
G1 X243.9874 Y310.4911
G3 X243.9441 Y310.4756 I0.2304 J-0.7137
G1 X243.5748 Y310.3308
G3 X243.524 Y310.3088 I0.2737 J-0.6983
G1 X243.1641 Y310.136
G3 X243.125 Y310.1158 I0.3245 J-0.6762
G1 X242.7722 Y309.9202
G3 X242.7228 Y309.8903 I0.3636 J-0.656
G1 X242.384 Y309.6668
G3 X242.047 Y309.0498 I0.413 J-0.6261
G1 X242.0455 Y308.9227
G3 X242.0454 Y308.9137 I0.7499 J-0.009
G1 Y308.1517
G3 X242.0455 Y308.1429 I0.75 J0.0
G1 X242.047 Y308.0134
G3 X242.3852 Y307.3953 I0.7499 J0.0088
G1 X242.7256 Y307.1718
G3 X242.7723 Y307.1435 I0.4117 J0.6269
G1 X243.1279 Y306.9454
G3 X243.1682 Y306.9245 I0.365 J0.6552
G1 X243.5279 Y306.7517
G3 X243.5755 Y306.7309 I0.3247 J0.6761
G1 X243.9461 Y306.5836
G3 X243.9931 Y306.5667 I0.2771 J0.6969
G1 X244.324 Y306.46
G3 X244.3631 Y306.4486 I0.2301 J0.7138
G1 X244.7007 Y306.3597
G3 X244.7442 Y306.3496 I0.191 J0.7253
G1 X245.0861 Y306.281
G3 X245.1261 Y306.2741 I0.1475 J0.7354
G1 X245.4594 Y306.2258
G3 X245.4994 Y306.2211 I0.1075 J0.7423
G1 X245.837 Y306.1906
G3 X245.8819 Y306.1879 I0.0674 J0.747
G1 X246.2194 Y306.1778
G3 X246.242 Y306.1774 I0.0226 J0.7497
G1 X247.2853
G1 X247.2964 Y305.8738
G3 X247.2966 Y305.8688 I0.7495 J0.0274
G1 X247.3147 Y305.4523
G3 X247.3149 Y305.4473 I0.7493 J0.0324
G1 X247.3357 Y305.0307
G3 X247.3358 Y305.0289 I0.7491 J0.0375
G1 X247.3577 Y304.6123
G3 X247.3581 Y304.6043 I0.749 J0.0393
G1 X247.3843 Y304.1903
G3 X247.3846 Y304.186 I0.7485 J0.0473
G1 X247.4056 Y303.8813
G1 X246.3624 Y303.7719
G3 X246.3392 Y303.7691 I0.0783 J-0.7459
G1 X246.0042 Y303.7233
G3 X245.9647 Y303.7169 I0.1014 J-0.7431
G1 X245.6327 Y303.6534
G3 X245.5933 Y303.6447 I0.1409 J-0.7366
G1 X245.2651 Y303.5635
G3 X245.2209 Y303.5511 I0.1803 J-0.728
G1 X244.889 Y303.4469
G3 X244.8464 Y303.4322 I0.2245 J-0.7156
G1 X244.5198 Y303.3077
G3 X244.4796 Y303.291 I0.267 J-0.7008
G1 X244.1628 Y303.1488
G3 X244.1249 Y303.1305 I0.3072 J-0.6842
G1 X243.7721 Y302.9476
G3 X243.7282 Y302.9229 I0.3452 J-0.6659
G1 X243.3891 Y302.7172
G3 X243.3453 Y302.6885 I0.389 J-0.6412
G1 X243.0146 Y302.4548
G3 X242.9729 Y302.4231 I0.4328 J-0.6125
G1 X242.6589 Y302.1665
G3 X242.3869 Y301.5141 I0.4746 J-0.5808
G1 X242.3991 Y301.3871
G3 X242.4002 Y301.3766 I0.7466 J0.0717
G1 X242.4134 Y301.2566
G1 X242.4379 Y301.0071
G3 X242.4386 Y300.9998 I0.7464 J0.0731
G1 X242.4935 Y300.4917
G3 X242.8978 Y299.9045 I0.7457 J0.0805
G1 X243.2605 Y299.7191
G3 X243.3073 Y299.6971 I0.3414 J0.6678
G1 X243.6819 Y299.5371
G3 X243.724 Y299.5206 I0.2946 J0.6897
G1 X244.1004 Y299.386
G3 X244.1522 Y299.3696 I0.2526 J0.7062
G1 X244.5363 Y299.2629
G3 X244.5785 Y299.2525 I0.2007 J0.7226
G1 X244.9191 Y299.1788
G3 X244.9629 Y299.1707 I0.1585 J0.7331
G1 X245.3076 Y299.1174
G3 X245.351 Y299.1119 I0.1147 J0.7412
G1 X245.6967 Y299.0789
G3 X245.7398 Y299.076 I0.0713 J0.7466
G1 X246.0774 Y299.0633
G3 X246.1224 Y299.063 I0.0282 J0.7495
G1 X246.4615 Y299.0706
G3 X246.4956 Y299.0722 I-0.0168 J0.7498
G1 X246.8316 Y299.095
G3 X246.8592 Y299.0974 I-0.0509 J0.7483
G1 X247.8968 Y299.2066
G1 X247.9403 Y298.9036
G3 X247.9407 Y298.9007 I0.7424 J0.1066
G1 X248.0014 Y298.4892
G3 X248.0025 Y298.4825 I0.742 J0.1095
G1 X248.067 Y298.071
G3 X248.0675 Y298.0679 I0.7409 J0.1162
G1 X248.1338 Y297.6564
G3 X248.1345 Y297.652 I0.7405 J0.1193
G1 X248.2033 Y297.2405
G3 X248.2043 Y297.2348 I0.7397 J0.1237
G1 X248.2566 Y296.936
G1 X247.2304 Y296.7187
G3 X247.2052 Y296.7129 I0.1553 J-0.7337
G1 X246.8775 Y296.6316
G3 X246.8439 Y296.6225 I0.1806 J-0.7279
G1 X246.52 Y296.5259
G3 X246.475 Y296.511 I0.2142 J-0.7188
G1 X246.1578 Y296.3941
G3 X246.1166 Y296.3775 I0.2592 J-0.7038
G1 X245.797 Y296.2378
G3 X245.7634 Y296.2221 I0.3004 J-0.6872
G1 X245.452 Y296.0672
G3 X245.4094 Y296.0442 I0.3341 J-0.6715
G1 X245.1076 Y295.869
G3 X245.0712 Y295.8464 I0.3767 J-0.6485
G1 X244.7402 Y295.6279
G3 X244.6974 Y295.5975 I0.4131 J-0.626
G1 X244.3822 Y295.3562
G3 X244.3442 Y295.3251 I0.4559 J-0.5955
G1 X244.0394 Y295.0584
G3 X244.0013 Y295.0227 I0.4939 J-0.5644
G1 X243.7161 Y294.7356
G3 X243.5126 Y294.0599 I0.532 J-0.5287
G1 X243.5375 Y293.9354
G3 X243.5387 Y293.9296 I0.7354 J0.1471
G1 X243.5646 Y293.8052
G3 X243.5651 Y293.803 I0.7343 J0.1528
G1 X243.6176 Y293.5545
G1 X243.6436 Y293.4304
G3 X243.6453 Y293.4225 I0.734 J0.1543
G1 X243.6996 Y293.1775
G1 X243.7249 Y293.057
G3 X244.1879 Y292.5119 I0.734 J0.1543
G1 X244.5682 Y292.3646
G3 X244.6146 Y292.3483 I0.271 J0.6993
G1 X245.0032 Y292.2264
G3 X245.0516 Y292.213 I0.2245 J0.7156
G1 X245.4404 Y292.119
G3 X245.4922 Y292.1084 I0.1762 J0.729
G1 X245.8849 Y292.0424
G3 X245.9275 Y292.0365 I0.1244 J0.7396
G1 X246.2744 Y291.9984
G3 X246.3235 Y291.9946 I0.0819 J0.7455
G1 X246.6712 Y291.9794
G3 X246.7095 Y291.9787 I0.0328 J0.7493
G1 X247.058 Y291.9812
G3 X247.1034 Y291.9829 I-0.0055 J0.75
G1 X247.4395 Y292.0058
G3 X247.4785 Y292.0095 I-0.0509 J0.7483
G1 X247.8148 Y292.0501
G3 X247.8602 Y292.057 I-0.09 J0.7446
G1 X248.1925 Y292.118
G3 X248.213 Y292.122 I-0.1354 J0.7377
G1 X249.2338 Y292.339
G1 X249.3089 Y292.0419
G3 X249.3095 Y292.0397 I0.7271 J0.1838
G1 X249.4128 Y291.6359
G3 X249.4146 Y291.629 I0.7266 J0.186
G1 X249.5221 Y291.2252
G3 X249.5233 Y291.2207 I0.7248 J0.1928
G1 X249.632 Y290.822
G3 X249.6327 Y290.8192 I0.7236 J0.1973
G1 X249.7445 Y290.4153
G3 X249.7458 Y290.4108 I0.7228 J0.2
G1 X249.8288 Y290.1177
G1 X248.8317 Y289.7946
G3 X248.8094 Y289.787 I0.2312 J-0.7135
G1 X248.4912 Y289.6727
G3 X248.4518 Y289.6573 I0.2535 J-0.7059
G1 X248.1404 Y289.5252
G3 X248.1053 Y289.5093 I0.2929 J-0.6905
G1 X247.8023 Y289.362
G3 X247.7593 Y289.3393 I0.3279 J-0.6745
G1 X247.4558 Y289.1666
G3 X247.4221 Y289.1462 I0.3709 J-0.6519
G1 X247.1287 Y288.9583
G3 X247.0956 Y288.9358 I0.4046 J-0.6315
G1 X246.8129 Y288.7326
G3 X246.7714 Y288.7005 I0.4377 J-0.609
G1 X246.4656 Y288.4465
G3 X246.4273 Y288.4125 I0.4792 J-0.577
G1 X246.1395 Y288.1381
G3 X246.1093 Y288.1076 I0.5175 J-0.5429
G1 X245.8337 Y287.8129
G3 X245.7956 Y287.7688 I0.5477 J-0.5123
G1 X245.5418 Y287.4513
G3 X245.4131 Y286.7552 I0.5859 J-0.4682
G1 X245.529 Y286.392
G3 X245.5307 Y286.3867 I0.7145 J0.2279
G1 X245.5704 Y286.2653
G1 X245.6091 Y286.1464
G3 X245.6101 Y286.1432 I0.7132 J0.2322
G1 X245.6899 Y285.9019
G3 X245.6906 Y285.8996 I0.7121 J0.2354
G1 X245.7305 Y285.7803
G3 X246.241 Y285.2953 I0.7114 J0.2376
G1 X246.634 Y285.1861
G3 X246.6898 Y285.1728 I0.2009 J0.7226
G1 X247.0894 Y285.0941
G3 X247.1341 Y285.0867 I0.145 J0.7358
G1 X247.5296 Y285.0333
G3 X247.5821 Y285.0281 I0.1002 J0.7433
G1 X247.9804 Y285.0027
G3 X248.0281 Y285.0012 I0.0477 J0.7485
G1 X248.3769
G3 X248.4205 Y285.0025 I0.0 J0.75
G1 X248.769 Y285.0228
G3 X248.8078 Y285.026 I-0.0437 J0.7487
G1 X249.1525 Y285.0641
G3 X249.1941 Y285.0699 I-0.0824 J0.7455
G1 X249.5273 Y285.1258
G3 X249.5775 Y285.136 I-0.124 J0.7397
G1 X249.9072 Y285.2147
G3 X249.9414 Y285.2238 I-0.1742 J0.7295
G1 X250.2663 Y285.3178
G3 X250.29 Y285.325 I-0.2084 J0.7205
G1 X251.2814 Y285.6478
G1 X251.386 Y285.3616
G3 X251.3878 Y285.3568 I0.7044 J0.2575
G1 X251.5338 Y284.9656
G3 X251.5353 Y284.9617 I0.7026 J0.2623
G1 X251.6829 Y284.5731
G3 X251.6846 Y284.5687 I0.7011 J0.2663
G1 X251.8349 Y284.18
G3 X251.8365 Y284.1761 I0.6995 J0.2706
G1 X251.9894 Y283.7875
G3 X251.9918 Y283.7816 I0.6979 J0.2746
G1 X252.1055 Y283.4996
G1 X251.1477 Y283.0734
G3 X251.1308 Y283.0656 I0.3049 J-0.6852
G1 X250.826 Y282.9209
G3 X250.7869 Y282.9009 I0.3218 J-0.6775
G1 X250.4908 Y282.7383
G3 X250.4481 Y282.713 I0.3609 J-0.6575
G1 X250.1616 Y282.5301
G3 X250.1323 Y282.5105 I0.4035 J-0.6322
G1 X249.8483 Y282.3098
G3 X249.8141 Y282.2841 I0.4328 J-0.6125
G1 X249.5428 Y282.0682
G3 X249.5078 Y282.0386 I0.467 J-0.5868
G1 X249.2485 Y281.8049
G3 X249.2145 Y281.7723 I0.5021 J-0.5572
G1 X248.9361 Y281.4878
G3 X248.9013 Y281.4497 I0.536 J-0.5246
G1 X248.6437 Y281.1474
G3 X248.6152 Y281.1117 I0.5709 J-0.4864
G1 X248.3726 Y280.7891
G3 X248.3425 Y280.7461 I0.5994 J-0.4508
G1 X248.1221 Y280.4058
G3 X248.0643 Y279.6977 I0.6295 J-0.4078
G1 X248.1151 Y279.5815
G1 X248.1656 Y279.4653
G3 X248.1686 Y279.4585 I0.6878 J0.299
G1 X248.2186 Y279.3465
G1 X248.2699 Y279.2296
G3 X248.2754 Y279.2172 I0.6869 J0.3011
G1 X248.3247 Y279.1101
G1 X248.3724 Y279.0005
G3 X248.3817 Y278.9799 I0.6878 J0.299
G1 X248.4307 Y278.8758
G1 X248.477 Y278.7693
G3 X249.0438 Y278.3282 I0.6878 J0.299
G1 X249.448 Y278.2621
G3 X249.4984 Y278.2556 I0.121 J0.7402
G1 X249.902 Y278.2175
G3 X249.9535 Y278.2145 I0.0705 J0.7467
G1 X250.353 Y278.2043
G3 X250.4008 Y278.2046 I0.0191 J0.7498
G1 X250.799 Y278.2198
G3 X250.8522 Y278.2238 I-0.0287 J0.7495
G1 X251.1994 Y278.2619
G3 X251.2323 Y278.2662 I-0.0818 J0.7455
G1 X251.577 Y278.3196
G3 X251.6267 Y278.329 I-0.1147 J0.7412
G1 X251.9658 Y278.4052
G3 X252.0096 Y278.4164 I-0.1644 J0.7318
G1 X252.3348 Y278.5104
G3 X252.3691 Y278.5212 I-0.2083 J0.7205
G1 X252.6886 Y278.6305
G3 X252.7329 Y278.6472 I-0.2426 J0.7097
G1 X253.0458 Y278.7767
G3 X253.0636 Y278.7843 I-0.2869 J0.693
G1 X254.0161 Y279.2078
G1 X254.1502 Y278.934
G3 X254.1538 Y278.9267 I0.6735 J0.3299
G1 X254.3413 Y278.5542
G1 X254.5263 Y278.1843
G3 X254.53 Y278.177 I0.6708 J0.3354
G1 X254.7205 Y277.8062
G3 X254.7224 Y277.8026 I0.6671 J0.3427
G1 X254.9154 Y277.4317
G3 X254.9193 Y277.4244 I0.6653 J0.3463
G1 X255.0611 Y277.1591
G1 X254.1517 Y276.6344
G3 X254.1316 Y276.6223 I0.3748 J-0.6496
G1 X253.8446 Y276.4445
G3 X253.8111 Y276.4225 I0.395 J-0.6376
G1 X253.5337 Y276.2295
G3 X253.5 Y276.2046 I0.4284 J-0.6156
G1 X253.2338 Y275.9963
G3 X253.198 Y275.9665 I0.4622 J-0.5907
G1 X252.9377 Y275.7353
G3 X252.9069 Y275.7065 I0.4979 J-0.5609
G1 X252.659 Y275.4601
G3 X252.6327 Y275.4326 I0.5287 J-0.532
G1 X252.3995 Y275.176
G3 X252.3659 Y275.1363 I0.555 J-0.5044
G1 X252.1192 Y274.8239
G3 X252.0919 Y274.787 I0.5887 J-0.4647
G1 X251.8661 Y274.4618
G3 X251.8373 Y274.4171 I0.616 J-0.4278
G1 X251.6306 Y274.0691
G3 X251.6058 Y274.0241 I0.6448 J-0.3831
G1 X251.4224 Y273.6608
G3 X251.4436 Y272.9458 I0.6695 J-0.338
G1 X251.5051 Y272.84
G1 X251.5651 Y272.7342
G3 X251.5668 Y272.7312 I0.6523 J0.3701
G1 X251.6936 Y272.5102
G3 X251.6946 Y272.5084 I0.6506 J0.3732
G1 X251.7591 Y272.3967
G3 X251.7603 Y272.3947 I0.6495 J0.375
G1 X251.8867 Y272.1772
G1 X251.9507 Y272.0665
G3 X252.5583 Y271.6926 I0.6495 J0.375
G1 X252.9664 Y271.6697
G3 X253.0178 Y271.6686 I0.0419 J0.7488
G1 X253.4242 Y271.6737
G3 X253.4768 Y271.6762 I-0.0094 J0.7499
G1 X253.875 Y271.7092
G3 X253.9185 Y271.7141 I-0.062 J0.7474
G1 X254.312 Y271.77
G3 X254.364 Y271.7793 I-0.1055 J0.7425
G1 X254.7069 Y271.8529
G3 X254.7416 Y271.8612 I-0.1575 J0.7333
G1 X255.0769 Y271.9501
G3 X255.1252 Y271.9647 I-0.1922 J0.7249
G1 X255.4554 Y272.0764
G3 X255.4954 Y272.0913 I-0.2404 J0.7104
G1 X255.8103 Y272.2183
G3 X255.847 Y272.2342 I-0.2805 J0.6956
G1 X256.1518 Y272.3765
G3 X256.1903 Y272.3957 I-0.3172 J0.6796
G1 X256.4874 Y272.5558
G3 X256.5063 Y272.5663 I-0.3556 J0.6604
G1 X257.4108 Y273.0874
G1 X257.5713 Y272.8309
G3 X257.5768 Y272.8223 I0.6357 J0.3979
G1 X257.8018 Y272.4734
G1 X258.0243 Y272.1245
G3 X258.0298 Y272.116 I0.6324 J0.4032
G1 X258.2584 Y271.768
G3 X258.2605 Y271.7648 I0.6268 J0.4118
G1 X258.4917 Y271.4168
G3 X258.4931 Y271.4147 I0.6247 J0.415
G1 X258.6642 Y271.159
G1 X257.8154 Y270.5444
G3 X257.7964 Y270.5302 I0.4399 J-0.6074
G1 X257.5272 Y270.3219
G3 X257.4938 Y270.2945 I0.4589 J-0.5932
G1 X257.2398 Y270.0735
G3 X257.2074 Y270.0436 I0.4923 J-0.5658
G1 X256.9661 Y269.8074
G3 X256.9416 Y269.7822 I0.5247 J-0.5359
G1 X256.7054 Y269.5282
G3 X256.6748 Y269.4933 I0.5492 J-0.5108
G1 X256.4538 Y269.224
G3 X256.4277 Y269.1903 I0.5797 J-0.4758
G1 X256.222 Y268.9084
G3 X256.1929 Y268.8655 I0.6058 J-0.4421
G1 X255.9821 Y268.5302
G3 X255.958 Y268.4891 I0.6349 J-0.3992
G1 X255.7675 Y268.1386
G3 X255.7465 Y268.0968 I0.659 J-0.3581
G1 X255.5763 Y267.7311
G3 X255.5558 Y267.6827 I0.68 J-0.3164
G1 X255.411 Y267.3042
G3 X255.4992 Y266.6031 I0.7005 J-0.268
G1 X255.5729 Y266.499
G3 X255.5754 Y266.4954 I0.6123 J0.4331
G1 X255.7227 Y266.2897
G3 X255.7273 Y266.2835 I0.6098 J0.4366
G1 X255.803 Y266.18
G1 X255.9524 Y265.9749
G3 X255.9586 Y265.9665 I0.6062 J0.4416
G1 X256.0321 Y265.8684
G1 X256.1057 Y265.7678
G3 X256.7484 Y265.4616 I0.6053 J0.4429
G1 X257.1548 Y265.482
G3 X257.2064 Y265.4863 I-0.0375 J0.7491
G1 X257.6102 Y265.5346
G3 X257.6601 Y265.5422 I-0.089 J0.7447
G1 X258.0512 Y265.6159
G3 X258.0932 Y265.6251 I-0.1388 J0.737
G1 X258.4818 Y265.7216
G3 X258.5366 Y265.7374 I-0.1808 J0.7279
G1 X258.8668 Y265.8466
G3 X258.8994 Y265.8583 I-0.2355 J0.7121
G1 X259.2245 Y265.9827
G3 X259.2676 Y266.0008 I-0.2681 J0.7004
G1 X259.5851 Y266.1455
G3 X259.6251 Y266.1652 I-0.3112 J0.6824
G1 X259.9222 Y266.3227
G3 X259.9594 Y266.3438 I-0.3512 J0.6627
G1 X260.249 Y266.5191
G3 X260.2831 Y266.541 I-0.3884 J0.6416
G1 X260.5625 Y266.7315
G3 X260.5811 Y266.7446 I-0.4225 J0.6197
G1 X261.4257 Y267.3587
G1 X261.6145 Y267.1174
G3 X261.6185 Y267.1124 I0.5905 J0.4624
G1 X261.8776 Y266.7873
G3 X261.8808 Y266.7834 I0.5865 J0.4674
G1 X262.404 Y266.1357
G3 X262.4094 Y266.1291 I0.5834 J0.4713
G1 X262.6761 Y265.8065
G3 X262.6779 Y265.8042 I0.578 J0.4779
G1 X262.8734 Y265.5697
G1 X262.0943 Y264.8681
G3 X262.0801 Y264.8549 I0.5019 J-0.5573
G1 X261.8337 Y264.6213
G3 X261.8001 Y264.5872 I0.5161 J-0.5442
G1 X261.5715 Y264.3408
G3 X261.5479 Y264.3141 I0.5498 J-0.5101
G1 X261.3294 Y264.0551
G3 X261.3015 Y264.0199 I0.5734 J-0.4834
G1 X261.0932 Y263.7405
G3 X261.0663 Y263.7019 I0.6013 J-0.4482
G1 X260.8758 Y263.4098
G3 X260.8528 Y263.3722 I0.6282 J-0.4097
G1 X260.6801 Y263.07
G3 X260.6605 Y263.0333 I0.6512 J-0.3721
G1 X260.4827 Y262.6777
G3 X260.4629 Y262.6348 I0.6708 J-0.3354
G1 X260.308 Y262.269
G3 X260.288 Y262.2165 I0.6906 J-0.2925
G1 X260.1585 Y261.8329
G3 X260.1443 Y261.7859 I0.7106 J-0.24
G1 X260.0401 Y261.3947
G3 X260.2126 Y260.6943 I0.7248 J-0.193
G1 X260.2919 Y260.6081
G1 X260.3688 Y260.5195
G3 X260.3828 Y260.5038 I0.5663 J0.4918
G1 X260.4654 Y260.4139
G1 X260.5455 Y260.3241
G1 X260.6293 Y260.2301
G3 X260.6368 Y260.2219 I0.5597 J0.4992
G1 X260.7198 Y260.1315
G1 X260.8029 Y260.0387
G3 X260.8095 Y260.0313 I0.5589 J0.5001
G1 X260.8959 Y259.9374
G3 X261.5654 Y259.7041 I0.5522 J0.5075
G1 X261.9667 Y259.7676
G3 X262.0137 Y259.7765 I-0.1172 J0.7408
G1 X262.4099 Y259.8654
G3 X262.4599 Y259.8785 I-0.1642 J0.7318
G1 X262.8435 Y259.9928
G3 X262.8863 Y260.007 I-0.2142 J0.7188
G1 X263.2623 Y260.1441
G3 X263.3118 Y260.1642 I-0.2571 J0.7046
G1 X263.6293 Y260.3065
G3 X263.6668 Y260.3246 I-0.3066 J0.6845
G1 X263.9767 Y260.4846
G3 X264.0112 Y260.5035 I-0.3441 J0.6664
G1 X264.3109 Y260.6788
G3 X264.3483 Y260.7022 I-0.3786 J0.6474
G1 X264.6303 Y260.8902
G3 X264.6661 Y260.9155 I-0.416 J0.624
G1 X264.9353 Y261.1188
G3 X264.9697 Y261.1464 I-0.4518 J0.5986
G1 X265.2263 Y261.3648
G3 X265.2412 Y261.3779 I-0.4862 J0.571
G1 X266.0196 Y262.0771
G1 X266.2301 Y261.8592
G3 X266.2346 Y261.8546 I0.5394 J0.5211
G1 X266.5267 Y261.5574
G1 X266.8188 Y261.2602
G3 X266.828 Y261.2511 I0.5349 J0.5257
G1 X267.124 Y260.9601
G1 X267.4175 Y260.6691
G3 X267.4244 Y260.6624 I0.528 J0.5326
G1 X267.6432 Y260.4511
G1 X266.9412 Y259.6717
G3 X266.9275 Y259.656 I0.5573 J-0.5019
G1 X266.709 Y259.3994
G3 X266.6794 Y259.3623 I0.571 J-0.4862
G1 X266.4762 Y259.0905
G3 X266.4546 Y259.06 I0.6007 J-0.4491
G1 X266.2666 Y258.7806
G3 X266.2439 Y258.7447 I0.6223 J-0.4186
G1 X266.0661 Y258.4449
G3 X266.0447 Y258.4064 I0.645 J-0.3827
G1 X265.8847 Y258.0965
G3 X265.8666 Y258.059 I0.6664 J-0.3441
G1 X265.7244 Y257.7415
G3 X265.7048 Y257.6935 I0.6845 J-0.3066
G1 X265.5677 Y257.3201
G3 X265.5537 Y257.2783 I0.704 J-0.2586
G1 X265.4394 Y256.8999
G3 X265.4258 Y256.8482 I0.718 J-0.2168
G1 X265.3369 Y256.4545
G3 X265.3277 Y256.4066 I0.7316 J-0.1652
G1 X265.2642 Y256.0052
G3 X265.4975 Y255.3358 I0.7408 J-0.1172
G1 X265.5915 Y255.2494
G1 X265.6855 Y255.163
G3 X265.6937 Y255.1556 I0.5075 J0.5522
G1 X265.7873 Y255.0721
G1 X265.8758 Y254.9929
G1 X265.9599 Y254.9135
G3 X265.9831 Y254.8925 I0.515 J0.5453
G1 X266.0759 Y254.8119
G1 X266.1657 Y254.7318
G1 X266.2618 Y254.6458
G3 X266.9537 Y254.4797 I0.5001 J0.5589
G1 X267.3474 Y254.5838
G3 X267.3942 Y254.5978 I-0.1918 J0.7251
G1 X267.7803 Y254.7274
G3 X267.8325 Y254.7471 I-0.2386 J0.711
G1 X268.2008 Y254.9021
G3 X268.2435 Y254.9216 I-0.2908 J0.6913
G1 X268.6016 Y255.0994
G3 X268.6402 Y255.12 I-0.3335 J0.6718
G1 X268.9425 Y255.2927
G3 X268.9801 Y255.3157 I-0.3721 J0.6512
G1 X269.2722 Y255.5062
G3 X269.3108 Y255.5331 I-0.4097 J0.6282
G1 X269.5902 Y255.7414
G3 X269.622 Y255.7665 I-0.4482 J0.6013
G1 X269.8811 Y255.9824
G3 X269.9141 Y256.0116 I-0.4801 J0.5762
G1 X270.1605 Y256.2428
G3 X270.1889 Y256.2708 I-0.5131 J0.547
G1 X270.4226 Y256.5146
G3 X270.4385 Y256.5318 I-0.5415 J0.5189
G1 X271.1361 Y257.3068
G1 X271.372 Y257.1102
G3 X271.3747 Y257.1079 I0.4801 J0.5762
G1 X271.6947 Y256.8438
G3 X271.697 Y256.8419 I0.4774 J0.5784
G1 X272.0196 Y256.5778
G3 X272.0246 Y256.5737 I0.4752 J0.5803
G1 X272.3497 Y256.3121
G3 X272.3547 Y256.3081 I0.4702 J0.5843
G1 X272.6824 Y256.049
G3 X272.683 Y256.0485 I0.4652 J0.5883
G1 X272.9232 Y255.859
G1 X272.307 Y255.0104
G3 X272.2942 Y254.9922 I0.6069 J-0.4407
G1 X272.1037 Y254.7128
G3 X272.0823 Y254.6797 I0.6197 J-0.4225
G1 X271.9071 Y254.3911
G3 X271.8845 Y254.3513 I0.641 J-0.3894
G1 X271.727 Y254.0524
G3 X271.7084 Y254.0144 I0.6636 J-0.3495
G1 X271.5636 Y253.6974
G3 X271.5476 Y253.6596 I0.6822 J-0.3116
G1 X271.4206 Y253.3358
G3 X271.4064 Y253.2964 I0.6982 J-0.2738
G1 X271.2972 Y252.9644
G3 X271.2822 Y252.9127 I0.7124 J-0.2344
G1 X271.1857 Y252.5284
G3 X271.1761 Y252.4848 I0.7274 J-0.1827
G1 X271.1024 Y252.0947
G3 X271.0948 Y252.0449 I0.737 J-0.1391
G1 X271.0465 Y251.6425
G3 X271.0421 Y251.5909 I0.7447 J-0.0893
G1 X271.0218 Y251.187
G3 X271.3218 Y250.5486 I0.7491 J-0.0377
G1 X271.4234 Y250.4727
G3 X271.4315 Y250.4667 I0.449 J0.6007
G1 X271.535 Y250.3915
G1 X271.636 Y250.3178
G3 X271.6363 Y250.3175 I0.4422 J0.6058
G1 X271.7404 Y250.2416
G3 X271.7427 Y250.2399 I0.4419 J0.606
G1 X272.1542 Y249.9422
G3 X272.8602 Y249.8488 I0.4396 J0.6077
G1 X273.2412 Y249.9936
G3 X273.2869 Y250.0127 I-0.2664 J0.7011
G1 X273.6577 Y250.1823
G3 X273.7053 Y250.2062 I-0.312 J0.682
G1 X274.0558 Y250.3977
G3 X274.0967 Y250.4217 I-0.3596 J0.6582
G1 X274.4345 Y250.6351
G3 X274.4736 Y250.6616 I-0.4005 J0.6341
G1 X274.7556 Y250.8655
G3 X274.7911 Y250.8929 I-0.4396 J0.6077
G1 X275.0604 Y251.1134
G3 X275.0909 Y251.1397 I-0.4752 J0.5803
G1 X275.3474 Y251.3739
G3 X275.3793 Y251.4049 I-0.5057 J0.5539
G1 X275.6156 Y251.6477
G3 X275.6443 Y251.679 I-0.5376 J0.523
G1 X275.8653 Y251.9335
G3 X275.892 Y251.966 I-0.5663 J0.4917
G1 X276.1002 Y252.235
G3 X276.1143 Y252.2538 I-0.593 J0.4592
G1 X276.7257 Y253.0966
G1 X276.978 Y252.9266
G3 X276.9833 Y252.9231 I0.419 J0.6221
G1 X277.3313 Y252.6929
G3 X277.3345 Y252.6908 I0.4137 J0.6256
G1 X277.6825 Y252.4633
G3 X277.6865 Y252.4606 I0.4105 J0.6277
G1 X278.037 Y252.2346
G3 X278.0409 Y252.2321 I0.4065 J0.6303
G1 X278.3914 Y252.0091
G3 X278.3951 Y252.0067 I0.4026 J0.6328
G1 X278.6546 Y251.8438
G1 X278.1296 Y250.9364
G3 X278.1182 Y250.9159 I0.6492 J-0.3756
G1 X277.9582 Y250.6182
G3 X277.9409 Y250.584 I0.6606 J-0.3551
G1 X277.7961 Y250.2782
G3 X277.7768 Y250.2337 I0.6779 J-0.3209
G1 X277.6523 Y249.9197
G3 X277.6392 Y249.8841 I0.6972 J-0.2764
G1 X277.5275 Y249.5544
G3 X277.5141 Y249.5106 I0.7103 J-0.2408
G1 X277.4226 Y249.1745
G3 X277.4133 Y249.1362 I0.7237 J-0.1969
G1 X277.3396 Y248.7959
G3 X277.3301 Y248.7429 I0.733 J-0.1586
G1 X277.2743 Y248.3502
G3 X277.2694 Y248.307 I0.7425 J-0.1057
G1 X277.2364 Y247.9115
G3 X277.2338 Y247.8585 I0.7474 J-0.0624
G1 X277.2287 Y247.4531
G3 X277.2299 Y247.4014 I0.7499 J-0.0094
G1 X277.2527 Y246.9965
G3 X277.6246 Y246.3904 I0.7488 J0.0423
G1 X277.731 Y246.3285
G1 X277.8374 Y246.2654
G3 X277.843 Y246.2621 I0.3826 J0.6451
G1 X277.9522 Y246.1986
G3 X277.9531 Y246.1981 I0.377 J0.6484
G1 X278.0649 Y246.1334
G3 X278.0678 Y246.1317 I0.3761 J0.6489
G1 X278.2888 Y246.0049
G3 X278.2918 Y246.0032 I0.3732 J0.6506
G1 X278.4009 Y245.9413
G1 X278.5124 Y245.8779
G3 X279.221 Y245.8605 I0.3705 J0.6521
G1 X279.5842 Y246.0439
G3 X279.6289 Y246.0685 I-0.338 J0.6695
G1 X279.9795 Y246.2765
G3 X280.02 Y246.3024 I-0.3828 J0.645
G1 X280.3503 Y246.5282
G3 X280.3922 Y246.559 I-0.4234 J0.6191
G1 X280.7046 Y246.8062
G3 X280.7404 Y246.8364 I-0.4653 J0.5882
G1 X280.9995 Y247.0691
G3 X281.0334 Y247.1014 I-0.5011 J0.558
G1 X281.2772 Y247.3496
G3 X281.3031 Y247.3773 I-0.535 J0.5257
G1 X281.5342 Y247.6376
G3 X281.5638 Y247.6731 I-0.5609 J0.4979
G1 X281.7721 Y247.9391
G3 X281.7969 Y247.9726 I-0.5905 J0.4624
G1 X281.9899 Y248.2494
G3 X282.0121 Y248.2832 I-0.6152 J0.429
G1 X282.1899 Y248.5699
G3 X282.2017 Y248.5897 I-0.6374 J0.3952
G1 X282.725 Y249.4943
G1 X282.9937 Y249.3515
G3 X283.0002 Y249.348 I0.3521 J0.6622
G1 X283.371 Y249.1555
G3 X283.3721 Y249.155 I0.3456 J0.6656
G1 X283.7404 Y248.9645
G3 X283.7466 Y248.9613 I0.3446 J0.6662
G1 X284.1174 Y248.7738
G3 X284.1233 Y248.7709 I0.3383 J0.6693
G1 X284.4992 Y248.585
G1 X284.7733 Y248.4494
G1 X284.347 Y247.4908
G3 X284.3399 Y247.4742 I0.6853 J-0.3047
G1 X284.2103 Y247.1628
G3 X284.1931 Y247.1171 I0.6925 J-0.2881
G1 X284.0838 Y246.7973
G3 X284.0716 Y246.758 I0.7097 J-0.2424
G1 X283.9802 Y246.4329
G3 X283.9716 Y246.3994 I0.722 J-0.2031
G1 X283.8929 Y246.0603
G3 X283.8831 Y246.0107 I0.7306 J-0.1696
G1 X283.8272 Y245.666
G3 X283.8215 Y245.6228 I0.7403 J-0.12
G1 X283.7859 Y245.2771
G3 X283.7827 Y245.2339 I0.7461 J-0.0767
G1 X283.7649 Y244.8371
G3 X283.7644 Y244.7844 I0.7492 J-0.0336
G1 X283.7746 Y244.3874
G3 X283.7777 Y244.3361 I0.7498 J0.0192
G1 X283.8158 Y243.9323
G3 X283.8218 Y243.8849 I0.7467 J0.0704
G1 X283.8853 Y243.4856
G3 X284.316 Y242.9204 I0.7407 J0.1178
G1 X284.5471 Y242.8155
G3 X284.5493 Y242.8146 I0.31 J0.683
G1 X284.6646 Y242.7627
G1 X284.7773 Y242.7113
G3 X284.7867 Y242.7071 I0.3109 J0.6825
G1 X284.9035 Y242.6558
G3 X284.906 Y242.6547 I0.3016 J0.6867
G1 X285.0185 Y242.6058
G1 X285.131 Y242.5552
G3 X285.1397 Y242.5514 I0.3078 J0.6839
G1 X285.2566 Y242.5006
G3 X285.9612 Y242.5575 I0.299 J0.6878
G1 X286.3041 Y242.778
G3 X286.3463 Y242.8072 I-0.4056 J0.6309
G1 X286.6739 Y243.051
G3 X286.7145 Y243.0835 I-0.4478 J0.6017
G1 X287.0168 Y243.3428
G3 X287.053 Y243.376 I-0.4884 J0.5692
G1 X287.3375 Y243.6544
G3 X287.3696 Y243.6878 I-0.5246 J0.536
G1 X287.6033 Y243.9466
G3 X287.6312 Y243.9794 I-0.5567 J0.5026
G1 X287.8496 Y244.2512
G3 X287.8737 Y244.2828 I-0.5846 J0.4699
G1 X288.0769 Y244.565
G3 X288.1057 Y244.608 I-0.6086 J0.4383
G1 X288.2835 Y244.8948
G3 X288.3011 Y244.9248 I-0.6374 J0.3952
G1 X288.4662 Y245.221
G3 X288.4863 Y245.2596 I-0.6551 J0.3652
G1 X288.6336 Y245.5641
G3 X288.6438 Y245.5861 I-0.6752 J0.3266
G1 X289.067 Y246.5383
G1 X289.3489 Y246.4244
G3 X289.3576 Y246.421 I0.2809 J0.6954
G1 X289.746 Y246.2697
G1 X290.1344 Y246.1181
G3 X290.1408 Y246.1156 I0.2726 J0.6987
G1 X290.5294 Y245.9681
G3 X290.5334 Y245.9666 I0.2663 J0.7011
G1 X290.9245 Y245.8205
G3 X290.9289 Y245.8189 I0.2623 J0.7026
G1 X291.2135 Y245.7147
G1 X290.89 Y244.7166
G3 X290.8831 Y244.6943 I0.7135 J-0.2313
G1 X290.7892 Y244.3705
G3 X290.78 Y244.3358 I0.7203 J-0.209
G1 X290.7012 Y244.0064
G3 X290.6919 Y243.9614 I0.7295 J-0.1743
G1 X290.6335 Y243.6279
G3 X290.6268 Y243.5806 I0.7388 J-0.1294
G1 X290.5887 Y243.2346
G3 X290.5855 Y243.1964 I0.7455 J-0.0821
G1 X290.5651 Y242.8491
G3 X290.5639 Y242.8053 I0.7487 J-0.0438
G1 Y242.4568
G3 X290.5651 Y242.4137 I0.75 J0.0
G1 X290.588 Y242.0167
G3 X290.5929 Y241.9637 I0.7488 J0.0431
G1 X290.6437 Y241.5707
G3 X290.6519 Y241.521 I0.7438 J0.0962
G1 X290.7306 Y241.124
G3 X290.7427 Y241.0725 I0.7357 J0.1459
G1 X290.8494 Y240.6814
G3 X291.3353 Y240.1673 I0.7236 J0.1973
G1 X291.4547 Y240.1275
G3 X291.4587 Y240.1261 I0.2376 J0.7114
G1 X291.8245 Y240.0062
G3 X291.8295 Y240.0046 I0.2336 J0.7127
G1 X292.0685 Y239.9281
G1 X292.1882 Y239.889
G3 X292.1935 Y239.8873 I0.2332 J0.7128
G1 X292.3155 Y239.8484
G3 X293.0169 Y239.9815 I0.2278 J0.7146
G1 X293.3319 Y240.238
G3 X293.3658 Y240.2674 I-0.4737 J0.5815
G1 X293.6656 Y240.543
G3 X293.6996 Y240.5763 I-0.5076 J0.5521
G1 X293.9764 Y240.8654
G3 X294.0133 Y240.9069 I-0.5416 J0.5188
G1 X294.2673 Y241.2147
G3 X294.2937 Y241.2486 I-0.5785 J0.4773
G1 X294.4994 Y241.5293
G3 X294.5262 Y241.5683 I-0.6049 J0.4434
G1 X294.7142 Y241.862
G3 X294.7359 Y241.8981 I-0.6317 J0.4044
G1 X294.9061 Y242.2001
G3 X294.925 Y242.2359 I-0.6534 J0.3682
G1 X295.0748 Y242.5389
G3 X295.0935 Y242.5797 I-0.6723 J0.3325
G1 X295.2256 Y242.8927
G3 X295.2401 Y242.9297 I-0.691 J0.2916
G1 X295.3544 Y243.2465
G3 X295.3621 Y243.2691 I-0.7055 J0.2546
G1 X295.6853 Y244.2625
G1 X295.976 Y244.179
G3 X295.9823 Y244.1772 I0.2071 J0.7208
G1 X296.3836 Y244.0657
G3 X296.3879 Y244.0645 I0.2008 J0.7226
G1 X296.7892 Y243.9556
G3 X296.7929 Y243.9546 I0.1965 J0.7238
G1 X297.1968 Y243.8471
G3 X297.2041 Y243.8452 I0.1928 J0.7248
G1 X297.6079 Y243.7421
G3 X297.6096 Y243.7417 I0.1856 J0.7267
G1 X297.9063 Y243.6667
G1 X297.6874 Y242.6408
G3 X297.6832 Y242.6196 I0.7335 J-0.1565
G1 X297.6222 Y242.2874
G3 X297.6154 Y242.2424 I0.7377 J-0.1354
G1 X297.5747 Y241.9076
G3 X297.571 Y241.8679 I0.7445 J-0.0904
G1 X297.5481 Y241.5301
G3 X297.5465 Y241.4904 I0.7483 J-0.0506
G1 X297.5414 Y241.1419
G3 X297.5423 Y241.0926 I0.7499 J-0.0109
G1 X297.5601 Y240.7451
G3 X297.563 Y240.7067 I0.749 J0.0383
G1 X297.5986 Y240.361
G3 X297.6051 Y240.3129 I0.7461 J0.0767
G1 X297.6712 Y239.9217
G3 X297.6808 Y239.8743 I0.7395 J0.1249
G1 X297.7722 Y239.4869
G3 X297.7856 Y239.4377 I0.7299 J0.1723
G1 X297.905 Y239.0516
G3 X297.9226 Y239.0013 I0.7165 J0.2216
G1 X298.0699 Y238.6225
G3 X298.6146 Y238.1605 I0.699 J0.2719
G1 X298.7339 Y238.1354
G1 X298.8506 Y238.1091
G3 X298.8541 Y238.1084 I0.1646 J0.7317
G1 X298.9811 Y238.0804
G3 X298.9864 Y238.0793 I0.1611 J0.7325
G1 X299.2328 Y238.0269
G3 X299.2373 Y238.026 I0.1558 J0.7336
G1 X299.3635 Y238.0
G1 X299.4872 Y237.9742
G3 X299.4886 Y237.974 I0.1528 J0.7343
G1 X299.6105 Y237.9488
G3 X300.2898 Y238.1505 I0.1515 J0.7345
G1 X300.5793 Y238.4372
G3 X300.6122 Y238.4719 I-0.5278 J0.5329
G1 X300.884 Y238.7777
G3 X300.9201 Y238.8217 I-0.5606 J0.4982
G1 X301.1614 Y239.1387
G3 X301.1891 Y239.1776 I-0.5968 J0.4543
G1 X301.4101 Y239.5098
G3 X301.4334 Y239.5471 I-0.6245 J0.4154
G1 X301.6086 Y239.8473
G3 X301.6302 Y239.8869 I-0.6477 J0.3781
G1 X301.7877 Y240.1984
G3 X301.8077 Y240.2412 I-0.6693 J0.3385
G1 X301.9448 Y240.561
G3 X301.9574 Y240.5923 I-0.6893 J0.2956
G1 X302.0768 Y240.9093
G3 X302.0937 Y240.9594 I-0.7019 J0.2643
G1 X302.1902 Y241.2832
G3 X302.1994 Y241.317 I-0.7188 J0.2142
G1 X302.2807 Y241.6449
G3 X302.2864 Y241.6695 I-0.728 J0.1804
G1 X302.5031 Y242.6895
G1 X302.8026 Y242.6371
G3 X302.8082 Y242.6361 I0.1294 J0.7388
G1 X303.2197 Y242.5673
G3 X303.2242 Y242.5665 I0.1237 J0.7397
G1 X303.6356 Y242.5002
G3 X303.641 Y242.4994 I0.1193 J0.7405
G1 X304.0525 Y242.4361
G3 X304.0547 Y242.4358 I0.1139 J0.7413
G1 X304.4662 Y242.3738
G3 X304.4734 Y242.3728 I0.1117 J0.7416
G1 X304.7747 Y242.3304
G1 X304.6651 Y241.2861
G3 X304.6636 Y241.27 I0.7459 J-0.0783
G1 X304.6357 Y240.9337
G3 X304.6332 Y240.8828 I0.7474 J-0.0621
G1 X304.6281 Y240.544
G3 X304.6286 Y240.5046 I0.7499 J-0.0112
G1 X304.6413 Y240.167
G3 X304.6441 Y240.1239 I0.7495 J0.0282
G1 X304.6771 Y239.778
G3 X304.6818 Y239.7399 I0.7466 J0.0713
G1 X304.7326 Y239.3952
G3 X304.7414 Y239.3464 I0.742 J0.1094
G1 X304.8151 Y239.005
G3 X304.8259 Y238.9613 I0.7331 J0.1582
G1 X304.9326 Y238.5796
G3 X304.9475 Y238.5322 I0.7223 J0.2018
G1 X305.0796 Y238.1573
G3 X305.098 Y238.1102 I0.7074 J0.2492
G1 X305.258 Y237.7381
G3 X305.2804 Y237.6907 I0.689 J0.2963
G1 X305.4658 Y237.331
G3 X306.0428 Y236.9301 I0.6666 J0.3437
G1 X306.1672 Y236.9151
G3 X306.1756 Y236.9141 I0.0897 J0.7446
G1 X306.4296 Y236.8865
G3 X306.4392 Y236.8855 I0.0813 J0.7456
G1 X306.561 Y236.8738
G1 X306.6829 Y236.8604
G3 X306.6887 Y236.8597 I0.082 J0.7455
G1 X306.811 Y236.8473
G1 X306.9358 Y236.8338
G3 X306.9447 Y236.8329 I0.0805 J0.7457
G1 X307.0717 Y236.8207
G3 X307.7254 Y237.0943 I0.0717 J0.7466
G1 X307.982 Y237.41
G3 X308.011 Y237.4482 I-0.5821 J0.473
G1 X308.2472 Y237.7802
G3 X308.2766 Y237.8248 I-0.6111 J0.4348
G1 X308.4849 Y238.1667
G3 X308.5082 Y238.2078 I-0.6405 J0.3902
G1 X308.6936 Y238.5603
G3 X308.7145 Y238.6034 I-0.6638 J0.3491
G1 X308.8568 Y238.9217
G3 X308.8726 Y238.9597 I-0.6847 J0.306
G1 X308.997 Y239.2851
G3 X309.0121 Y239.3286 I-0.7005 J0.268
G1 X309.1163 Y239.6606
G3 X309.1273 Y239.6993 I-0.7156 J0.2245
G1 X309.2111 Y240.0272
G3 X309.2212 Y240.0723 I-0.7266 J0.1857
G1 X309.2847 Y240.4048
G3 X309.2911 Y240.444 I-0.7367 J0.1407
G1 X309.3368 Y240.7787
G3 X309.3396 Y240.8016 I-0.7431 J0.1015
G1 X309.4488 Y241.8385
G1 X309.7535 Y241.8184
G3 X309.7557 Y241.8183 I0.0493 J0.7484
G1 X310.1723 Y241.7921
G3 X310.1766 Y241.7919 I0.047 J0.7485
G1 X310.5906 Y241.7682
G3 X310.5968 Y241.7679 I0.0427 J0.7488
G1 X311.0134 Y241.7476
G3 X311.0175 Y241.7474 I0.0365 J0.7491
G1 X311.434 Y241.7294
G3 X311.4391 Y241.7292 I0.0324 J0.7493
G1 X311.7452 Y241.718
G1 Y240.6692
G3 X311.7455 Y240.6466 I0.75 J0.0
G1 X311.7557 Y240.309
G3 X311.7579 Y240.2697 I0.7497 J0.0226
G1 X311.7859 Y239.9321
G3 X311.791 Y239.8866 I0.7474 J0.0619
G1 X311.8393 Y239.5531
G3 X311.8462 Y239.5129 I0.7423 J0.1074
G1 X311.9148 Y239.1713
G3 X311.9235 Y239.1331 I0.7353 J0.1476
G1 X312.0099 Y238.7953
G3 X312.0243 Y238.7458 I0.7266 J0.1858
G1 X312.1336 Y238.4151
G3 X312.1475 Y238.3764 I0.7122 J0.2352
G1 X312.2923 Y238.0074
G3 X312.313 Y237.9596 I0.6982 J0.2739
G1 X312.4832 Y237.6012
G3 X312.5067 Y237.5556 I0.6775 J0.3217
G1 X312.7049 Y237.2028
G3 X312.7298 Y237.1616 I0.6539 J0.3672
G1 X312.9507 Y236.8213
G3 X313.5798 Y236.4797 I0.629 J0.4084
G1 X313.7023
G1 X313.8248 Y236.4782
G3 X313.8338 I0.009 J0.7499
G1 X314.3443
G3 X314.3533 I0.0 J0.75
G1 X314.4758 Y236.4797
G1 X314.5983
G3 X315.2259 Y236.8191 I0.0 J0.75
G1 X315.4495 Y237.1607
G3 X315.4765 Y237.2053 I-0.6276 J0.4106
G1 X315.6746 Y237.5596
G3 X315.696 Y237.6008 I-0.6546 J0.366
G1 X315.8687 Y237.9602
G3 X315.89 Y238.009 I-0.676 J0.3249
G1 X316.0374 Y238.3811
G3 X316.0523 Y238.4222 I-0.6973 J0.2761
G1 X316.1615 Y238.7531
G3 X316.1743 Y238.7965 I-0.7122 J0.235
G1 X316.2632 Y239.1328
G3 X316.2735 Y239.1767 I-0.7251 J0.1917
G1 X316.342 Y239.5181
G3 X316.3491 Y239.559 I-0.7353 J0.1477
G1 X316.3973 Y239.8943
G3 X316.4024 Y239.939 I-0.7423 J0.1069
G1 X316.4304 Y240.275
G3 X316.4324 Y240.309 I-0.7474 J0.0621
G1 X316.4451 Y240.6465
G3 X316.4456 Y240.6747 I-0.7495 J0.0282
G1 Y241.7181
G1 X316.7492 Y241.7292
G3 X316.7543 Y241.7294 I-0.0274 J0.7495
G1 X317.1708 Y241.7474
G3 X317.1749 Y241.7476 I-0.0324 J0.7493
G1 X317.5915 Y241.7679
G3 X317.5977 Y241.7682 I-0.0365 J0.7491
G1 X318.0117 Y241.7919
G3 X318.016 Y241.7921 I-0.0427 J0.7488
G1 X318.4325 Y241.8183
G3 X318.4348 Y241.8184 I-0.047 J0.7485
G1 X318.74 Y241.8385
G1 X318.8513 Y240.7937
G3 X318.854 Y240.7716 I0.7458 J0.0794
G1 X318.8997 Y240.4369
G3 X318.9052 Y240.4029 I0.7431 J0.1015
G1 X318.9661 Y240.0709
G3 X318.9771 Y240.0208 I0.7377 J0.1355
G1 X319.061 Y239.6926
G3 X319.072 Y239.6537 I0.7267 J0.1856
G1 X319.1762 Y239.3217
G3 X319.1895 Y239.2829 I0.7156 J0.2245
G1 X319.3114 Y238.9577
G3 X319.3289 Y238.9153 I0.7022 J0.2633
G1 X319.4711 Y238.5967
G3 X319.4926 Y238.5527 I0.6848 J0.3058
G1 X319.678 Y238.2011
G3 X319.7003 Y238.1618 I0.6634 J0.3499
G1 X319.906 Y237.8229
G3 X319.9346 Y237.7794 I0.6411 J0.3893
G1 X320.1683 Y237.4487
G3 X320.1987 Y237.4085 I0.6125 J0.4328
G1 X320.4553 Y237.0928
G3 X321.1195 Y236.8203 I0.5821 J0.473
G1 X321.2394 Y236.8335
G1 X321.3619 Y236.8455
G3 X321.3634 Y236.8456 I-0.0731 J0.7464
G1 X321.4904 Y236.8583
G3 X321.4971 Y236.859 I-0.0746 J0.7463
G1 X322.0022 Y236.9141
G1 X322.1288 Y236.9278
G3 X322.7159 Y237.3317 I-0.0805 J0.7457
G1 X322.9013 Y237.6939
G3 X322.9214 Y237.7364 I-0.6676 J0.3418
G1 X323.084 Y238.1101
G3 X323.1023 Y238.1564 I-0.6877 J0.2992
G1 X323.237 Y238.5324
G3 X323.2536 Y238.5847 I-0.7061 J0.2529
G1 X323.3603 Y238.9693
G3 X323.3706 Y239.0112 I-0.7227 J0.2005
G1 X323.4443 Y239.3519
G3 X323.4524 Y239.3957 I-0.7331 J0.1585
G1 X323.5057 Y239.7404
G3 X323.5112 Y239.7838 I-0.7412 J0.1147
G1 X323.5442 Y240.1295
G3 X323.547 Y240.1727 I-0.7466 J0.0713
G1 X323.5597 Y240.5115
G3 X323.5602 Y240.5509 I-0.7495 J0.0281
G1 X323.5551 Y240.8887
G3 X323.5526 Y240.9396 I-0.7499 J-0.0113
G1 X323.5247 Y241.2756
G3 X323.5233 Y241.2908 I-0.7474 J-0.0621
G1 X323.4155 Y242.3305
G1 X323.7168 Y242.3727
G3 X323.7246 Y242.3738 I-0.1039 J0.7428
G1 X324.1361 Y242.4358
G3 X324.139 Y242.4362 I-0.1117 J0.7416
G1 X324.548 Y242.4995
G3 X324.5519 Y242.5001 I-0.1146 J0.7412
G1 X324.966 Y242.5664
G3 X324.9719 Y242.5674 I-0.1186 J0.7406
G1 X325.3808 Y242.6362
G3 X325.3849 Y242.6369 I-0.1245 J0.7396
G1 X325.6858 Y242.6893
G1 X325.9046 Y241.6635
G3 X325.9086 Y241.6457 I0.7335 J0.1565
G1 X325.9874 Y241.3163
G3 X325.9996 Y241.2714 I0.7295 J0.1743
G1 X326.0987 Y240.9473
G3 X326.1123 Y240.9069 I0.7172 J0.2192
G1 X326.2291 Y240.5902
G3 X326.2436 Y240.5539 I0.7037 J0.2596
G1 X326.3807 Y240.2344
G3 X326.4006 Y240.1918 I0.6892 J0.2958
G1 X326.5581 Y239.8803
G3 X326.5787 Y239.8424 I0.6693 J0.3385
G1 X326.754 Y239.5404
G3 X326.7777 Y239.5021 I0.6487 J0.3764
G1 X326.9962 Y239.1729
G3 X327.0252 Y239.1322 I0.6249 J0.4147
G1 X327.2665 Y238.8165
G3 X327.2958 Y238.7805 I0.5959 J0.4554
G1 X327.56 Y238.4759
G3 X327.5988 Y238.4344 I0.5666 J0.4914
G1 X327.8884 Y238.1477
G3 X328.5718 Y237.9469 I0.5278 J0.5329
G1 X328.6956 Y237.9732
G1 X328.819 Y237.9991
G1 X329.0675 Y238.0511
G3 X329.0711 Y238.0519 I-0.1536 J0.7341
G1 X329.1934 Y238.0781
G1 X329.3157 Y238.1035
G3 X329.325 Y238.1055 I-0.1528 J0.7343
G1 X329.574 Y238.1606
G3 X330.1112 Y238.622 I-0.1621 J0.7323
G1 X330.2585 Y239.0022
G3 X330.2745 Y239.048 I-0.6993 J0.271
G1 X330.3965 Y239.4353
G3 X330.4111 Y239.4887 I-0.7154 J0.2252
G1 X330.5026 Y239.8774
G3 X330.5114 Y239.9206 I-0.7301 J0.1718
G1 X330.58 Y240.3148
G3 X330.5871 Y240.3666 I-0.7389 J0.1285
G1 X330.6227 Y240.7123
G3 X330.6257 Y240.7507 I-0.7461 J0.0767
G1 X330.6434 Y241.0979
G3 X330.6444 Y241.1417 I-0.749 J0.0384
G1 X330.6419 Y241.4907
G3 X330.6402 Y241.5359 I-0.75 J-0.0055
G1 X330.6173 Y241.8735
G3 X330.6129 Y241.9188 I-0.7483 J-0.0507
G1 X330.5697 Y242.2536
G3 X330.5646 Y242.2871 I-0.7438 J-0.0959
G1 X330.5062 Y242.6204
G3 X330.501 Y242.6469 I-0.7387 J-0.1295
G1 X330.284 Y243.6672
G1 X330.5786 Y243.7417
G3 X330.5804 Y243.7421 I-0.1838 J0.7271
G1 X330.9842 Y243.8452
G3 X330.9915 Y243.8471 I-0.1856 J0.7267
G1 X331.3954 Y243.9546
G3 X331.3991 Y243.9556 I-0.1928 J0.7248
G1 X331.8004 Y244.0645
G3 X331.8046 Y244.0657 I-0.1965 J0.7238
G1 X332.206 Y244.1772
G3 X332.2111 Y244.1786 I-0.2008 J0.7226
G1 X332.5034 Y244.2621
G1 X332.8288 Y243.2634
G3 X332.8361 Y243.2422 I0.7131 J0.2323
G1 X332.9504 Y242.9239
G3 X332.9658 Y242.8846 I0.7059 J0.2535
G1 X333.0978 Y242.5732
G3 X333.1136 Y242.5385 I0.6905 J0.2929
G1 X333.2609 Y242.235
G3 X333.284 Y242.1911 I0.6747 J0.3275
G1 X333.4568 Y241.8881
G3 X333.4744 Y241.8588 I0.6516 J0.3714
G1 X333.6598 Y241.5654
G3 X333.6885 Y241.5232 I0.634 J0.4007
G1 X333.8942 Y241.242
G3 X333.9226 Y241.2057 I0.6053 J0.4429
G1 X334.1766 Y240.8999
G3 X334.2069 Y240.8656 I0.577 J0.4792
G1 X334.4787 Y240.5763
G3 X334.5163 Y240.5389 I0.5466 J0.5135
G1 X334.8135 Y240.2643
G3 X334.8508 Y240.2321 I0.509 J0.5509
G1 X335.1658 Y239.9773
G3 X335.8639 Y239.8454 I0.4717 J0.5831
G1 X336.2296 Y239.9613
G3 X336.2408 Y239.9649 I-0.2264 J0.715
G1 X336.3561 Y240.0034
G1 X336.4714 Y240.0404
G3 X336.4756 Y240.0418 I-0.2294 J0.7141
G1 X336.8413 Y240.1617
G3 X337.3329 Y240.6828 I-0.2336 J0.7127
G1 X337.437 Y241.077
G3 X337.4467 Y241.1186 I-0.7251 J0.1916
G1 X337.528 Y241.5169
G3 X337.5371 Y241.5716 I-0.7349 J0.15
G1 X337.5879 Y241.9684
G3 X337.5921 Y242.011 I-0.7439 J0.0953
G1 X337.62 Y242.408
G3 X337.6219 Y242.4606 I-0.7481 J0.0527
G1 Y242.8096
G3 X337.6206 Y242.8533 I-0.75 J0.0
G1 X337.6003 Y243.2018
G3 X337.5964 Y243.2457 I-0.7487 J-0.0437
G1 X337.5558 Y243.5914
G3 X337.5505 Y243.6282 I-0.7449 J-0.0876
G1 X337.4947 Y243.9605
G3 X337.4857 Y244.0052 I-0.7396 J-0.1244
G1 X337.4095 Y244.3344
G3 X337.3979 Y244.3786 I-0.7307 J-0.1691
G1 X337.3014 Y244.7039
G3 X337.2959 Y244.7216 I-0.719 J-0.2133
G1 X336.9748 Y245.7138
G1 X337.2619 Y245.8189
G3 X337.2678 Y245.8211 I-0.2579 J0.7043
G1 X337.6564 Y245.9672
G3 X337.6573 Y245.9675 I-0.2638 J0.7021
G1 X338.0485 Y246.1151
G3 X338.0579 Y246.1187 I-0.2647 J0.7017
G1 X338.4431 Y246.27
G1 X338.8307 Y246.421
G3 X338.8394 Y246.4244 I-0.2722 J0.6988
G1 X339.122 Y246.5386
G1 X339.55 Y245.5795
G3 X339.5575 Y245.5631 I0.6849 J0.3056
G1 X339.7023 Y245.2586
G3 X339.7222 Y245.2197 I0.6774 J0.322
G1 X339.8848 Y244.9235
G3 X339.9075 Y244.8849 I0.6575 J0.3609
G1 X340.0879 Y244.5984
G3 X340.1101 Y244.5651 I0.6347 J0.3995
G1 X340.3107 Y244.2811
G3 X340.3387 Y244.2441 I0.6125 J0.4328
G1 X340.5571 Y243.9723
G3 X340.585 Y243.9395 I0.5846 J0.4699
G1 X340.8187 Y243.6807
G3 X340.8523 Y243.6458 I0.5567 J0.5026
G1 X341.1368 Y243.3689
G3 X341.1694 Y243.339 I0.5231 J0.5375
G1 X341.4691 Y243.0799
G3 X341.5111 Y243.0462 I0.4905 J0.5674
G1 X341.8362 Y242.8036
G3 X341.8748 Y242.7767 I0.4485 J0.6011
G1 X342.2126 Y242.5562
G3 X342.9228 Y242.497 I0.4099 J0.6281
G1 X343.0397 Y242.5481
G3 X343.0404 Y242.5484 I-0.3003 J0.6873
G1 X343.1598 Y242.6008
G3 X343.1646 Y242.6029 I-0.3011 J0.6869
G1 X343.2755 Y242.6524
G1 X343.3889 Y242.7017
G3 X343.3992 Y242.7063 I-0.299 J0.6878
G1 X343.6263 Y242.8091
G1 X343.7415 Y242.8596
G3 X343.7538 Y242.8651 I-0.3011 J0.6869
G1 X343.8682 Y242.9177
G3 X344.2948 Y243.4775 I-0.3134 J0.6814
G1 X344.3608 Y243.8796
G3 X344.3675 Y243.931 I-0.7401 J0.1216
G1 X344.4056 Y244.3364
G3 X344.4086 Y244.3875 I-0.7467 J0.0702
G1 X344.4188 Y244.7873
G3 X344.4183 Y244.8398 I-0.7498 J0.0191
G1 X344.4005 Y245.2381
G3 X344.3978 Y245.276 I-0.7493 J-0.0334
G1 X344.3648 Y245.6217
G3 X344.3577 Y245.6757 I-0.7466 J-0.0713
G1 X344.2993 Y246.0204
G3 X344.2915 Y246.0596 I-0.7395 J-0.1253
G1 X344.2153 Y246.3984
G3 X344.2056 Y246.4369 I-0.7317 J-0.1646
G1 X344.1141 Y246.762
G3 X344.1019 Y246.8014 I-0.722 J-0.2031
G1 X343.9927 Y247.1212
G3 X343.9758 Y247.1658 I-0.7097 J-0.2424
G1 X343.8463 Y247.4785
G3 X343.8387 Y247.4961 I-0.6929 J-0.2871
G1 X343.4151 Y248.4492
G1 X343.6898 Y248.5841
G3 X343.6935 Y248.5859 I-0.3306 J0.6732
G1 X344.0668 Y248.7718
G3 X344.0709 Y248.7738 I-0.3343 J0.6714
G1 X344.4417 Y248.9613
G3 X344.4461 Y248.9635 I-0.3383 J0.6693
G1 X344.8169 Y249.154
G3 X344.8217 Y249.1565 I-0.3427 J0.6671
G1 X345.19 Y249.349
G3 X345.1946 Y249.3515 I-0.3475 J0.6647
G1 X345.4633 Y249.4944
G1 X345.9891 Y248.5855
G3 X346.0001 Y248.5671 I0.6492 J0.3756
G1 X346.1779 Y248.2791
G3 X346.2007 Y248.2444 I0.6382 J0.394
G1 X346.3938 Y247.9672
G3 X346.4176 Y247.9349 I0.6154 J0.4287
G1 X346.6259 Y247.6676
G3 X346.6536 Y247.6341 I0.5915 J0.4611
G1 X346.8822 Y247.3735
G3 X346.9138 Y247.3397 I0.5638 J0.4946
G1 X347.1602 Y247.0915
G3 X347.1913 Y247.0619 I0.5322 J0.5284
G1 X347.4504 Y246.8293
G3 X347.4845 Y246.8005 I0.5011 J0.558
G1 X347.7943 Y246.5538
G3 X347.8355 Y246.5233 I0.4671 J0.5868
G1 X348.1632 Y246.2973
G3 X348.206 Y246.2698 I0.4259 J0.6173
G1 X348.554 Y246.0631
G3 X348.5975 Y246.0391 I0.3831 J0.6448
G1 X348.9582 Y245.856
G3 X349.6671 Y245.872 I0.3395 J0.6687
G1 X349.7789 Y245.9352
G3 X349.7796 Y245.9356 I-0.3694 J0.6527
G1 X349.8889 Y245.9976
G3 X349.8959 Y246.0017 I-0.3701 J0.6523
G1 X350.0061 Y246.0658
G1 X350.3347 Y246.2549
G3 X350.3444 Y246.2605 I-0.374 J0.6501
G1 X350.4525 Y246.3249
G1 X350.5606 Y246.3887
G3 X350.9279 Y246.9924 I-0.3814 J0.6458
G1 X350.9508 Y247.3988
G3 X350.952 Y247.4456 I-0.7488 J0.0421
G1 X350.9494 Y247.8522
G3 X350.9469 Y247.9095 I-0.75 J-0.0047
G1 X350.9139 Y248.3078
G3 X350.9084 Y248.3554 I-0.7474 J-0.062
G1 X350.85 Y248.7509
G3 X350.8422 Y248.7946 I-0.7419 J-0.1096
G1 X350.7711 Y249.1352
G3 X350.7606 Y249.1788 I-0.7342 J-0.1533
G1 X350.6691 Y249.5149
G3 X350.6556 Y249.5591 I-0.7237 J-0.1969
G1 X350.5439 Y249.8883
G3 X350.531 Y249.9232 I-0.7102 J-0.2411
G1 X350.4066 Y250.2376
G3 X350.3898 Y250.2768 I-0.6974 J-0.276
G1 X350.2475 Y250.5839
G3 X350.227 Y250.625 I-0.6805 J-0.3152
G1 X350.0669 Y250.9214
G3 X350.0562 Y250.9407 I-0.66 J-0.3563
G1 X349.5337 Y251.8438
G1 X349.7932 Y252.0067
G3 X349.7969 Y252.0091 I-0.3989 J0.6351
G1 X350.1474 Y252.2321
G3 X350.1513 Y252.2346 I-0.4026 J0.6328
G1 X350.5018 Y252.4606
G3 X350.5058 Y252.4633 I-0.4065 J0.6303
G1 X350.8538 Y252.6908
G3 X350.857 Y252.6929 I-0.4105 J0.6277
G1 X351.205 Y252.9231
G3 X351.2103 Y252.9266 I-0.4137 J0.6256
G1 X351.4629 Y253.0967
G1 X352.0793 Y252.2479
G3 X352.0919 Y252.231 I0.6069 J0.4407
G1 X352.2976 Y251.9638
G3 X352.3239 Y251.9316 I0.5943 J0.4576
G1 X352.5449 Y251.6753
G3 X352.5755 Y251.6418 I0.568 J0.4898
G1 X352.8118 Y251.3993
G3 X352.8419 Y251.37 I0.5373 J0.5233
G1 X353.0985 Y251.1345
G3 X353.1305 Y251.1068 I0.5071 J0.5525
G1 X353.3997 Y250.8863
G3 X353.4305 Y250.8624 I0.4752 J0.5803
G1 X353.7099 Y250.6569
G3 X353.7552 Y250.6261 I0.4444 J0.6042
G1 X354.093 Y250.4138
G3 X354.1323 Y250.3907 I0.3991 J0.635
G1 X354.4803 Y250.2004
G3 X354.5263 Y250.1773 I0.3598 J0.6581
G1 X354.8946 Y250.0076
G3 X354.9408 Y249.9882 I0.3138 J0.6812
G1 X355.3193 Y249.8436
G3 X356.0301 Y249.9393 I0.2676 J0.7006
G1 X356.1217 Y250.0064
G1 X356.2183 Y250.0724
G3 X356.2515 Y250.0964 I-0.4231 J0.6192
G1 X356.3405 Y250.1647
G1 X356.5386 Y250.3062
G3 X356.5515 Y250.3157 I-0.4361 J0.6102
G1 X356.6502 Y250.3895
G1 X356.7478 Y250.4609
G1 X356.8508 Y250.5358
G3 X357.1591 Y251.1751 I-0.441 J0.6067
G1 X357.1413 Y251.5831
G3 X357.1362 Y251.6441 I-0.7493 J-0.0327
G1 X357.0854 Y252.0477
G3 X357.0801 Y252.083 I-0.7441 J-0.0937
G1 X357.0115 Y252.4759
G3 X356.9991 Y252.5336 I-0.7388 J-0.1289
G1 X356.9 Y252.9192
G3 X356.8861 Y252.9666 I-0.7264 J-0.1866
G1 X356.7769 Y253.2991
G3 X356.7648 Y253.3332 I-0.7125 J-0.2341
G1 X356.6404 Y253.6583
G3 X356.6216 Y253.703 I-0.7004 J-0.2681
G1 X356.4768 Y254.0185
G3 X356.4593 Y254.054 I-0.6816 J-0.3128
G1 X356.3018 Y254.3542
G3 X356.2793 Y254.3942 I-0.6642 J-0.3484
G1 X356.104 Y254.6838
G3 X356.0794 Y254.7217 I-0.6416 J-0.3884
G1 X355.8864 Y255.0011
G3 X355.8765 Y255.0151 I-0.617 J-0.4263
G1 X355.265 Y255.8584
G1 X355.5056 Y256.0468
G3 X355.5107 Y256.0508 I-0.4624 J0.5905
G1 X355.8358 Y256.3099
G3 X355.8386 Y256.3121 I-0.4674 J0.5865
G1 X356.1637 Y256.5737
G3 X356.171 Y256.5796 I-0.4702 J0.5843
G1 X356.4888 Y256.8419
G1 X356.8117 Y257.1043
G3 X356.8211 Y257.1121 I-0.4729 J0.5821
G1 X357.0521 Y257.3061
G1 X357.7519 Y256.5272
G3 X357.7683 Y256.5096 I0.5579 J0.5013
G1 X358.002 Y256.2657
G3 X358.0359 Y256.2325 I0.5415 J0.5189
G1 X358.2874 Y256.0013
G3 X358.3087 Y255.9825 I0.5076 J0.5522
G1 X358.5652 Y255.764
G3 X358.6068 Y255.7311 I0.4862 J0.571
G1 X358.8862 Y255.5254
G3 X358.9174 Y255.5036 I0.4447 J0.6039
G1 X359.2095 Y255.3106
G3 X359.2485 Y255.2865 I0.4135 J0.6257
G1 X359.5482 Y255.1137
G3 X359.5873 Y255.0927 I0.3745 J0.6498
G1 X359.9429 Y254.9149
G3 X359.9915 Y254.8927 I0.3354 J0.6708
G1 X360.3598 Y254.7403
G3 X360.4066 Y254.7228 I0.2868 J0.693
G1 X360.7902 Y254.5932
G3 X360.836 Y254.5794 I0.24 J0.7106
G1 X361.2246 Y254.4752
G3 X361.918 Y254.6399 I0.1941 J0.7244
G1 X362.012 Y254.7238
G3 X362.0129 Y254.7246 I-0.4992 J0.5597
G1 X362.1089 Y254.8105
G1 X362.1988 Y254.8906
G1 X362.2915 Y254.9712
G3 X362.3072 Y254.9852 I-0.4918 J0.5663
G1 X362.4012 Y255.0716
G3 X362.4087 Y255.0786 I-0.5075 J0.5522
G1 X362.4888 Y255.1542
G1 X362.5735 Y255.2278
G3 X362.5818 Y255.2351 I-0.4918 J0.5663
G1 X362.6783 Y255.3215
G3 X362.9183 Y256.0022 I-0.5001 J0.5589
G1 X362.8523 Y256.4035
G3 X362.8452 Y256.4405 I-0.74 J-0.1218
G1 X362.7589 Y256.8392
G3 X362.7442 Y256.896 I-0.733 J-0.1587
G1 X362.6299 Y257.277
G3 X362.6146 Y257.3228 I-0.7184 J-0.2155
G1 X362.4749 Y257.6987
G3 X362.4603 Y257.7349 I-0.703 J-0.2613
G1 X362.3232 Y258.0524
G3 X362.2988 Y258.1034 I-0.6885 J-0.2974
G1 X362.1363 Y258.4132
G3 X362.1172 Y258.4475 I-0.6642 J-0.3484
G1 X361.9394 Y258.7472
G3 X361.9209 Y258.7767 I-0.645 J-0.3827
G1 X361.7355 Y259.0586
G3 X361.7048 Y259.1019 I-0.6266 J-0.4121
G1 X361.4991 Y259.3711
G3 X361.4765 Y259.3992 I-0.5959 J-0.4554
G1 X361.2581 Y259.6583
G3 X361.2421 Y259.6766 I-0.5734 J-0.4834
G1 X360.5447 Y260.4513
G1 X360.7636 Y260.6646
G1 X360.7637 Y260.6647
G1 X361.0634 Y260.9568
G3 X361.0703 Y260.9635 I-0.5235 J0.5371
G1 X361.3624 Y261.2556
G1 X361.6595 Y261.5528
G3 X361.6664 Y261.5598 I-0.5303 J0.5303
G1 X361.9559 Y261.8569
G1 X362.17 Y262.0766
G1 X362.9527 Y261.3749
G3 X362.9666 Y261.3627 I0.5007 J0.5584
G1 X363.2257 Y261.1417
G3 X363.2579 Y261.1157 I0.4867 J0.5706
G1 X363.5246 Y260.9125
G3 X363.5631 Y260.8851 I0.4545 J0.5966
G1 X363.845 Y260.6971
G3 X363.876 Y260.6775 I0.416 J0.624
G1 X364.1732 Y260.4997
G3 X364.2141 Y260.477 I0.3851 J0.6436
G1 X364.524 Y260.3169
G3 X364.5661 Y260.2968 I0.3441 J0.6664
G1 X364.8836 Y260.1571
G3 X364.9228 Y260.1412 I0.3021 J0.6865
G1 X365.2962 Y260.0015
G3 X365.3435 Y259.9856 I0.2628 J0.7024
G1 X365.7245 Y259.8712
G3 X365.7748 Y259.858 I0.2155 J0.7184
G1 X366.1685 Y259.7691
G3 X366.2165 Y259.7599 I0.1652 J0.7316
G1 X366.6179 Y259.6964
G3 X367.3013 Y259.9455 I0.1172 J0.7408
G1 X367.3766 Y260.0321
G1 X367.5404 Y260.208
G3 X367.5509 Y260.2195 I-0.5488 J0.5112
G1 X367.7211 Y260.41
G3 X367.7215 Y260.4105 I-0.5593 J0.4997
G1 X367.8016 Y260.5003
G1 X367.8842 Y260.5902
G3 X367.8982 Y260.6059 I-0.5522 J0.5075
G1 X367.9821 Y260.7024
G3 X368.142 Y261.3816 I-0.5663 J0.4918
G1 X368.0404 Y261.7753
G3 X368.0238 Y261.8306 I-0.7262 J-0.1874
G1 X367.8917 Y262.2167
G3 X367.8768 Y262.2566 I-0.7096 J-0.2428
G1 X367.7269 Y262.6249
G3 X367.7021 Y262.6796 I-0.6947 J-0.2827
G1 X367.5218 Y263.0377
G3 X367.5031 Y263.0725 I-0.6699 J-0.3373
G1 X367.3304 Y263.3748
G3 X367.3074 Y263.4124 I-0.6512 J-0.3721
G1 X367.1169 Y263.7045
G3 X367.09 Y263.743 I-0.6282 J-0.4097
G1 X366.8817 Y264.0224
G3 X366.8566 Y264.0543 I-0.6013 J-0.4482
G1 X366.6407 Y264.3134
G3 X366.6143 Y264.3434 I-0.5762 J-0.4801
G1 X366.3857 Y264.5897
G3 X366.352 Y264.6238 I-0.5498 J-0.5101
G1 X366.1056 Y264.8575
G3 X366.0914 Y264.8707 I-0.5161 J-0.5442
G1 X365.3164 Y265.5685
G1 X365.5129 Y265.8042
G3 X365.517 Y265.8092 I-0.5762 J0.4801
G1 X365.7811 Y266.1318
G1 X366.0453 Y266.4544
G3 X366.0494 Y266.4594 I-0.5803 J0.4752
G1 X366.311 Y266.7845
G3 X366.3155 Y266.7901 I-0.5843 J0.4702
G1 X366.5718 Y267.1149
G1 X366.7636 Y267.3575
G1 X367.6119 Y266.7398
G3 X367.6282 Y266.7282 I0.4415 J0.6063
G1 X367.9051 Y266.5377
G3 X367.9485 Y266.51 I0.4251 J0.6179
G1 X368.2406 Y266.3373
G3 X368.2667 Y266.3225 I0.3817 J0.6456
G1 X368.5639 Y266.1625
G3 X368.6083 Y266.1405 I0.3556 J0.6604
G1 X368.9258 Y265.9957
G3 X368.9622 Y265.9802 I0.3112 J0.6824
G1 X369.2848 Y265.8532
G3 X369.3306 Y265.8369 I0.2747 J0.6979
G1 X369.6633 Y265.7302
G3 X369.7048 Y265.7182 I0.229 J0.7142
G1 X370.0883 Y265.6192
G3 X370.1379 Y265.6081 I0.1876 J0.7262
G1 X370.5316 Y265.5345
G3 X370.58 Y265.527 I0.1379 J0.7372
G1 X370.9814 Y265.4788
G3 X371.033 Y265.4744 I0.0895 J0.7446
G1 X371.4343 Y265.4541
G3 X372.0705 Y265.7508 I0.0379 J0.749
G1 X372.1492 Y265.8549
G3 X372.1582 Y265.867 I-0.5982 J0.4523
G1 X372.2318 Y265.9686
G3 X372.2344 Y265.9722 I-0.6072 J0.4402
G1 X372.3735 Y266.1664
G1 X372.4435 Y266.2568
G3 X372.463 Y266.2831 I-0.5928 J0.4594
G1 X372.684 Y266.5955
G3 X372.7728 Y267.295 I-0.6123 J0.4331
G1 X372.628 Y267.676
G3 X372.6095 Y267.7203 I-0.7011 J-0.2664
G1 X372.4419 Y268.0886
G3 X372.4193 Y268.1341 I-0.6826 J-0.3107
G1 X372.2288 Y268.4871
G3 X372.1993 Y268.537 I-0.66 J-0.3561
G1 X371.9834 Y268.8723
G3 X371.9587 Y268.9084 I-0.6306 J-0.4061
G1 X371.7529 Y269.1903
G3 X371.7317 Y269.2181 I-0.6058 J-0.4421
G1 X371.5132 Y269.4898
G3 X371.4779 Y269.5307 I-0.5846 J-0.4699
G1 X371.2416 Y269.7848
G3 X371.2199 Y269.8072 I-0.5492 J-0.5108
G1 X370.9812 Y270.0434
G3 X370.9436 Y270.0781 I-0.5275 J-0.5332
G1 X370.6845 Y270.3016
G3 X370.6554 Y270.3254 I-0.4899 J-0.5679
G1 X370.3913 Y270.5312
G3 X370.3701 Y270.5471 I-0.4608 J-0.5917
G1 X369.5247 Y271.1589
G1 X369.6956 Y271.4116
G3 X369.7013 Y271.42 I-0.6212 J0.4202
G1 X369.9299 Y271.768
G1 X370.1585 Y272.116
G3 X370.1619 Y272.1213 I-0.6268 J0.4118
G1 X370.388 Y272.4718
G3 X370.3901 Y272.475 I-0.6303 J0.4065
G1 X370.6136 Y272.8256
G3 X370.617 Y272.8309 I-0.6324 J0.4032
G1 X370.778 Y273.0883
G1 X371.6867 Y272.564
G3 X371.7016 Y272.5556 I0.3748 J0.6496
G1 X371.9988 Y272.393
G3 X372.0437 Y272.3704 I0.3599 J0.658
G1 X372.351 Y272.2281
G3 X372.3836 Y272.214 I0.315 J0.6806
G1 X372.696 Y272.087
G3 X372.7413 Y272.0703 I0.2824 J0.6948
G1 X373.069 Y271.961
G3 X373.1065 Y271.9496 I0.2372 J0.7115
G1 X373.4469 Y271.8556
G3 X373.492 Y271.8447 I0.1996 J0.7229
G1 X373.8298 Y271.7735
G3 X373.8735 Y271.7657 I0.1545 J0.7339
G1 X374.2647 Y271.7073
G3 X374.3136 Y271.7016 I0.1108 J0.7418
G1 X374.7124 Y271.6686
G3 X374.7648 Y271.6661 I0.0619 J0.7474
G1 X375.1687 Y271.661
G3 X375.2205 Y271.6621 I0.0094 J0.7499
G1 X375.6244 Y271.685
G3 X376.2304 Y272.0568 I-0.0424 J0.7488
G1 X376.2875 Y272.155
G1 X376.3492 Y272.2534
G3 X376.3676 Y272.2842 I-0.6352 J0.3988
G1 X376.6158 Y272.7249
G1 X376.6768 Y272.8322
G1 X376.7384 Y272.9382
G3 X376.7599 Y273.6525 I-0.6484 J0.377
G1 X376.577 Y274.0157
G3 X376.5519 Y274.0615 I-0.6699 J-0.3373
G1 X376.3436 Y274.4121
G3 X376.3177 Y274.4526 I-0.6448 J-0.3831
G1 X376.0916 Y274.7828
G3 X376.0617 Y274.8236 I-0.6189 J-0.4237
G1 X375.8153 Y275.136
G3 X375.7833 Y275.1739 I-0.5889 J-0.4644
G1 X375.5496 Y275.433
G3 X375.523 Y275.461 I-0.5569 J-0.5023
G1 X375.2767 Y275.7074
G3 X375.2429 Y275.7391 I-0.5303 J-0.5303
G1 X374.9813 Y275.9702
G3 X374.9491 Y275.9971 I-0.4966 J-0.5621
G1 X374.6849 Y276.2054
G3 X374.6469 Y276.2335 I-0.4644 J-0.589
G1 X374.3675 Y276.4265
G3 X374.3386 Y276.4455 I-0.4263 J-0.617
G1 X374.0542 Y276.6233
G3 X374.0311 Y276.6371 I-0.3975 J-0.636
G1 X373.1267 Y277.1583
G1 X373.269 Y277.4244
G3 X373.2747 Y277.4353 I-0.6614 J0.3537
G1 X373.4652 Y277.8062
G1 X373.6558 Y278.177
G1 X373.8463 Y278.5479
G3 X373.8509 Y278.557 I-0.6671 J0.3427
G1 X374.0363 Y278.9304
G3 X374.0381 Y278.934 I-0.6717 J0.3336
G1 X374.1721 Y279.2076
G1 X375.1285 Y278.7799
G3 X375.1542 Y278.769 I0.3062 J0.6847
G1 X375.4692 Y278.642
G3 X375.5006 Y278.6302 I0.2805 J0.6956
G1 X375.8181 Y278.5184
G3 X375.8655 Y278.5034 I0.249 J0.7075
G1 X376.1932 Y278.412
G3 X376.2298 Y278.4028 I0.2016 J0.7224
G1 X376.5676 Y278.3266
G3 X376.612 Y278.318 I0.165 J0.7316
G1 X376.9549 Y278.2621
G3 X376.9993 Y278.2562 I0.1206 J0.7402
G1 X377.3473 Y278.2206
G3 X377.3899 Y278.2175 I0.0762 J0.7461
G1 X377.7861 Y278.1997
G3 X377.8343 Y278.1991 I0.0336 J0.7492
G1 X378.228 Y278.2067
G3 X378.2835 Y278.2099 I-0.0145 J0.7499
G1 X378.6899 Y278.248
G3 X378.7378 Y278.254 I-0.07 J0.7467
G1 X379.1366 Y278.3175
G3 X379.7009 Y278.7467 I-0.1179 J0.7407
G1 X379.7536 Y278.8622
G1 X379.8597 Y279.0919
G3 X379.8719 Y279.1199 I-0.681 J0.3143
G1 X379.9149 Y279.224
G1 X379.9626 Y279.3284
G3 X379.9712 Y279.3481 I-0.6823 J0.3115
G1 X380.0153 Y279.4525
G1 X380.0642 Y279.5595
G3 X380.0697 Y279.572 I-0.6823 J0.3115
G1 X380.1205 Y279.6888
G3 X380.0631 Y280.3941 I-0.6878 J0.299
G1 X379.8421 Y280.737
G3 X379.8156 Y280.7755 I-0.6304 J-0.4063
G1 X379.5743 Y281.1032
G3 X379.5419 Y281.1442 I-0.6039 J-0.4447
G1 X379.2828 Y281.449
G3 X379.2464 Y281.4888 I-0.5715 J-0.4857
G1 X378.967 Y281.7732
G3 X378.9342 Y281.8046 I-0.5351 J-0.5255
G1 X378.6752 Y282.0383
G3 X378.6427 Y282.066 I-0.5023 J-0.5569
G1 X378.3709 Y282.2844
G3 X378.3359 Y282.3109 I-0.4699 J-0.5846
G1 X378.054 Y282.5115
G3 X378.0181 Y282.5355 I-0.4349 J-0.611
G1 X377.7311 Y282.7159
G3 X377.6987 Y282.7351 I-0.399 J-0.635
G1 X377.4041 Y282.9002
G3 X377.3592 Y282.9234 I-0.3666 J-0.6543
G1 X377.0544 Y283.0682
G3 X377.0368 Y283.0763 I-0.3218 J-0.6775
G1 X376.0831 Y283.4994
G1 X376.1968 Y283.7827
G3 X376.1989 Y283.7882 I-0.696 J0.2793
G1 X376.3513 Y284.1769
G1 X376.5038 Y284.5655
G3 X376.5068 Y284.5735 I-0.6982 J0.2738
G1 X376.6541 Y284.9621
G3 X376.6562 Y284.9676 I-0.7013 J0.2659
G1 X376.801 Y285.3588
G1 X376.9079 Y285.6476
G1 X377.9048 Y285.3226
G3 X377.929 Y285.3152 I0.2325 J0.7131
G1 X378.2541 Y285.2212
G3 X378.2872 Y285.2125 I0.2083 J0.7205
G1 X378.6148 Y285.1337
G3 X378.6668 Y285.1232 I0.1752 J0.7292
G1 X379.002 Y285.0673
G3 X379.0377 Y285.0622 I0.1233 J0.7398
G1 X379.3832 Y285.0216
G3 X379.4267 Y285.0177 I0.0876 J0.7449
G1 X379.7722 Y284.9974
G3 X379.8162 Y284.9961 I0.044 J0.7487
G1 X380.1642
G3 X380.2122 Y284.9976 I0.0 J0.75
G1 X380.6084 Y285.023
G3 X380.6558 Y285.0276 I-0.048 J0.7485
G1 X381.0521 Y285.0784
G3 X381.1038 Y285.0869 I-0.0954 J0.7439
G1 X381.4975 Y285.1656
G3 X381.5434 Y285.1763 I-0.1471 J0.7354
G1 X381.9345 Y285.2804
G3 X382.4531 Y285.768 I-0.193 J0.7248
G1 X382.5336 Y286.0096
G1 X382.5735 Y286.1267
G3 X382.5794 Y286.1447 I-0.71 J0.2417
G1 X382.6146 Y286.2576
G1 X382.6522 Y286.368
G3 X382.656 Y286.3792 I-0.71 J0.2417
G1 X382.7347 Y286.6231
G3 X382.7368 Y286.6299 I-0.7137 J0.2305
G1 X382.7749 Y286.7518
G3 X382.6425 Y287.4468 I-0.7159 J0.2237
G1 X382.3859 Y287.7643
G3 X382.3558 Y287.7994 I-0.5834 J-0.4714
G1 X382.0815 Y288.0991
G3 X382.044 Y288.1372 I-0.5533 J-0.5064
G1 X381.7545 Y288.4115
G3 X381.7164 Y288.4452 I-0.5158 J-0.5445
G1 X381.4091 Y288.6992
G3 X381.3734 Y288.7269 I-0.4778 J-0.5781
G1 X381.0915 Y288.9326
G3 X381.0527 Y288.9591 I-0.4421 J-0.6058
G1 X380.7581 Y289.147
G3 X380.7268 Y289.1659 I-0.4034 J-0.6323
G1 X380.4246 Y289.3386
G3 X380.3811 Y289.3617 I-0.3721 J-0.6512
G1 X380.0788 Y289.509
G3 X380.0422 Y289.5256 I-0.3286 J-0.6742
G1 X379.7298 Y289.6577
G3 X379.6918 Y289.6725 I-0.292 J-0.6908
G1 X379.3743 Y289.7868
G3 X379.3524 Y289.7944 I-0.254 J-0.7057
G1 X378.3606 Y290.1171
G1 X378.4442 Y290.4087
G3 X378.4472 Y290.4196 I-0.721 J0.2066
G1 X378.5561 Y290.8223
G1 X378.665 Y291.2199
G3 X378.6668 Y291.2265 I-0.7234 J0.1981
G1 X378.7735 Y291.6303
G1 X378.8802 Y292.0342
G3 X378.8835 Y292.0471 I-0.7251 J0.1915
G1 X378.955 Y292.3387
G1 X379.9795 Y292.1197
G3 X380.0011 Y292.1154 I0.1568 J0.7334
G1 X380.3339 Y292.0544
G3 X380.3788 Y292.0476 I0.1352 J0.7377
G1 X380.7141 Y292.007
G3 X380.7537 Y292.0032 I0.0902 J0.7446
G1 X381.0915 Y291.9804
G3 X381.1313 Y291.9787 I0.0506 J0.7483
G1 X381.4818 Y291.9737
G3 X381.5312 Y291.9746 I0.0109 J0.7499
G1 X381.8767 Y291.9923
G3 X381.9143 Y291.9952 I-0.0386 J0.749
G1 X382.2623 Y292.0308
G3 X382.3117 Y292.0375 I-0.0762 J0.7461
G1 X382.7004 Y292.1036
G3 X382.7465 Y292.1129 I-0.1256 J0.7394
G1 X383.1351 Y292.2043
G3 X383.1862 Y292.2183 I-0.1718 J0.7301
G1 X383.5698 Y292.3377
G3 X383.6189 Y292.3549 I-0.2229 J0.7161
G1 X383.9974 Y292.5022
G3 X384.4571 Y293.0368 I-0.2721 J0.6989
G1 X384.4851 Y293.1613
G1 X384.513 Y293.2857
G1 X384.541 Y293.4102
G3 X384.544 Y293.4245 I-0.7318 J0.1643
G1 X384.568 Y293.5418
G1 X384.5943 Y293.6591
G3 X384.5974 Y293.6734 I-0.7318 J0.1643
G1 X384.6213 Y293.7907
G1 X384.6476 Y293.9081
G3 X384.6507 Y293.9224 I-0.7318 J0.1643
G1 X384.6761 Y294.0468
G3 X384.4716 Y294.7271 I-0.7349 J0.15
G1 X384.182 Y295.0167
G3 X384.1482 Y295.0485 I-0.5303 J-0.5303
G1 X383.8434 Y295.3177
G3 X383.8037 Y295.3504 I-0.4965 J-0.5621
G1 X383.4862 Y295.5943
G3 X383.4465 Y295.6227 I-0.4568 J-0.5948
G1 X383.1163 Y295.8437
G3 X383.0778 Y295.8679 I-0.4171 J-0.6233
G1 X382.778 Y296.0431
G3 X382.7305 Y296.0687 I-0.3786 J-0.6474
G1 X382.4155 Y296.2236
G3 X382.3865 Y296.2371 I-0.3311 J-0.673
G1 X382.069 Y296.3768
G3 X382.026 Y296.3942 I-0.3021 J-0.6865
G1 X381.7085 Y296.511
G3 X381.6629 Y296.5262 I-0.259 J-0.7039
G1 X381.3378 Y296.6227
G3 X381.3049 Y296.6316 I-0.2134 J-0.719
G1 X380.9773 Y296.7129
G3 X380.9526 Y296.7186 I-0.1806 J-0.7279
G1 X379.9321 Y296.9355
G1 X379.9854 Y297.2313
G3 X379.9871 Y297.2409 I-0.7381 J0.133
G1 X380.0556 Y297.6524
G3 X380.0564 Y297.6569 I-0.7398 J0.1233
G1 X380.1224 Y298.0683
G3 X380.1231 Y298.0728 I-0.7405 J0.1188
G1 X380.1866 Y298.4843
G3 X380.1873 Y298.4888 I-0.7412 J0.1144
G1 X380.2483 Y298.9002
G3 X380.249 Y298.9054 I-0.7419 J0.1099
G1 X380.2916 Y299.207
G1 X381.3356 Y299.0974
G3 X381.3573 Y299.0954 I0.0783 J0.7459
G1 X381.6925 Y299.07
G3 X381.7323 Y299.0681 I0.0567 J0.7479
G1 X382.0701 Y299.0605
G3 X382.115 Y299.0608 I0.0169 J0.7498
G1 X382.4554 Y299.0735
G3 X382.4988 Y299.0764 I-0.028 J0.7495
G1 X382.8442 Y299.1094
G3 X382.8873 Y299.1148 I-0.0714 J0.7466
G1 X383.2327 Y299.1681
G3 X383.2728 Y299.1754 I-0.1145 J0.7412
G1 X383.6106 Y299.2465
G3 X383.6559 Y299.2575 I-0.1545 J0.7339
G1 X384.0419 Y299.3642
G3 X384.0923 Y299.3801 I-0.1998 J0.7229
G1 X384.4657 Y299.5122
G3 X384.5127 Y299.5306 I-0.2501 J0.7071
G1 X384.8836 Y299.6906
G3 X384.9274 Y299.7112 I-0.2971 J0.6886
G1 X385.2906 Y299.8967
G3 X385.6973 Y300.5049 I-0.341 J0.668
G1 X385.7062 Y300.6161
G1 X385.7195 Y300.725
G3 X385.7208 Y300.7366 I-0.7444 J0.0912
G1 X385.7609 Y301.1127
G1 X385.7756 Y301.2348
G3 X385.777 Y301.248 I-0.7447 J0.0894
G1 X385.7897 Y301.3725
G3 X385.7912 Y301.3888 I-0.7461 J0.0761
G1 X385.8014 Y301.5158
G3 X385.528 Y302.1567 I-0.7476 J0.0598
G1 X385.2104 Y302.4158
G3 X385.1727 Y302.4447 I-0.4742 J-0.5811
G1 X384.8424 Y302.6809
G3 X384.7997 Y302.7093 I-0.4364 J-0.61
G1 X384.4619 Y302.9176
G3 X384.4132 Y302.9451 I-0.3936 J-0.6384
G1 X384.0601 Y303.128
G3 X384.0223 Y303.1463 I-0.345 J-0.666
G1 X383.6997 Y303.2911
G3 X383.6559 Y303.3091 I-0.3071 J-0.6842
G1 X383.3308 Y303.431
G3 X383.2931 Y303.444 I-0.2633 J-0.7022
G1 X382.9629 Y303.5482
G3 X382.9231 Y303.5595 I-0.2256 J-0.7153
G1 X382.5955 Y303.6433
G3 X382.5502 Y303.6534 I-0.1859 J-0.7266
G1 X382.2175 Y303.7169
G3 X382.1782 Y303.7234 I-0.1406 J-0.7367
G1 X381.8429 Y303.7691
G3 X381.8203 Y303.7718 I-0.1013 J-0.7431
G1 X380.7828 Y303.8813
G1 X380.8033 Y304.1874
G3 X380.8036 Y304.1916 I-0.7483 J0.0502
G1 X380.829 Y304.6056
G3 Y304.6059 I-0.7486 J0.0459
G1 X380.8544 Y305.0225
G3 X380.8549 Y305.0316 I-0.7486 J0.0456
G1 X380.8752 Y305.4482
G3 X380.8754 Y305.4527 I-0.7491 J0.0365
G1 X380.8932 Y305.8693
G3 X380.8934 Y305.8738 I-0.7493 J0.032
G1 X380.9045 Y306.1774
G1 X381.9549
G3 X381.9777 Y306.1778 I0.0 J0.75
G1 X382.3129 Y306.1879
G3 X382.352 Y306.1902 I-0.0227 J0.7497
G1 X382.6899 Y306.2181
G3 X382.7349 Y306.2232 I-0.0618 J0.7474
G1 X383.0702 Y306.2715
G3 X383.1104 Y306.2784 I-0.1069 J0.7423
G1 X383.4533 Y306.3469
G3 X383.4998 Y306.3578 I-0.1471 J0.7354
G1 X383.8326 Y306.4467
G3 X383.868 Y306.4571 I-0.1936 J0.7246
G1 X384.2007 Y306.5638
G3 X384.2486 Y306.581 I-0.229 J0.7142
G1 X384.6195 Y306.7283
G3 X384.6663 Y306.7488 I-0.2769 J0.697
G1 X385.0219 Y306.919
G3 X385.0616 Y306.9394 I-0.3238 J0.6765
G1 X385.4147 Y307.135
G3 X385.4608 Y307.1628 I-0.3634 J0.6561
G1 X385.8037 Y307.3863
G3 X386.1441 Y308.0146 I-0.4096 J0.6283
G1 Y308.139
G1 Y308.266
G1 Y308.7766
G1 Y308.9061
G1 Y309.0306
G3 X385.8037 Y309.6589 I-0.75 J0.0
G1 X385.4608 Y309.8824
G3 X385.4198 Y309.9073 I-0.4096 J-0.6283
G1 X385.0642 Y310.108
G3 X385.0157 Y310.1331 I-0.3686 J-0.6532
G1 X384.655 Y310.3032
G3 X384.6118 Y310.322 I-0.32 J-0.6783
G1 X384.241 Y310.4693
G3 X384.1996 Y310.4843 I-0.2769 J-0.697
G1 X383.8694 Y310.5936
G3 X383.8261 Y310.6065 I-0.2355 J-0.7121
G1 X383.4908 Y310.6954
G3 X383.4509 Y310.7048 I-0.1922 J-0.7249
G1 X383.108 Y310.7759
G3 X383.0626 Y310.7839 I-0.1523 J-0.7344
G1 X382.7273 Y310.8321
G3 X382.6827 Y310.8372 I-0.1069 J-0.7423
G1 X382.3474 Y310.8651
G3 X382.3077 Y310.8674 I-0.0623 J-0.7474
G1 X381.9699 Y310.8775
G3 X381.9473 Y310.8779 I-0.0225 J-0.7497
G1 X380.9045
G1 X380.8934 Y311.1839
G3 X380.8932 Y311.1888 I-0.7495 J-0.0273
G1 X380.8754 Y311.6028
G3 X380.8752 Y311.6072 I-0.7493 J-0.0322
G1 X380.8549 Y312.0237
G3 X380.8544 Y312.0328 I-0.7491 J-0.0365
G1 X380.829 Y312.4494
G3 Y312.4497 I-0.7486 J-0.0456
G1 X380.8036 Y312.8637
G3 X380.8033 Y312.868 I-0.7486 J-0.0459
G1 X380.7828 Y313.1738
G1 X381.8275 Y313.2835
G3 X381.8505 Y313.2863 I-0.0783 J0.7459
G1 X382.1858 Y313.332
G3 X382.2251 Y313.3384 I-0.1013 J0.7431
G1 X382.5578 Y313.4019
G3 X382.5978 Y313.4107 I-0.1406 J0.7367
G1 X382.9255 Y313.4919
G3 X382.9705 Y313.5046 I-0.1806 J0.7279
G1 X383.3007 Y313.6087
G3 X383.3432 Y313.6236 I-0.2256 J0.7153
G1 X383.6684 Y313.7481
G3 X383.7003 Y313.7611 I-0.2681 J0.7004
G1 X384.0203 Y313.9008
G3 X384.071 Y313.9252 I-0.3 J0.6874
G1 X384.4215 Y314.1106
G3 X384.4609 Y314.133 I-0.3507 J0.663
G1 X384.7987 Y314.3388
G3 X384.8397 Y314.3656 I-0.3901 J0.6406
G1 X385.1724 Y314.5993
G3 X385.2173 Y314.6334 I-0.431 J0.6138
G1 X385.5297 Y314.8899
G3 X385.8009 Y315.5348 I-0.476 J0.5796
G1 X385.7679 Y315.9132
G3 X385.7654 Y315.9374 I-0.7472 J-0.0652
G1 X385.7502 Y316.0644
G1 X385.7355 Y316.1868
G1 X385.6954 Y316.5606
G3 X385.2943 Y317.1466 I-0.7457 J-0.0801
G1 X384.9311 Y317.3346
G3 X384.8802 Y317.3586 I-0.3447 J-0.6661
G1 X384.5042 Y317.5186
G3 X384.4649 Y317.534 I-0.2938 J-0.6901
G1 X384.0915 Y317.6687
G3 X384.0381 Y317.6857 I-0.2544 J-0.7055
G1 X383.6545 Y317.7924
G3 X383.6111 Y317.8031 I-0.201 J-0.7226
G1 X383.2682 Y317.8767
G3 X383.2259 Y317.8845 I-0.1575 J-0.7333
G1 X382.883 Y317.9379
G3 X382.8391 Y317.9434 I-0.1153 J-0.7411
G1 X382.4937 Y317.9764
G3 X382.4503 Y317.9793 I-0.0714 J-0.7466
G1 X382.1099 Y317.992
G3 X382.0706 Y317.9924 I-0.028 J-0.7495
G1 X381.7353 Y317.9874
G3 X381.6908 Y317.9854 I0.0114 J-0.7499
G1 X381.3505 Y317.96
G3 X381.3276 Y317.9579 I0.0558 J-0.7479
G1 X380.2915 Y317.8486
G1 X380.249 Y318.15
G3 X380.2483 Y318.1551 I-0.7426 J-0.1048
G1 X380.1873 Y318.5666
G3 X380.1866 Y318.571 I-0.7419 J-0.1099
G1 X380.1231 Y318.9825
G3 X380.1224 Y318.987 I-0.7412 J-0.1144
G1 X380.0564 Y319.3985
G3 X380.0555 Y319.4037 I-0.7405 J-0.1188
G1 X379.9869 Y319.8126
G3 X379.9855 Y319.8207 I-0.7397 J-0.124
G1 X379.9321 Y320.1193
G1 X380.9595 Y320.3366
G3 X380.9849 Y320.3424 I-0.1552 J0.7338
G1 X381.3125 Y320.4237
G3 X381.3485 Y320.4336 I-0.1806 J0.7279
G1 X381.6686 Y320.5301
G3 X381.7074 Y320.543 I-0.2166 J0.7181
G1 X382.03 Y320.6598
G3 X382.072 Y320.6765 I-0.2554 J0.7052
G1 X382.3895 Y320.8137
G3 X382.4319 Y320.8335 I-0.2974 J0.6885
G1 X382.7418 Y320.991
G3 X382.7782 Y321.0108 I-0.3398 J0.6686
G1 X383.0805 Y321.1861
G3 X383.1181 Y321.2094 I-0.3762 J0.6488
G1 X383.4483 Y321.4278
G3 X383.4883 Y321.4562 I-0.4138 J0.6255
G1 X383.8058 Y321.6975
G3 X383.8482 Y321.7323 I-0.4538 J0.5971
G1 X384.1504 Y321.999
G3 X384.1846 Y322.031 I-0.4962 J0.5624
G1 X384.4716 Y322.318
G3 X384.6761 Y322.9983 I-0.5303 J0.5303
G1 X384.6507 Y323.1228
G1 X384.6253 Y323.2473
G3 X384.6222 Y323.2616 I-0.7349 J-0.15
G1 X384.5959 Y323.3789
G1 X384.572 Y323.4962
G3 X384.5689 Y323.5105 I-0.7349 J-0.15
G1 X384.5426 Y323.6278
G1 X384.5186 Y323.7451
G3 X384.5156 Y323.7594 I-0.7349 J-0.15
G1 X384.4876 Y323.8839
G1 X384.4597 Y324.0083
G3 X384.0015 Y324.5424 I-0.7318 J-0.1643
G1 X383.6256 Y324.6897
G3 X383.5738 Y324.7078 I-0.2737 J-0.6983
G1 X383.1801 Y324.8297
G3 X383.1367 Y324.8418 I-0.2219 J-0.7164
G1 X382.7532 Y324.9357
G3 X382.698 Y324.9471 I-0.1785 J-0.7285
G1 X382.3018 Y325.0131
G3 X382.2607 Y325.0188 I-0.1233 J-0.7398
G1 X381.9152 Y325.0569
G3 X381.8658 Y325.0607 I-0.0822 J-0.7455
G1 X381.5179 Y325.076
G3 X381.4795 Y325.0767 I-0.0328 J-0.7493
G1 X381.1341 Y325.0741
G3 X381.0893 Y325.0724 I0.0055 J-0.75
G1 X380.749 Y325.0496
G3 X380.7096 Y325.0459 I0.0503 J-0.7483
G1 X380.3718 Y325.0053
G3 X380.3252 Y324.9982 I0.0896 J-0.7446
G1 X379.995 Y324.9372
G3 X379.975 Y324.9332 I0.1362 J-0.7375
G1 X378.9551 Y324.7161
G1 X378.8835 Y325.0083
G3 X378.8802 Y325.0211 I-0.7284 J-0.1787
G1 X378.7735 Y325.425
G1 X378.6668 Y325.8289
G3 X378.665 Y325.8354 I-0.7251 J-0.1915
G1 X378.5561 Y326.2331
G1 X378.4472 Y326.6358
G3 X378.4446 Y326.6454 I-0.724 J-0.1958
G1 X378.361 Y326.9387
G1 X379.3578 Y327.2636
G3 X379.3744 Y327.2692 I-0.2325 J0.7131
G1 X379.6919 Y327.381
G3 X379.7349 Y327.3977 I-0.249 J0.7075
G1 X380.0473 Y327.5297
G3 X380.0816 Y327.5453 I-0.292 J0.6908
G1 X380.3865 Y327.6926
G3 X380.4322 Y327.7167 I-0.3264 J0.6753
G1 X380.7344 Y327.8894
G3 X380.7657 Y327.9083 I-0.3721 J0.6512
G1 X381.0603 Y328.0963
G3 X381.0955 Y328.1201 I-0.4034 J0.6323
G1 X381.3774 Y328.3233
G3 X381.4191 Y328.3556 I-0.4385 J0.6084
G1 X381.7239 Y328.6096
G3 X381.7595 Y328.6413 I-0.4801 J0.5762
G1 X382.0491 Y328.9156
G3 X382.0846 Y328.9516 I-0.5158 J0.5445
G1 X382.3564 Y329.2462
G3 X382.3843 Y329.2783 I-0.5513 J0.5085
G1 X382.6434 Y329.5932
G3 X382.7779 Y330.3002 I-0.5792 J0.4765
G1 X382.6991 Y330.544
G3 X382.6924 Y330.5639 I-0.7137 J-0.2305
G1 X382.6532 Y330.6747
G1 X382.6193 Y330.7807
G1 X382.5819 Y330.9005
G3 X382.5805 Y330.9048 I-0.7159 J-0.2237
G1 X382.5424 Y331.0242
G3 X382.5349 Y331.0465 I-0.7145 J-0.228
G1 X382.4988 Y331.1484
G1 X382.4692 Y331.25
G3 X381.9442 Y331.7642 I-0.72 J-0.21
G1 X381.5479 Y331.8709
G3 X381.5037 Y331.8814 I-0.195 J-0.7242
G1 X381.1074 Y331.9626
G3 X381.0515 Y331.9719 I-0.1507 J-0.7347
G1 X380.6527 Y332.0227
G3 X380.6059 Y332.0272 I-0.0948 J-0.744
G1 X380.2097 Y332.0526
G3 X380.1617 Y332.0541 I-0.048 J-0.7485
G1 X379.8137
G3 X379.7703 Y332.0529 I0.0 J-0.75
G1 X379.4198 Y332.0326
G3 X379.3809 Y332.0293 I0.0434 J-0.7487
G1 X379.0355 Y331.9912
G3 X378.988 Y331.9844 I0.0822 J-0.7455
G1 X378.6553 Y331.926
G3 X378.6163 Y331.9181 I0.1297 J-0.7387
G1 X378.2861 Y331.8419
G3 X378.245 Y331.8312 I0.1686 J-0.7308
G1 X377.9224 Y331.7372
G3 X377.9001 Y331.7303 I0.2098 J-0.7201
G1 X376.9072 Y331.4072
G1 X376.8017 Y331.6945
G3 X376.801 Y331.6966 I-0.7041 J-0.2583
G1 X376.6562 Y332.0877
G3 X376.6541 Y332.0932 I-0.7034 J-0.2603
G1 X376.5068 Y332.4819
G3 X376.5038 Y332.4898 I-0.7013 J-0.2659
G1 X376.3513 Y332.8785
G3 X376.3507 Y332.88 I-0.6982 J-0.2738
G1 X376.1983 Y333.2661
G3 X376.1968 Y333.2701 I-0.6976 J-0.2754
G1 X376.0826 Y333.5545
G1 X377.0409 Y333.9823
G3 X377.0548 Y333.9887 I-0.3057 J0.6849
G1 X377.3621 Y334.1334
G3 X377.4068 Y334.1563 I-0.3196 J0.6785
G1 X377.7039 Y334.3214
G3 X377.7372 Y334.341 I-0.3642 J0.6556
G1 X378.0217 Y334.5188
G3 X378.0565 Y334.542 I-0.3975 J0.636
G1 X378.341 Y334.7426
G3 X378.3812 Y334.7731 I-0.4323 J0.6129
G1 X378.6504 Y334.9915
G3 X378.6805 Y335.0173 I-0.4725 J0.5824
G1 X378.9422 Y335.2535
G3 X378.9747 Y335.2847 I-0.5026 J0.5567
G1 X379.2515 Y335.5666
G3 X379.2858 Y335.604 I-0.5351 J0.5255
G1 X379.5449 Y335.9063
G3 X379.5761 Y335.9451 I-0.5694 J0.4881
G1 X379.8174 Y336.2677
G3 X379.8458 Y336.3085 I-0.6006 J0.4492
G1 X380.0668 Y336.6489
G3 X380.1256 Y337.3564 I-0.629 J0.4084
G1 X380.0748 Y337.4732
G1 X380.024 Y337.59
G3 X380.0184 Y337.6025 I-0.6878 J-0.299
G1 X379.9696 Y337.7095
G1 X379.9255 Y337.8139
G3 X379.9155 Y337.8364 I-0.6909 J-0.2917
G1 X379.8108 Y338.0634
G1 X379.7593 Y338.1786
G3 X379.7542 Y338.1898 I-0.6848 J-0.306
G1 X379.7008 Y338.3041
G3 X379.143 Y338.727 I-0.6796 J-0.3172
G1 X378.7417 Y338.7931
G3 X378.6899 Y338.7997 I-0.1218 J-0.74
G1 X378.2835 Y338.8378
G3 X378.2326 Y338.8409 I-0.07 J-0.7467
G1 X377.8338 Y338.851
G3 X377.786 Y338.8507 I-0.0191 J-0.7498
G1 X377.3873 Y338.8355
G3 X377.3391 Y338.8321 I0.0286 J-0.7495
G1 X376.9937 Y338.7965
G3 X376.9436 Y338.7897 I0.0768 J-0.7461
G1 X376.6032 Y338.7312
G3 X376.5726 Y338.7253 I0.1269 J-0.7392
G1 X376.2297 Y338.6517
G3 X376.1841 Y338.6404 I0.1575 J-0.7333
G1 X375.859 Y338.5489
G3 X375.8148 Y338.535 I0.2031 J-0.722
G1 X375.4948 Y338.4233
G3 X375.4576 Y338.4092 I0.2473 J-0.7081
G1 X375.1477 Y338.2822
G3 X375.1265 Y338.2731 I0.2844 J-0.694
G1 X374.172 Y337.8472
G1 X373.8518 Y338.4965
G3 X373.8472 Y338.5056 I-0.6726 J-0.3317
G1 X373.6567 Y338.879
G3 X373.6558 Y338.8809 I-0.6681 J-0.3409
G1 X373.4652 Y339.2517
G3 X373.4643 Y339.2536 I-0.6671 J-0.3427
G1 X373.2738 Y339.6219
G3 X373.27 Y339.6291 I-0.6662 J-0.3446
G1 X373.1273 Y339.8978
G1 X374.034 Y340.4209
G3 X374.0516 Y340.4314 I-0.3748 J0.6496
G1 X374.3412 Y340.6092
G3 X374.3751 Y340.6313 I-0.3924 J0.6391
G1 X374.6545 Y340.8244
G3 X374.6925 Y340.8525 I-0.4263 J0.617
G1 X374.9567 Y341.0607
G3 X374.9889 Y341.0876 I-0.4644 J0.589
G1 X375.2505 Y341.3188
G3 X375.2815 Y341.3478 I-0.4966 J0.5621
G1 X375.5279 Y341.5916
G3 X375.5573 Y341.6224 I-0.5276 J0.5331
G1 X375.7909 Y341.8814
G3 X375.8229 Y341.9193 I-0.5569 J0.5023
G1 X376.0693 Y342.2318
G3 X376.0977 Y342.2703 I-0.5889 J0.4644
G1 X376.3238 Y342.5979
G3 X376.3487 Y342.6366 I-0.6173 J0.4259
G1 X376.557 Y342.982
G3 X376.5846 Y343.032 I-0.6423 J0.3873
G1 X376.7675 Y343.3952
G3 X376.7473 Y344.1073 I-0.6699 J0.3373
G1 X376.3663 Y344.7677
G3 X376.3636 Y344.7722 I-0.6496 J-0.3748
G1 X376.2341 Y344.9932
G3 X375.6245 Y345.363 I-0.647 J-0.3793
G1 X375.2181 Y345.3833
G3 X375.176 Y345.3842 I-0.0375 J-0.7491
G1 X374.7696 Y345.3817
G3 X374.7124 Y345.3791 I0.0047 J-0.75
G1 X374.3136 Y345.3461
G3 X374.2701 Y345.3412 I0.0619 J-0.7474
G1 X373.8764 Y345.2854
G3 X373.8231 Y345.2758 I0.1054 J-0.7426
G1 X373.4828 Y345.2022
G3 X373.4505 Y345.1944 I0.1586 J-0.733
G1 X373.1127 Y345.1055
G3 X373.0648 Y345.0912 I0.1909 J-0.7253
G1 X372.732 Y344.9794
G3 X372.6913 Y344.9644 I0.2388 J-0.711
G1 X372.3814 Y344.84
G3 X372.3413 Y344.8225 I0.2795 J-0.696
G1 X372.034 Y344.6777
G3 X371.9957 Y344.6583 I0.3196 J-0.6785
G1 X371.701 Y344.4983
G3 X371.6845 Y344.489 I0.3579 J-0.6591
G1 X370.7782 Y343.9668
G1 X370.617 Y344.2244
G3 X370.6149 Y344.2277 I-0.6357 J-0.3979
G1 X370.3914 Y344.5807
G3 X370.388 Y344.5861 I-0.6337 J-0.4012
G1 X370.1619 Y344.9366
G3 X370.1585 Y344.9419 I-0.6303 J-0.4065
G1 X369.9299 Y345.2899
G1 X369.7013 Y345.6379
G3 X369.6942 Y345.6484 I-0.6268 J-0.4118
G1 X369.526 Y345.8953
G1 X370.3756 Y346.5111
G3 X370.3936 Y346.5246 I-0.4401 J0.6073
G1 X370.6603 Y346.7303
G3 X370.6977 Y346.7611 I-0.4581 J0.5938
G1 X370.9517 Y346.9846
G3 X370.9781 Y347.009 I-0.4955 J0.563
G1 X371.2219 Y347.2452
G3 X371.2493 Y347.2731 I-0.5218 J0.5387
G1 X371.4855 Y347.5271
G3 X371.5187 Y347.5653 I-0.5492 J0.5108
G1 X371.7371 Y347.8346
G3 X371.7606 Y347.865 I-0.5824 J0.4725
G1 X371.9663 Y348.147
G3 X371.991 Y348.183 I-0.6058 J0.4421
G1 X372.2069 Y348.5183
G3 X372.2393 Y348.5737 I-0.6306 J0.4061
G1 X372.4247 Y348.9242
G3 X372.44 Y348.9546 I-0.663 J0.3507
G1 X372.6127 Y349.3204
G3 X372.635 Y349.3727 I-0.6782 J0.3203
G1 X372.7798 Y349.7511
G3 X372.6868 Y350.4589 I-0.7005 J0.268
G1 X372.3871 Y350.8729
G3 X372.3868 Y350.8734 I-0.6075 J-0.4398
G1 X372.3157 Y350.9714
G1 X372.2446 Y351.072
G3 X372.2251 Y351.0983 I-0.6123 J-0.4331
G1 X372.1564 Y351.187
G1 X372.0922 Y351.2777
G3 X371.438 Y351.5934 I-0.6123 J-0.4331
G1 X371.029 Y351.5706
G3 X370.986 Y351.5669 I0.0419 J-0.7488
G1 X370.5847 Y351.5212
G3 X370.5316 Y351.5132 I0.0849 J-0.7452
G1 X370.1379 Y351.4396
G3 X370.094 Y351.43 I0.1379 J-0.7372
G1 X369.7079 Y351.3335
G3 X369.6559 Y351.3184 I0.1819 J-0.7276
G1 X369.3231 Y351.2092
G3 X369.2889 Y351.1971 I0.2339 J-0.7126
G1 X368.9638 Y351.0726
G3 X368.9207 Y351.0546 I0.2681 J-0.7004
G1 X368.6032 Y350.9098
G3 X368.5609 Y350.8888 I0.3112 J-0.6824
G1 X368.2662 Y350.7314
G3 X368.2364 Y350.7145 I0.3535 J-0.6614
G1 X367.9417 Y350.5392
G3 X367.9 Y350.5125 I0.3834 J-0.6446
G1 X367.6231 Y350.322
G3 X367.6072 Y350.3107 I0.4251 J-0.6179
G1 X366.7638 Y349.6975
G1 X366.5718 Y349.9404
G1 X366.3155 Y350.2652
G3 X366.311 Y350.2709 I-0.5888 J-0.4646
G1 X366.0494 Y350.596
G3 X366.0453 Y350.601 I-0.5843 J-0.4702
G1 X365.7811 Y350.9235
G1 X365.517 Y351.2461
G3 X365.5129 Y351.2511 I-0.5803 J-0.4752
G1 X365.3159 Y351.4874
G1 X366.0952 Y352.1861
G3 X366.1106 Y352.2002 I-0.5007 J0.5584
G1 X366.3544 Y352.4314
G3 X366.3908 Y352.4684 I-0.516 J0.5443
G1 X366.6194 Y352.7173
G3 X366.6377 Y352.7379 I-0.5524 J0.5073
G1 X366.8586 Y352.997
G3 X366.8893 Y353.0355 I-0.5706 J0.4867
G1 X367.0976 Y353.3149
G3 X367.1245 Y353.3534 I-0.6013 J0.4482
G1 X367.315 Y353.6455
G3 X367.3366 Y353.6807 I-0.6282 J0.4097
G1 X367.5093 Y353.9805
G3 X367.5332 Y354.0253 I-0.6498 J0.3745
G1 X367.7084 Y354.3834
G3 X367.7254 Y354.4205 I-0.6737 J0.3297
G1 X367.8803 Y354.7863
G3 X367.8998 Y354.8374 I-0.6906 J0.2925
G1 X368.0294 Y355.2184
G3 X368.044 Y355.2669 I-0.7101 J0.2414
G1 X368.1482 Y355.6581
G3 X367.9827 Y356.3507 I-0.7248 J0.193
G1 X367.8126 Y356.5412
G1 X367.6459 Y356.7278
G1 X367.5655 Y356.8203
G3 X367.5441 Y356.8439 I-0.5663 J-0.4918
G1 X367.4627 Y356.9299
G1 X367.3024 Y357.1097
G3 X366.6262 Y357.3514 I-0.5597 J-0.4992
G1 X366.2223 Y357.2879
G3 X366.1756 Y357.279 I0.1165 J-0.7409
G1 X365.7768 Y357.1901
G3 X365.7302 Y357.1781 I0.1632 J-0.732
G1 X365.3467 Y357.0664
G3 X365.2963 Y357.0498 I0.2098 J-0.7201
G1 X364.9255 Y356.9126
G3 X364.8765 Y356.8925 I0.2602 J-0.7034
G1 X364.5565 Y356.7477
G3 X364.5236 Y356.7319 I0.3091 J-0.6833
G1 X364.2162 Y356.5744
G3 X364.178 Y356.5534 I0.342 J-0.6675
G1 X363.8757 Y356.3756
G3 X363.8374 Y356.3514 I0.3803 J-0.6465
G1 X363.558 Y356.1634
G3 X363.5239 Y356.1391 I0.4186 J-0.6223
G1 X363.2521 Y355.9334
G3 X363.228 Y355.9143 I0.4527 J-0.598
G1 X362.9689 Y355.701
G3 X362.9426 Y355.6782 I0.4768 J-0.5789
G1 X362.1703 Y354.9797
G1 X361.9548 Y355.197
G1 X361.6686 Y355.4933
G3 X361.6595 Y355.5025 I-0.5394 J-0.5211
G1 X361.3624 Y355.7997
G1 X361.0703 Y356.0918
G3 X361.0657 Y356.0963 I-0.5303 J-0.5303
G1 X360.766 Y356.3909
G3 X360.7636 Y356.3933 I-0.5258 J-0.5348
G1 X360.546 Y356.6053
G1 X361.2446 Y357.3812
G3 X361.2575 Y357.3959 I-0.5574 J0.5019
G1 X361.481 Y357.6575
G3 X361.5121 Y357.6965 I-0.5702 J0.4872
G1 X361.7128 Y357.9657
G3 X361.7293 Y357.9888 I-0.6014 J0.4482
G1 X361.9198 Y358.2656
G3 X361.9498 Y358.3129 I-0.6179 J0.4251
G1 X362.1276 Y358.6177
G3 X362.1472 Y358.6536 I-0.6478 J0.3779
G1 X362.3047 Y358.9609
G3 X362.3217 Y358.9963 I-0.6675 J0.342
G1 X362.4639 Y359.3138
G3 X362.4819 Y359.3576 I-0.6845 J0.3066
G1 X362.6216 Y359.731
G3 X362.6375 Y359.7783 I-0.7024 J0.2628
G1 X362.7518 Y360.1593
G3 X362.766 Y360.2141 I-0.7184 J0.2155
G1 X362.8524 Y360.6078
G3 X362.8605 Y360.6506 I-0.7326 J0.1607
G1 X362.924 Y361.0494
G3 X362.6908 Y361.7196 I-0.7407 J0.1179
G1 X362.6006 Y361.8025
G1 X362.5129 Y361.8853
G3 X362.498 Y361.899 I-0.515 J-0.5453
G1 X362.4015 Y361.9853
G3 X362.4006 Y361.9861 I-0.5001 J-0.5589
G1 X362.3068 Y362.0697
G1 X362.1201 Y362.2365
G1 X362.0322 Y362.3171
G3 X362.0099 Y362.3368 I-0.5068 J-0.5529
G1 X361.9109 Y362.4206
G3 X361.2378 Y362.574 I-0.4845 J-0.5725
G1 X360.8467 Y362.4724
G3 X360.7967 Y362.4575 I0.1885 J-0.7259
G1 X360.4106 Y362.3279
G3 X360.3641 Y362.3106 I0.2386 J-0.711
G1 X359.9932 Y362.1582
G3 X359.941 Y362.1344 I0.2851 J-0.6937
G1 X359.5828 Y361.954
G3 X359.5457 Y361.934 I0.3373 J-0.6699
G1 X359.246 Y361.7613
G3 X359.2132 Y361.7413 I0.3745 J-0.6498
G1 X358.9186 Y361.5508
G3 X358.8749 Y361.5203 I0.4072 J-0.6298
G1 X358.598 Y361.312
G3 X358.5716 Y361.2911 I0.4509 J-0.5993
G1 X358.3099 Y361.0752
G3 X358.2742 Y361.0437 I0.4774 J-0.5785
G1 X358.0278 Y360.8126
G3 X357.9994 Y360.7845 I0.5131 J-0.547
G1 X357.7657 Y360.5407
G3 X357.7498 Y360.5235 I0.5415 J-0.5189
G1 X357.0515 Y359.7479
G1 X356.8238 Y359.941
G3 X356.8117 Y359.9511 I-0.4851 J-0.572
G1 X356.4888 Y360.2134
G1 X356.171 Y360.4757
G3 X356.1637 Y360.4816 I-0.4774 J-0.5784
G1 X355.8386 Y360.7432
G3 X355.833 Y360.7477 I-0.4702 J-0.5843
G1 X355.5082 Y361.004
G1 X355.2652 Y361.1961
G1 X355.8824 Y362.0404
G3 X355.8984 Y362.0632 I-0.6055 J0.4426
G1 X356.0889 Y362.3451
G3 X356.1116 Y362.3808 I-0.6214 J0.4199
G1 X356.2843 Y362.6703
G3 X356.3029 Y362.7034 I-0.6441 J0.3842
G1 X356.4604 Y363.0006
G3 X356.4801 Y363.0406 I-0.6627 J0.3512
G1 X356.6249 Y363.3581
G3 X356.6411 Y363.3964 I-0.6824 J0.3112
G1 X356.7681 Y363.7215
G3 X356.7815 Y363.7588 I-0.6986 J0.2729
G1 X356.8907 Y364.089
G3 X356.9052 Y364.1382 I-0.7121 J0.2355
G1 X357.0042 Y364.5243
G3 X357.0155 Y364.5756 I-0.7265 J0.1864
G1 X357.0866 Y364.9643
G3 X357.0929 Y365.0051 I-0.7377 J0.135
G1 X357.1437 Y365.4064
G3 X357.1487 Y365.4632 I-0.7441 J0.0942
G1 X357.1691 Y365.8696
G3 X356.8602 Y366.5142 I-0.7491 J0.0375
G1 X356.7599 Y366.5869
G1 X356.6571 Y366.6621
G3 X356.6473 Y366.6692 I-0.4429 J-0.6053
G1 X356.5481 Y366.7394
G1 X356.4488 Y366.812
G3 X356.4475 Y366.813 I-0.4429 J-0.6053
G1 X356.0361 Y367.1127
G3 X355.3281 Y367.2075 I-0.4416 J-0.6062
G1 X354.9471 Y367.0628
G3 X354.9007 Y367.0433 I0.2664 J-0.7011
G1 X354.5298 Y366.8731
G3 X354.4845 Y366.8505 I0.3128 J-0.6817
G1 X354.134 Y366.66
G3 X354.0882 Y366.633 I0.3581 J-0.659
G1 X353.7504 Y366.4171
G3 X353.7158 Y366.3935 I0.4039 J-0.632
G1 X353.4338 Y366.1903
G3 X353.3971 Y366.1621 I0.4385 J-0.6084
G1 X353.1304 Y365.9437
G3 X353.1003 Y365.9177 I0.4752 J-0.5802
G1 X352.8412 Y365.6814
G3 X352.8079 Y365.6491 I0.5053 J-0.5542
G1 X352.5716 Y365.4052
G3 X352.5445 Y365.3757 I0.5387 J-0.5218
G1 X352.3235 Y365.1217
G3 X352.2934 Y365.0848 I0.5658 J-0.4923
G1 X352.0877 Y364.8155
G3 X352.0774 Y364.8018 I0.5959 J-0.4554
G1 X351.4627 Y363.958
G1 X351.2115 Y364.1279
G3 X351.2031 Y364.1335 I-0.4202 J-0.6212
G1 X350.8567 Y364.3611
G1 X350.5103 Y364.5912
G3 X350.5018 Y364.5967 I-0.415 J-0.6247
G1 X350.1513 Y364.8228
G3 X350.1448 Y364.8269 I-0.4065 J-0.6303
G1 X349.7948 Y365.0475
G1 X349.5347 Y365.2122
G1 X350.0592 Y366.1216
G3 X350.0686 Y366.1384 I-0.6497 J0.3747
G1 X350.2286 Y366.433
G3 X350.248 Y366.4713 I-0.6591 J0.3579
G1 X350.3928 Y366.7787
G3 X350.4099 Y366.8178 I-0.6785 J0.3196
G1 X350.5369 Y367.1328
G3 X350.5528 Y367.1761 I-0.6956 J0.2805
G1 X350.662 Y367.5037
G3 X350.6745 Y367.545 I-0.7115 J0.2372
G1 X350.7659 Y367.8828
G3 X350.7747 Y367.919 I-0.7239 J0.196
G1 X350.8484 Y368.2568
G3 X350.8575 Y368.3065 I-0.7328 J0.1598
G1 X350.9159 Y368.7002
G3 X350.9219 Y368.7531 I-0.7419 J0.1101
G1 X350.9523 Y369.1519
G3 X350.9544 Y369.1948 I-0.7478 J0.0572
G1 X350.962 Y369.5961
G3 X350.961 Y369.6525 I-0.7499 J0.0142
G1 X350.9381 Y370.0589
G3 X350.5598 Y370.6689 I-0.7488 J-0.0421
G1 X350.4546 Y370.7286
G1 X350.3545 Y370.7883
G3 X350.3414 Y370.7959 I-0.3836 J-0.6445
G1 X350.2384 Y370.8544
G1 X350.1379 Y370.9151
G3 X350.1236 Y370.9236 I-0.3881 J-0.6418
G1 X349.9026 Y371.0506
G3 X349.8994 Y371.0524 I-0.3737 J-0.6503
G1 X349.7876 Y371.1159
G3 X349.7826 Y371.1187 I-0.3705 J-0.6521
G1 X349.6734 Y371.1797
G3 X348.9688 Y371.1937 I-0.3655 J-0.6549
G1 X348.603 Y371.0083
G3 X348.5639 Y370.987 I0.3391 J-0.669
G1 X348.2159 Y370.7838
G3 X348.1705 Y370.755 I0.3782 J-0.6477
G1 X347.8403 Y370.529
G3 X347.7937 Y370.4944 I0.4237 J-0.6189
G1 X347.4813 Y370.2429
G3 X347.4522 Y370.2183 I0.4703 J-0.5843
G1 X347.1931 Y369.9871
G3 X347.1594 Y369.9551 I0.4993 J-0.5596
G1 X346.913 Y369.7062
G3 X346.8889 Y369.6806 I0.533 J-0.5276
G1 X346.6577 Y369.4241
G3 X346.6217 Y369.3809 I0.5572 J-0.502
G1 X346.4134 Y369.1117
G3 X346.3933 Y369.0844 I0.5932 J-0.4589
G1 X346.2002 Y368.8101
G3 X346.1745 Y368.7709 I0.6134 J-0.4316
G1 X345.9967 Y368.4813
G3 X345.9868 Y368.4648 I0.6391 J-0.3924
G1 X345.4629 Y367.5603
G1 X345.1978 Y367.7029
G3 X345.1871 Y367.7086 I-0.3553 J-0.6605
G1 X344.8188 Y367.8991
G3 X344.8169 Y367.9 I-0.3446 J-0.6662
G1 X344.4461 Y368.0905
G1 X344.0752 Y368.281
G3 X344.0624 Y368.2875 I-0.3427 J-0.6671
G1 X343.689 Y368.4703
G1 X343.4147 Y368.6047
G1 X343.841 Y369.5618
G3 X343.8496 Y369.5816 I-0.6851 J0.3052
G1 X343.9791 Y369.8966
G3 X343.9929 Y369.9329 I-0.6936 J0.2853
G1 X344.1047 Y370.2504
G3 X344.1192 Y370.2963 I-0.7075 J0.249
G1 X344.2107 Y370.6215
G3 X344.2206 Y370.6607 I-0.722 J0.2031
G1 X344.2968 Y371.001
