( Made using CamBam - http://www.cambam.co.uk )
( Clock1-pg5 2/16/2019 11:22:06 PM )
( T0 : 1.5 )
G21 G90 G64 G40
G0 Z3.0
( T0 : 1.5 )
T0 M6
( Profile2 )
G17
M3 S1000
G0 X62.4348 Y31.301
G0 Z1.0
G1 F100.0 Z-1.0
G1 F200.0 X62.6695 Y31.2896
G1 X62.9003 Y31.2516
G1 X63.1387 Y31.1884
G1 X63.357 Y31.1087
G1 X63.5661 Y31.0028
G1 X63.7699 Y30.8737
G1 X63.9525 Y30.7318
G1 X64.1195 Y30.5644
G1 X64.2732 Y30.3815
G1 X64.4061 Y30.183
G1 X64.5166 Y29.975
G1 X64.6059 Y29.7576
G1 X64.6715 Y29.5301
G1 X64.7132 Y29.2943
G1 X64.7321 Y29.059
G1 X64.7264 Y28.8205
G1 X64.697 Y28.5839
G1 X64.6439 Y28.3617
G1 X64.5631 Y28.1305
G1 X64.466 Y27.9176
G1 X64.3452 Y27.7251
G1 X64.1979 Y27.5259
G1 X64.036 Y27.3495
G1 X63.8644 Y27.1969
G1 X63.6699 Y27.0624
G1 X63.4597 Y26.9408
G1 X63.2484 Y26.848
G1 X63.0295 Y26.7807
G1 X62.7879 Y26.7331
G1 X62.5496 Y26.7058
G1 X62.3201
G1 X62.082 Y26.7331
G1 X61.8404 Y26.7808
G1 X61.6194 Y26.848
G1 X61.4113 Y26.9403
G1 X61.2001 Y27.0622
G1 X61.0068 Y27.1964
G1 X60.8341 Y27.3501
G1 X60.6716 Y27.5263
G1 X60.5253 Y27.7246
G1 X60.4039 Y27.9181
G1 X60.3064 Y28.131
G1 X60.2258 Y28.3617
G1 X60.173 Y28.5828
G1 X60.1442 Y28.8205
G1 X60.1376 Y29.0639
G1 X60.1538 Y29.2944
G1 X60.1971 Y29.5261
G1 X60.2642 Y29.7576
G1 X60.3533 Y29.9755
G1 X60.4636 Y30.183
G1 X60.5962 Y30.3811
G1 X60.75 Y30.5637
G1 X60.9183 Y30.732
G1 X61.1004 Y30.8741
G1 X61.3034 Y31.0026
G1 X61.5129 Y31.1086
G1 X61.7316 Y31.1884
G1 X61.9696 Y31.2517
G1 X62.2002 Y31.2896
G1 X62.4348 Y31.301
G1 F100.0 Z-2.0
G1 F200.0 X62.6695 Y31.2896
G1 X62.9003 Y31.2516
G1 X63.1387 Y31.1884
G1 X63.357 Y31.1087
G1 X63.5661 Y31.0028
G1 X63.7699 Y30.8737
G1 X63.9525 Y30.7318
G1 X64.1195 Y30.5644
G1 X64.2732 Y30.3815
G1 X64.4061 Y30.183
G1 X64.5166 Y29.975
G1 X64.6059 Y29.7576
G1 X64.6715 Y29.5301
G1 X64.7132 Y29.2943
G1 X64.7321 Y29.059
G1 X64.7264 Y28.8205
G1 X64.697 Y28.5839
G1 X64.6439 Y28.3617
G1 X64.5631 Y28.1305
G1 X64.466 Y27.9176
G1 X64.3452 Y27.7251
G1 X64.1979 Y27.5259
G1 X64.036 Y27.3495
G1 X63.8644 Y27.1969
G1 X63.6699 Y27.0624
G1 X63.4597 Y26.9408
G1 X63.2484 Y26.848
G1 X63.0295 Y26.7807
G1 X62.7879 Y26.7331
G1 X62.5496 Y26.7058
G1 X62.3201
G1 X62.082 Y26.7331
G1 X61.8404 Y26.7808
G1 X61.6194 Y26.848
G1 X61.4113 Y26.9403
G1 X61.2001 Y27.0622
G1 X61.0068 Y27.1964
G1 X60.8341 Y27.3501
G1 X60.6716 Y27.5263
G1 X60.5253 Y27.7246
G1 X60.4039 Y27.9181
G1 X60.3064 Y28.131
G1 X60.2258 Y28.3617
G1 X60.173 Y28.5828
G1 X60.1442 Y28.8205
G1 X60.1376 Y29.0639
G1 X60.1538 Y29.2944
G1 X60.1971 Y29.5261
G1 X60.2642 Y29.7576
G1 X60.3533 Y29.9755
G1 X60.4636 Y30.183
G1 X60.5962 Y30.3811
G1 X60.75 Y30.5637
G1 X60.9183 Y30.732
G1 X61.1004 Y30.8741
G1 X61.3034 Y31.0026
G1 X61.5129 Y31.1086
G1 X61.7316 Y31.1884
G1 X61.9696 Y31.2517
G1 X62.2002 Y31.2896
G1 X62.4348 Y31.301
G1 F100.0 Z-3.0
G1 F200.0 X62.6695 Y31.2896
G1 X62.9003 Y31.2516
G1 X63.1387 Y31.1884
G1 X63.357 Y31.1087
G1 X63.5661 Y31.0028
G1 X63.7699 Y30.8737
G1 X63.9525 Y30.7318
G1 X64.1195 Y30.5644
G1 X64.2732 Y30.3815
G1 X64.4061 Y30.183
G1 X64.5166 Y29.975
G1 X64.6059 Y29.7576
G1 X64.6715 Y29.5301
G1 X64.7132 Y29.2943
G1 X64.7321 Y29.059
G1 X64.7264 Y28.8205
G1 X64.697 Y28.5839
G1 X64.6439 Y28.3617
G1 X64.5631 Y28.1305
G1 X64.466 Y27.9176
G1 X64.3452 Y27.7251
G1 X64.1979 Y27.5259
G1 X64.036 Y27.3495
G1 X63.8644 Y27.1969
G1 X63.6699 Y27.0624
G1 X63.4597 Y26.9408
G1 X63.2484 Y26.848
G1 X63.0295 Y26.7807
G1 X62.7879 Y26.7331
G1 X62.5496 Y26.7058
G1 X62.3201
G1 X62.082 Y26.7331
G1 X61.8404 Y26.7808
G1 X61.6194 Y26.848
G1 X61.4113 Y26.9403
G1 X61.2001 Y27.0622
G1 X61.0068 Y27.1964
G1 X60.8341 Y27.3501
G1 X60.6716 Y27.5263
G1 X60.5253 Y27.7246
G1 X60.4039 Y27.9181
G1 X60.3064 Y28.131
G1 X60.2258 Y28.3617
G1 X60.173 Y28.5828
G1 X60.1442 Y28.8205
G1 X60.1376 Y29.0639
G1 X60.1538 Y29.2944
G1 X60.1971 Y29.5261
G1 X60.2642 Y29.7576
G1 X60.3533 Y29.9755
G1 X60.4636 Y30.183
G1 X60.5962 Y30.3811
G1 X60.75 Y30.5637
G1 X60.9183 Y30.732
G1 X61.1004 Y30.8741
G1 X61.3034 Y31.0026
G1 X61.5129 Y31.1086
G1 X61.7316 Y31.1884
G1 X61.9696 Y31.2517
G1 X62.2002 Y31.2896
G1 X62.4348 Y31.301
G1 F100.0 Z-4.0
G1 F200.0 X62.6695 Y31.2896
G1 X62.9003 Y31.2516
G1 X63.1387 Y31.1884
G1 X63.357 Y31.1087
G1 X63.5661 Y31.0028
G1 X63.7699 Y30.8737
G1 X63.9525 Y30.7318
G1 X64.1195 Y30.5644
G1 X64.2732 Y30.3815
G1 X64.4061 Y30.183
G1 X64.5166 Y29.975
G1 X64.6059 Y29.7576
G1 X64.6715 Y29.5301
G1 X64.7132 Y29.2943
G1 X64.7321 Y29.059
G1 X64.7264 Y28.8205
G1 X64.697 Y28.5839
G1 X64.6439 Y28.3617
G1 X64.5631 Y28.1305
G1 X64.466 Y27.9176
G1 X64.3452 Y27.7251
G1 X64.1979 Y27.5259
G1 X64.036 Y27.3495
G1 X63.8644 Y27.1969
G1 X63.6699 Y27.0624
G1 X63.4597 Y26.9408
G1 X63.2484 Y26.848
G1 X63.0295 Y26.7807
G1 X62.7879 Y26.7331
G1 X62.5496 Y26.7058
G1 X62.3201
G1 X62.082 Y26.7331
G1 X61.8404 Y26.7808
G1 X61.6194 Y26.848
G1 X61.4113 Y26.9403
G1 X61.2001 Y27.0622
G1 X61.0068 Y27.1964
G1 X60.8341 Y27.3501
G1 X60.6716 Y27.5263
G1 X60.5253 Y27.7246
G1 X60.4039 Y27.9181
G1 X60.3064 Y28.131
G1 X60.2258 Y28.3617
G1 X60.173 Y28.5828
G1 X60.1442 Y28.8205
G1 X60.1376 Y29.0639
G1 X60.1538 Y29.2944
G1 X60.1971 Y29.5261
G1 X60.2642 Y29.7576
G1 X60.3533 Y29.9755
G1 X60.4636 Y30.183
G1 X60.5962 Y30.3811
G1 X60.75 Y30.5637
G1 X60.9183 Y30.732
G1 X61.1004 Y30.8741
G1 X61.3034 Y31.0026
G1 X61.5129 Y31.1086
G1 X61.7316 Y31.1884
G1 X61.9696 Y31.2517
G1 X62.2002 Y31.2896
G1 X62.4348 Y31.301
G1 F100.0 Z-5.0
G1 F200.0 X62.6695 Y31.2896
G1 X62.9003 Y31.2516
G1 X63.1387 Y31.1884
G1 X63.357 Y31.1087
G1 X63.5661 Y31.0028
G1 X63.7699 Y30.8737
G1 X63.9525 Y30.7318
G1 X64.1195 Y30.5644
G1 X64.2732 Y30.3815
G1 X64.4061 Y30.183
G1 X64.5166 Y29.975
G1 X64.6059 Y29.7576
G1 X64.6715 Y29.5301
G1 X64.7132 Y29.2943
G1 X64.7321 Y29.059
G1 X64.7264 Y28.8205
G1 X64.697 Y28.5839
G1 X64.6439 Y28.3617
G1 X64.5631 Y28.1305
G1 X64.466 Y27.9176
G1 X64.3452 Y27.7251
G1 X64.1979 Y27.5259
G1 X64.036 Y27.3495
G1 X63.8644 Y27.1969
G1 X63.6699 Y27.0624
G1 X63.4597 Y26.9408
G1 X63.2484 Y26.848
G1 X63.0295 Y26.7807
G1 X62.7879 Y26.7331
G1 X62.5496 Y26.7058
G1 X62.3201
G1 X62.082 Y26.7331
G1 X61.8404 Y26.7808
G1 X61.6194 Y26.848
G1 X61.4113 Y26.9403
G1 X61.2001 Y27.0622
G1 X61.0068 Y27.1964
G1 X60.8341 Y27.3501
G1 X60.6716 Y27.5263
G1 X60.5253 Y27.7246
G1 X60.4039 Y27.9181
G1 X60.3064 Y28.131
G1 X60.2258 Y28.3617
G1 X60.173 Y28.5828
G1 X60.1442 Y28.8205
G1 X60.1376 Y29.0639
G1 X60.1538 Y29.2944
G1 X60.1971 Y29.5261
G1 X60.2642 Y29.7576
G1 X60.3533 Y29.9755
G1 X60.4636 Y30.183
G1 X60.5962 Y30.3811
G1 X60.75 Y30.5637
G1 X60.9183 Y30.732
G1 X61.1004 Y30.8741
G1 X61.3034 Y31.0026
G1 X61.5129 Y31.1086
G1 X61.7316 Y31.1884
G1 X61.9696 Y31.2517
G1 X62.2002 Y31.2896
G1 X62.4348 Y31.301
G1 F100.0 Z-6.0
G1 F200.0 X62.6695 Y31.2896
G1 X62.9003 Y31.2516
G1 X63.1387 Y31.1884
G1 X63.357 Y31.1087
G1 X63.5661 Y31.0028
G1 X63.7699 Y30.8737
G1 X63.9525 Y30.7318
G1 X64.1195 Y30.5644
G1 X64.2732 Y30.3815
G1 X64.4061 Y30.183
G1 X64.5166 Y29.975
G1 X64.6059 Y29.7576
G1 X64.6715 Y29.5301
G1 X64.7132 Y29.2943
G1 X64.7321 Y29.059
G1 X64.7264 Y28.8205
G1 X64.697 Y28.5839
G1 X64.6439 Y28.3617
G1 X64.5631 Y28.1305
G1 X64.466 Y27.9176
G1 X64.3452 Y27.7251
G1 X64.1979 Y27.5259
G1 X64.036 Y27.3495
G1 X63.8644 Y27.1969
G1 X63.6699 Y27.0624
G1 X63.4597 Y26.9408
G1 X63.2484 Y26.848
G1 X63.0295 Y26.7807
G1 X62.7879 Y26.7331
G1 X62.5496 Y26.7058
G1 X62.3201
G1 X62.082 Y26.7331
G1 X61.8404 Y26.7808
G1 X61.6194 Y26.848
G1 X61.4113 Y26.9403
G1 X61.2001 Y27.0622
G1 X61.0068 Y27.1964
G1 X60.8341 Y27.3501
G1 X60.6716 Y27.5263
G1 X60.5253 Y27.7246
G1 X60.4039 Y27.9181
G1 X60.3064 Y28.131
G1 X60.2258 Y28.3617
G1 X60.173 Y28.5828
G1 X60.1442 Y28.8205
G1 X60.1376 Y29.0639
G1 X60.1538 Y29.2944
G1 X60.1971 Y29.5261
G1 X60.2642 Y29.7576
G1 X60.3533 Y29.9755
G1 X60.4636 Y30.183
G1 X60.5962 Y30.3811
G1 X60.75 Y30.5637
G1 X60.9183 Y30.732
G1 X61.1004 Y30.8741
G1 X61.3034 Y31.0026
G1 X61.5129 Y31.1086
G1 X61.7316 Y31.1884
G1 X61.9696 Y31.2517
G1 X62.2002 Y31.2896
G1 X62.4348 Y31.301
G1 F100.0 Z-7.0
G1 F200.0 X62.6695 Y31.2896
G1 X62.9003 Y31.2516
G1 X63.1387 Y31.1884
G1 X63.357 Y31.1087
G1 X63.5661 Y31.0028
G1 X63.7699 Y30.8737
G1 X63.9525 Y30.7318
G1 X64.1195 Y30.5644
G1 X64.2732 Y30.3815
G1 X64.4061 Y30.183
G1 X64.5166 Y29.975
G1 X64.6059 Y29.7576
G1 X64.6715 Y29.5301
G1 X64.7132 Y29.2943
G1 X64.7321 Y29.059
G1 X64.7264 Y28.8205
G1 X64.697 Y28.5839
G1 X64.6439 Y28.3617
G1 X64.5631 Y28.1305
G1 X64.466 Y27.9176
G1 X64.3452 Y27.7251
G1 X64.1979 Y27.5259
G1 X64.036 Y27.3495
G1 X63.8644 Y27.1969
G1 X63.6699 Y27.0624
G1 X63.4597 Y26.9408
G1 X63.2484 Y26.848
G1 X63.0295 Y26.7807
G1 X62.7879 Y26.7331
G1 X62.5496 Y26.7058
G1 X62.3201
G1 X62.082 Y26.7331
G1 X61.8404 Y26.7808
G1 X61.6194 Y26.848
G1 X61.4113 Y26.9403
G1 X61.2001 Y27.0622
G1 X61.0068 Y27.1964
G1 X60.8341 Y27.3501
G1 X60.6716 Y27.5263
G1 X60.5253 Y27.7246
G1 X60.4039 Y27.9181
G1 X60.3064 Y28.131
G1 X60.2258 Y28.3617
G1 X60.173 Y28.5828
G1 X60.1442 Y28.8205
G1 X60.1376 Y29.0639
G1 X60.1538 Y29.2944
G1 X60.1971 Y29.5261
G1 X60.2642 Y29.7576
G1 X60.3533 Y29.9755
G1 X60.4636 Y30.183
G1 X60.5962 Y30.3811
G1 X60.75 Y30.5637
G1 X60.9183 Y30.732
G1 X61.1004 Y30.8741
G1 X61.3034 Y31.0026
G1 X61.5129 Y31.1086
G1 X61.7316 Y31.1884
G1 X61.9696 Y31.2517
G1 X62.2002 Y31.2896
G1 X62.4348 Y31.301
G1 F100.0 Z-8.0
G1 F200.0 X62.6695 Y31.2896
G1 X62.9003 Y31.2516
G1 X63.1387 Y31.1884
G1 X63.357 Y31.1087
G1 X63.5661 Y31.0028
G1 X63.7699 Y30.8737
G1 X63.9525 Y30.7318
G1 X64.1195 Y30.5644
G1 X64.2732 Y30.3815
G1 X64.4061 Y30.183
G1 X64.5166 Y29.975
G1 X64.6059 Y29.7576
G1 X64.6715 Y29.5301
G1 X64.7132 Y29.2943
G1 X64.7321 Y29.059
G1 X64.7264 Y28.8205
G1 X64.697 Y28.5839
G1 X64.6439 Y28.3617
G1 X64.5631 Y28.1305
G1 X64.466 Y27.9176
G1 X64.3452 Y27.7251
G1 X64.1979 Y27.5259
G1 X64.036 Y27.3495
G1 X63.8644 Y27.1969
G1 X63.6699 Y27.0624
G1 X63.4597 Y26.9408
G1 X63.2484 Y26.848
G1 X63.0295 Y26.7807
G1 X62.7879 Y26.7331
G1 X62.5496 Y26.7058
G1 X62.3201
G1 X62.082 Y26.7331
G1 X61.8404 Y26.7808
G1 X61.6194 Y26.848
G1 X61.4113 Y26.9403
G1 X61.2001 Y27.0622
G1 X61.0068 Y27.1964
G1 X60.8341 Y27.3501
G1 X60.6716 Y27.5263
G1 X60.5253 Y27.7246
G1 X60.4039 Y27.9181
G1 X60.3064 Y28.131
G1 X60.2258 Y28.3617
G1 X60.173 Y28.5828
G1 X60.1442 Y28.8205
G1 X60.1376 Y29.0639
G1 X60.1538 Y29.2944
G1 X60.1971 Y29.5261
G1 X60.2642 Y29.7576
G1 X60.3533 Y29.9755
G1 X60.4636 Y30.183
G1 X60.5962 Y30.3811
G1 X60.75 Y30.5637
G1 X60.9183 Y30.732
G1 X61.1004 Y30.8741
G1 X61.3034 Y31.0026
G1 X61.5129 Y31.1086
G1 X61.7316 Y31.1884
G1 X61.9696 Y31.2517
G1 X62.2002 Y31.2896
G1 X62.4348 Y31.301
G1 F100.0 Z-9.0
G1 F200.0 X62.6695 Y31.2896
G1 X62.9003 Y31.2516
G1 X63.1387 Y31.1884
G1 X63.357 Y31.1087
G1 X63.5661 Y31.0028
G1 X63.7699 Y30.8737
G1 X63.9525 Y30.7318
G1 X64.1195 Y30.5644
G1 X64.2732 Y30.3815
G1 X64.4061 Y30.183
G1 X64.5166 Y29.975
G1 X64.6059 Y29.7576
G1 X64.6715 Y29.5301
G1 X64.7132 Y29.2943
G1 X64.7321 Y29.059
G1 X64.7264 Y28.8205
G1 X64.697 Y28.5839
G1 X64.6439 Y28.3617
G1 X64.5631 Y28.1305
G1 X64.466 Y27.9176
G1 X64.3452 Y27.7251
G1 X64.1979 Y27.5259
G1 X64.036 Y27.3495
G1 X63.8644 Y27.1969
G1 X63.6699 Y27.0624
G1 X63.4597 Y26.9408
G1 X63.2484 Y26.848
G1 X63.0295 Y26.7807
G1 X62.7879 Y26.7331
G1 X62.5496 Y26.7058
G1 X62.3201
G1 X62.082 Y26.7331
G1 X61.8404 Y26.7808
G1 X61.6194 Y26.848
G1 X61.4113 Y26.9403
G1 X61.2001 Y27.0622
G1 X61.0068 Y27.1964
G1 X60.8341 Y27.3501
G1 X60.6716 Y27.5263
G1 X60.5253 Y27.7246
G1 X60.4039 Y27.9181
G1 X60.3064 Y28.131
G1 X60.2258 Y28.3617
G1 X60.173 Y28.5828
G1 X60.1442 Y28.8205
G1 X60.1376 Y29.0639
G1 X60.1538 Y29.2944
G1 X60.1971 Y29.5261
G1 X60.2642 Y29.7576
G1 X60.3533 Y29.9755
G1 X60.4636 Y30.183
G1 X60.5962 Y30.3811
G1 X60.75 Y30.5637
G1 X60.9183 Y30.732
G1 X61.1004 Y30.8741
G1 X61.3034 Y31.0026
G1 X61.5129 Y31.1086
G1 X61.7316 Y31.1884
G1 X61.9696 Y31.2517
G1 X62.2002 Y31.2896
G1 X62.4348 Y31.301
G1 F100.0 Z-10.0
G1 F200.0 X62.6695 Y31.2896
G1 X62.9003 Y31.2516
G1 X63.1387 Y31.1884
G1 X63.357 Y31.1087
G1 X63.5661 Y31.0028
G1 X63.7699 Y30.8737
G1 X63.9525 Y30.7318
G1 X64.1195 Y30.5644
G1 X64.2732 Y30.3815
G1 X64.4061 Y30.183
G1 X64.5166 Y29.975
G1 X64.6059 Y29.7576
G1 X64.6715 Y29.5301
G1 X64.7132 Y29.2943
G1 X64.7321 Y29.059
G1 X64.7264 Y28.8205
G1 X64.697 Y28.5839
G1 X64.6439 Y28.3617
G1 X64.5631 Y28.1305
G1 X64.466 Y27.9176
G1 X64.3452 Y27.7251
G1 X64.1979 Y27.5259
G1 X64.036 Y27.3495
G1 X63.8644 Y27.1969
G1 X63.6699 Y27.0624
G1 X63.4597 Y26.9408
G1 X63.2484 Y26.848
G1 X63.0295 Y26.7807
G1 X62.7879 Y26.7331
G1 X62.5496 Y26.7058
G1 X62.3201
G1 X62.082 Y26.7331
G1 X61.8404 Y26.7808
G1 X61.6194 Y26.848
G1 X61.4113 Y26.9403
G1 X61.2001 Y27.0622
G1 X61.0068 Y27.1964
G1 X60.8341 Y27.3501
G1 X60.6716 Y27.5263
G1 X60.5253 Y27.7246
G1 X60.4039 Y27.9181
G1 X60.3064 Y28.131
G1 X60.2258 Y28.3617
G1 X60.173 Y28.5828
G1 X60.1442 Y28.8205
G1 X60.1376 Y29.0639
G1 X60.1538 Y29.2944
G1 X60.1971 Y29.5261
G1 X60.2642 Y29.7576
G1 X60.3533 Y29.9755
G1 X60.4636 Y30.183
G1 X60.5962 Y30.3811
G1 X60.75 Y30.5637
G1 X60.9183 Y30.732
G1 X61.1004 Y30.8741
G1 X61.3034 Y31.0026
G1 X61.5129 Y31.1086
G1 X61.7316 Y31.1884
G1 X61.9696 Y31.2517
G1 X62.2002 Y31.2896
G1 X62.4348 Y31.301
G0 Z3.0
G0 X146.8113 Y29.0597
G0 Z1.0
G1 F100.0 Z-1.0
G1 F200.0 X146.8298 Y29.2943
G1 X146.8718 Y29.5295
G1 X146.9376 Y29.7576
G1 X147.0256 Y29.972
G1 X147.1403 Y30.1834
G1 X147.2717 Y30.3838
G1 X147.4219 Y30.5621
G1 X147.5936 Y30.7318
G1 X147.7754 Y30.8749
G1 X147.9774 Y31.0028
G1 X148.1855 Y31.1082
G1 X148.4072 Y31.1884
G1 X148.6432 Y31.2517
G1 X148.8755 Y31.2896
G1 X149.111 Y31.301
G1 X149.3437 Y31.2896
G1 X149.5764 Y31.2517
G1 X149.8115 Y31.1885
G1 X150.0342 Y31.108
G1 X150.2426 Y31.0026
G1 X150.444 Y30.8751
G1 X150.6258 Y30.7318
G1 X150.7981 Y30.5618
G1 X150.9481 Y30.3838
G1 X151.0795 Y30.1834
G1 X151.1942 Y29.972
G1 X151.2822 Y29.7576
G1 X151.348 Y29.5295
G1 X151.39 Y29.2943
G1 X151.4084 Y29.0603
G1 X151.4023 Y28.8235
G1 X151.3714 Y28.5869
G1 X151.3165 Y28.359
G1 X151.2391 Y28.1305
G1 X151.1397 Y27.9175
G1 X151.0209 Y27.7245
G1 X150.8722 Y27.5263
G1 X150.7121 Y27.3501
G1 X150.5373 Y27.1967
G1 X150.3458 Y27.0623
G1 X150.1331 Y26.9409
G1 X149.9238 Y26.848
G1 X149.7024 Y26.7806
G1 X149.4639 Y26.733
G1 X149.2255 Y26.7058
G1 X148.9965
G1 X148.7554 Y26.7331
G1 X148.5168 Y26.7807
G1 X148.2952 Y26.848
G1 X148.0871 Y26.9403
G1 X147.876 Y27.0622
G1 X147.6806 Y27.1978
G1 X147.5072 Y27.3501
G1 X147.3474 Y27.5259
G1 X147.1988 Y27.7246
G1 X147.0796 Y27.9175
G1 X146.9804 Y28.131
G1 X146.9023 Y28.359
G1 X146.8484 Y28.5862
G1 X146.817 Y28.8235
G1 X146.8113 Y29.0597
G1 F100.0 Z-2.0
G1 F200.0 X146.8298 Y29.2943
G1 X146.8718 Y29.5295
G1 X146.9376 Y29.7576
G1 X147.0256 Y29.972
G1 X147.1403 Y30.1834
G1 X147.2717 Y30.3838
G1 X147.4219 Y30.5621
G1 X147.5936 Y30.7318
G1 X147.7754 Y30.8749
G1 X147.9774 Y31.0028
G1 X148.1855 Y31.1082
G1 X148.4072 Y31.1884
G1 X148.6432 Y31.2517
G1 X148.8755 Y31.2896
G1 X149.111 Y31.301
G1 X149.3437 Y31.2896
G1 X149.5764 Y31.2517
G1 X149.8115 Y31.1885
G1 X150.0342 Y31.108
G1 X150.2426 Y31.0026
G1 X150.444 Y30.8751
G1 X150.6258 Y30.7318
G1 X150.7981 Y30.5618
G1 X150.9481 Y30.3838
G1 X151.0795 Y30.1834
G1 X151.1942 Y29.972
G1 X151.2822 Y29.7576
G1 X151.348 Y29.5295
G1 X151.39 Y29.2943
G1 X151.4084 Y29.0603
G1 X151.4023 Y28.8235
G1 X151.3714 Y28.5869
G1 X151.3165 Y28.359
G1 X151.2391 Y28.1305
G1 X151.1397 Y27.9175
G1 X151.0209 Y27.7245
G1 X150.8722 Y27.5263
G1 X150.7121 Y27.3501
G1 X150.5373 Y27.1967
G1 X150.3458 Y27.0623
G1 X150.1331 Y26.9409
G1 X149.9238 Y26.848
G1 X149.7024 Y26.7806
G1 X149.4639 Y26.733
G1 X149.2255 Y26.7058
G1 X148.9965
G1 X148.7554 Y26.7331
G1 X148.5168 Y26.7807
G1 X148.2952 Y26.848
G1 X148.0871 Y26.9403
G1 X147.876 Y27.0622
G1 X147.6806 Y27.1978
G1 X147.5072 Y27.3501
G1 X147.3474 Y27.5259
G1 X147.1988 Y27.7246
G1 X147.0796 Y27.9175
G1 X146.9804 Y28.131
G1 X146.9023 Y28.359
G1 X146.8484 Y28.5862
G1 X146.817 Y28.8235
G1 X146.8113 Y29.0597
G1 F100.0 Z-3.0
G1 F200.0 X146.8298 Y29.2943
G1 X146.8718 Y29.5295
G1 X146.9376 Y29.7576
G1 X147.0256 Y29.972
G1 X147.1403 Y30.1834
G1 X147.2717 Y30.3838
G1 X147.4219 Y30.5621
G1 X147.5936 Y30.7318
G1 X147.7754 Y30.8749
G1 X147.9774 Y31.0028
G1 X148.1855 Y31.1082
G1 X148.4072 Y31.1884
G1 X148.6432 Y31.2517
G1 X148.8755 Y31.2896
G1 X149.111 Y31.301
G1 X149.3437 Y31.2896
G1 X149.5764 Y31.2517
G1 X149.8115 Y31.1885
G1 X150.0342 Y31.108
G1 X150.2426 Y31.0026
G1 X150.444 Y30.8751
G1 X150.6258 Y30.7318
G1 X150.7981 Y30.5618
G1 X150.9481 Y30.3838
G1 X151.0795 Y30.1834
G1 X151.1942 Y29.972
G1 X151.2822 Y29.7576
G1 X151.348 Y29.5295
G1 X151.39 Y29.2943
G1 X151.4084 Y29.0603
G1 X151.4023 Y28.8235
G1 X151.3714 Y28.5869
G1 X151.3165 Y28.359
G1 X151.2391 Y28.1305
G1 X151.1397 Y27.9175
G1 X151.0209 Y27.7245
G1 X150.8722 Y27.5263
G1 X150.7121 Y27.3501
G1 X150.5373 Y27.1967
G1 X150.3458 Y27.0623
G1 X150.1331 Y26.9409
G1 X149.9238 Y26.848
G1 X149.7024 Y26.7806
G1 X149.4639 Y26.733
G1 X149.2255 Y26.7058
G1 X148.9965
G1 X148.7554 Y26.7331
G1 X148.5168 Y26.7807
G1 X148.2952 Y26.848
G1 X148.0871 Y26.9403
G1 X147.876 Y27.0622
G1 X147.6806 Y27.1978
G1 X147.5072 Y27.3501
G1 X147.3474 Y27.5259
G1 X147.1988 Y27.7246
G1 X147.0796 Y27.9175
G1 X146.9804 Y28.131
G1 X146.9023 Y28.359
G1 X146.8484 Y28.5862
G1 X146.817 Y28.8235
G1 X146.8113 Y29.0597
G1 F100.0 Z-4.0
G1 F200.0 X146.8298 Y29.2943
G1 X146.8718 Y29.5295
G1 X146.9376 Y29.7576
G1 X147.0256 Y29.972
G1 X147.1403 Y30.1834
G1 X147.2717 Y30.3838
G1 X147.4219 Y30.5621
G1 X147.5936 Y30.7318
G1 X147.7754 Y30.8749
G1 X147.9774 Y31.0028
G1 X148.1855 Y31.1082
G1 X148.4072 Y31.1884
G1 X148.6432 Y31.2517
G1 X148.8755 Y31.2896
G1 X149.111 Y31.301
G1 X149.3437 Y31.2896
G1 X149.5764 Y31.2517
G1 X149.8115 Y31.1885
G1 X150.0342 Y31.108
G1 X150.2426 Y31.0026
G1 X150.444 Y30.8751
G1 X150.6258 Y30.7318
G1 X150.7981 Y30.5618
G1 X150.9481 Y30.3838
G1 X151.0795 Y30.1834
G1 X151.1942 Y29.972
G1 X151.2822 Y29.7576
G1 X151.348 Y29.5295
G1 X151.39 Y29.2943
G1 X151.4084 Y29.0603
G1 X151.4023 Y28.8235
G1 X151.3714 Y28.5869
G1 X151.3165 Y28.359
G1 X151.2391 Y28.1305
G1 X151.1397 Y27.9175
G1 X151.0209 Y27.7245
G1 X150.8722 Y27.5263
G1 X150.7121 Y27.3501
G1 X150.5373 Y27.1967
G1 X150.3458 Y27.0623
G1 X150.1331 Y26.9409
G1 X149.9238 Y26.848
G1 X149.7024 Y26.7806
G1 X149.4639 Y26.733
G1 X149.2255 Y26.7058
G1 X148.9965
G1 X148.7554 Y26.7331
G1 X148.5168 Y26.7807
G1 X148.2952 Y26.848
G1 X148.0871 Y26.9403
G1 X147.876 Y27.0622
G1 X147.6806 Y27.1978
G1 X147.5072 Y27.3501
G1 X147.3474 Y27.5259
G1 X147.1988 Y27.7246
G1 X147.0796 Y27.9175
G1 X146.9804 Y28.131
G1 X146.9023 Y28.359
G1 X146.8484 Y28.5862
G1 X146.817 Y28.8235
G1 X146.8113 Y29.0597
G1 F100.0 Z-5.0
G1 F200.0 X146.8298 Y29.2943
G1 X146.8718 Y29.5295
G1 X146.9376 Y29.7576
G1 X147.0256 Y29.972
G1 X147.1403 Y30.1834
G1 X147.2717 Y30.3838
G1 X147.4219 Y30.5621
G1 X147.5936 Y30.7318
G1 X147.7754 Y30.8749
G1 X147.9774 Y31.0028
G1 X148.1855 Y31.1082
G1 X148.4072 Y31.1884
G1 X148.6432 Y31.2517
G1 X148.8755 Y31.2896
G1 X149.111 Y31.301
G1 X149.3437 Y31.2896
G1 X149.5764 Y31.2517
G1 X149.8115 Y31.1885
G1 X150.0342 Y31.108
G1 X150.2426 Y31.0026
G1 X150.444 Y30.8751
G1 X150.6258 Y30.7318
G1 X150.7981 Y30.5618
G1 X150.9481 Y30.3838
G1 X151.0795 Y30.1834
G1 X151.1942 Y29.972
G1 X151.2822 Y29.7576
G1 X151.348 Y29.5295
G1 X151.39 Y29.2943
G1 X151.4084 Y29.0603
G1 X151.4023 Y28.8235
G1 X151.3714 Y28.5869
G1 X151.3165 Y28.359
G1 X151.2391 Y28.1305
G1 X151.1397 Y27.9175
G1 X151.0209 Y27.7245
G1 X150.8722 Y27.5263
G1 X150.7121 Y27.3501
G1 X150.5373 Y27.1967
G1 X150.3458 Y27.0623
G1 X150.1331 Y26.9409
G1 X149.9238 Y26.848
G1 X149.7024 Y26.7806
G1 X149.4639 Y26.733
G1 X149.2255 Y26.7058
G1 X148.9965
G1 X148.7554 Y26.7331
G1 X148.5168 Y26.7807
G1 X148.2952 Y26.848
G1 X148.0871 Y26.9403
G1 X147.876 Y27.0622
G1 X147.6806 Y27.1978
G1 X147.5072 Y27.3501
G1 X147.3474 Y27.5259
G1 X147.1988 Y27.7246
G1 X147.0796 Y27.9175
G1 X146.9804 Y28.131
G1 X146.9023 Y28.359
G1 X146.8484 Y28.5862
G1 X146.817 Y28.8235
G1 X146.8113 Y29.0597
G1 F100.0 Z-6.0
G1 F200.0 X146.8298 Y29.2943
G1 X146.8718 Y29.5295
G1 X146.9376 Y29.7576
G1 X147.0256 Y29.972
G1 X147.1403 Y30.1834
G1 X147.2717 Y30.3838
G1 X147.4219 Y30.5621
G1 X147.5936 Y30.7318
G1 X147.7754 Y30.8749
G1 X147.9774 Y31.0028
G1 X148.1855 Y31.1082
G1 X148.4072 Y31.1884
G1 X148.6432 Y31.2517
G1 X148.8755 Y31.2896
G1 X149.111 Y31.301
G1 X149.3437 Y31.2896
G1 X149.5764 Y31.2517
G1 X149.8115 Y31.1885
G1 X150.0342 Y31.108
G1 X150.2426 Y31.0026
G1 X150.444 Y30.8751
G1 X150.6258 Y30.7318
G1 X150.7981 Y30.5618
G1 X150.9481 Y30.3838
G1 X151.0795 Y30.1834
G1 X151.1942 Y29.972
G1 X151.2822 Y29.7576
G1 X151.348 Y29.5295
G1 X151.39 Y29.2943
G1 X151.4084 Y29.0603
G1 X151.4023 Y28.8235
G1 X151.3714 Y28.5869
G1 X151.3165 Y28.359
G1 X151.2391 Y28.1305
G1 X151.1397 Y27.9175
G1 X151.0209 Y27.7245
G1 X150.8722 Y27.5263
G1 X150.7121 Y27.3501
G1 X150.5373 Y27.1967
G1 X150.3458 Y27.0623
G1 X150.1331 Y26.9409
G1 X149.9238 Y26.848
G1 X149.7024 Y26.7806
G1 X149.4639 Y26.733
G1 X149.2255 Y26.7058
G1 X148.9965
G1 X148.7554 Y26.7331
G1 X148.5168 Y26.7807
G1 X148.2952 Y26.848
G1 X148.0871 Y26.9403
G1 X147.876 Y27.0622
G1 X147.6806 Y27.1978
G1 X147.5072 Y27.3501
G1 X147.3474 Y27.5259
G1 X147.1988 Y27.7246
G1 X147.0796 Y27.9175
G1 X146.9804 Y28.131
G1 X146.9023 Y28.359
G1 X146.8484 Y28.5862
G1 X146.817 Y28.8235
G1 X146.8113 Y29.0597
G1 F100.0 Z-7.0
G1 F200.0 X146.8298 Y29.2943
G1 X146.8718 Y29.5295
G1 X146.9376 Y29.7576
G1 X147.0256 Y29.972
G1 X147.1403 Y30.1834
G1 X147.2717 Y30.3838
G1 X147.4219 Y30.5621
G1 X147.5936 Y30.7318
G1 X147.7754 Y30.8749
G1 X147.9774 Y31.0028
G1 X148.1855 Y31.1082
G1 X148.4072 Y31.1884
G1 X148.6432 Y31.2517
G1 X148.8755 Y31.2896
G1 X149.111 Y31.301
G1 X149.3437 Y31.2896
G1 X149.5764 Y31.2517
G1 X149.8115 Y31.1885
G1 X150.0342 Y31.108
G1 X150.2426 Y31.0026
G1 X150.444 Y30.8751
G1 X150.6258 Y30.7318
G1 X150.7981 Y30.5618
G1 X150.9481 Y30.3838
G1 X151.0795 Y30.1834
G1 X151.1942 Y29.972
G1 X151.2822 Y29.7576
G1 X151.348 Y29.5295
G1 X151.39 Y29.2943
G1 X151.4084 Y29.0603
G1 X151.4023 Y28.8235
G1 X151.3714 Y28.5869
G1 X151.3165 Y28.359
G1 X151.2391 Y28.1305
G1 X151.1397 Y27.9175
G1 X151.0209 Y27.7245
G1 X150.8722 Y27.5263
G1 X150.7121 Y27.3501
G1 X150.5373 Y27.1967
G1 X150.3458 Y27.0623
G1 X150.1331 Y26.9409
G1 X149.9238 Y26.848
G1 X149.7024 Y26.7806
G1 X149.4639 Y26.733
G1 X149.2255 Y26.7058
G1 X148.9965
G1 X148.7554 Y26.7331
G1 X148.5168 Y26.7807
G1 X148.2952 Y26.848
G1 X148.0871 Y26.9403
G1 X147.876 Y27.0622
G1 X147.6806 Y27.1978
G1 X147.5072 Y27.3501
G1 X147.3474 Y27.5259
G1 X147.1988 Y27.7246
G1 X147.0796 Y27.9175
G1 X146.9804 Y28.131
G1 X146.9023 Y28.359
G1 X146.8484 Y28.5862
G1 X146.817 Y28.8235
G1 X146.8113 Y29.0597
G1 F100.0 Z-8.0
G1 F200.0 X146.8298 Y29.2943
G1 X146.8718 Y29.5295
G1 X146.9376 Y29.7576
G1 X147.0256 Y29.972
G1 X147.1403 Y30.1834
G1 X147.2717 Y30.3838
G1 X147.4219 Y30.5621
G1 X147.5936 Y30.7318
G1 X147.7754 Y30.8749
G1 X147.9774 Y31.0028
G1 X148.1855 Y31.1082
G1 X148.4072 Y31.1884
G1 X148.6432 Y31.2517
G1 X148.8755 Y31.2896
G1 X149.111 Y31.301
G1 X149.3437 Y31.2896
G1 X149.5764 Y31.2517
G1 X149.8115 Y31.1885
G1 X150.0342 Y31.108
G1 X150.2426 Y31.0026
G1 X150.444 Y30.8751
G1 X150.6258 Y30.7318
G1 X150.7981 Y30.5618
G1 X150.9481 Y30.3838
G1 X151.0795 Y30.1834
G1 X151.1942 Y29.972
G1 X151.2822 Y29.7576
G1 X151.348 Y29.5295
G1 X151.39 Y29.2943
G1 X151.4084 Y29.0603
G1 X151.4023 Y28.8235
G1 X151.3714 Y28.5869
G1 X151.3165 Y28.359
G1 X151.2391 Y28.1305
G1 X151.1397 Y27.9175
G1 X151.0209 Y27.7245
G1 X150.8722 Y27.5263
G1 X150.7121 Y27.3501
G1 X150.5373 Y27.1967
G1 X150.3458 Y27.0623
G1 X150.1331 Y26.9409
G1 X149.9238 Y26.848
G1 X149.7024 Y26.7806
G1 X149.4639 Y26.733
G1 X149.2255 Y26.7058
G1 X148.9965
G1 X148.7554 Y26.7331
G1 X148.5168 Y26.7807
G1 X148.2952 Y26.848
G1 X148.0871 Y26.9403
G1 X147.876 Y27.0622
G1 X147.6806 Y27.1978
G1 X147.5072 Y27.3501
G1 X147.3474 Y27.5259
G1 X147.1988 Y27.7246
G1 X147.0796 Y27.9175
G1 X146.9804 Y28.131
G1 X146.9023 Y28.359
G1 X146.8484 Y28.5862
G1 X146.817 Y28.8235
G1 X146.8113 Y29.0597
G1 F100.0 Z-9.0
G1 F200.0 X146.8298 Y29.2943
G1 X146.8718 Y29.5295
G1 X146.9376 Y29.7576
G1 X147.0256 Y29.972
G1 X147.1403 Y30.1834
G1 X147.2717 Y30.3838
G1 X147.4219 Y30.5621
G1 X147.5936 Y30.7318
G1 X147.7754 Y30.8749
G1 X147.9774 Y31.0028
G1 X148.1855 Y31.1082
G1 X148.4072 Y31.1884
G1 X148.6432 Y31.2517
G1 X148.8755 Y31.2896
G1 X149.111 Y31.301
G1 X149.3437 Y31.2896
G1 X149.5764 Y31.2517
G1 X149.8115 Y31.1885
G1 X150.0342 Y31.108
G1 X150.2426 Y31.0026
G1 X150.444 Y30.8751
G1 X150.6258 Y30.7318
G1 X150.7981 Y30.5618
G1 X150.9481 Y30.3838
G1 X151.0795 Y30.1834
G1 X151.1942 Y29.972
G1 X151.2822 Y29.7576
G1 X151.348 Y29.5295
G1 X151.39 Y29.2943
G1 X151.4084 Y29.0603
G1 X151.4023 Y28.8235
G1 X151.3714 Y28.5869
G1 X151.3165 Y28.359
G1 X151.2391 Y28.1305
G1 X151.1397 Y27.9175
G1 X151.0209 Y27.7245
G1 X150.8722 Y27.5263
G1 X150.7121 Y27.3501
G1 X150.5373 Y27.1967
G1 X150.3458 Y27.0623
G1 X150.1331 Y26.9409
G1 X149.9238 Y26.848
G1 X149.7024 Y26.7806
G1 X149.4639 Y26.733
G1 X149.2255 Y26.7058
G1 X148.9965
G1 X148.7554 Y26.7331
G1 X148.5168 Y26.7807
G1 X148.2952 Y26.848
G1 X148.0871 Y26.9403
G1 X147.876 Y27.0622
G1 X147.6806 Y27.1978
G1 X147.5072 Y27.3501
G1 X147.3474 Y27.5259
G1 X147.1988 Y27.7246
G1 X147.0796 Y27.9175
G1 X146.9804 Y28.131
G1 X146.9023 Y28.359
G1 X146.8484 Y28.5862
G1 X146.817 Y28.8235
G1 X146.8113 Y29.0597
G1 F100.0 Z-10.0
G1 F200.0 X146.8298 Y29.2943
G1 X146.8718 Y29.5295
G1 X146.9376 Y29.7576
G1 X147.0256 Y29.972
G1 X147.1403 Y30.1834
G1 X147.2717 Y30.3838
G1 X147.4219 Y30.5621
G1 X147.5936 Y30.7318
G1 X147.7754 Y30.8749
G1 X147.9774 Y31.0028
G1 X148.1855 Y31.1082
G1 X148.4072 Y31.1884
G1 X148.6432 Y31.2517
G1 X148.8755 Y31.2896
G1 X149.111 Y31.301
G1 X149.3437 Y31.2896
G1 X149.5764 Y31.2517
G1 X149.8115 Y31.1885
G1 X150.0342 Y31.108
G1 X150.2426 Y31.0026
G1 X150.444 Y30.8751
G1 X150.6258 Y30.7318
G1 X150.7981 Y30.5618
G1 X150.9481 Y30.3838
G1 X151.0795 Y30.1834
G1 X151.1942 Y29.972
G1 X151.2822 Y29.7576
G1 X151.348 Y29.5295
G1 X151.39 Y29.2943
G1 X151.4084 Y29.0603
G1 X151.4023 Y28.8235
G1 X151.3714 Y28.5869
G1 X151.3165 Y28.359
G1 X151.2391 Y28.1305
G1 X151.1397 Y27.9175
G1 X151.0209 Y27.7245
G1 X150.8722 Y27.5263
G1 X150.7121 Y27.3501
G1 X150.5373 Y27.1967
G1 X150.3458 Y27.0623
G1 X150.1331 Y26.9409
G1 X149.9238 Y26.848
G1 X149.7024 Y26.7806
G1 X149.4639 Y26.733
G1 X149.2255 Y26.7058
G1 X148.9965
G1 X148.7554 Y26.7331
G1 X148.5168 Y26.7807
G1 X148.2952 Y26.848
G1 X148.0871 Y26.9403
G1 X147.876 Y27.0622
G1 X147.6806 Y27.1978
G1 X147.5072 Y27.3501
G1 X147.3474 Y27.5259
G1 X147.1988 Y27.7246
G1 X147.0796 Y27.9175
G1 X146.9804 Y28.131
G1 X146.9023 Y28.359
G1 X146.8484 Y28.5862
G1 X146.817 Y28.8235
G1 X146.8113 Y29.0597
( Profile3 )
S1000
G0 Z3.0
G0 X192.2366 Y4.5303
G0 Z1.0
G1 F100.0 Z-1.0
G1 F200.0 X167.4138 Y29.3531
G1 X191.533 Y53.4723
G3 X191.0026 Y54.7526 I-0.5303 J0.5303
G1 X7.7036
G3 X7.1733 Y53.4723 I0.0 J-0.75
G1 X31.2925 Y29.3531
G1 X6.4697 Y4.5303
G3 X7.0 Y3.25 I0.5303 J-0.5303
G1 X191.7062
G3 X192.2366 Y4.5303 I0.0 J0.75
G1 F100.0 Z-2.0
G1 F200.0 X167.4138 Y29.3531
G1 X191.533 Y53.4723
G3 X191.0026 Y54.7526 I-0.5303 J0.5303
G1 X7.7036
G3 X7.1733 Y53.4723 I0.0 J-0.75
G1 X31.2925 Y29.3531
G1 X6.4697 Y4.5303
G3 X7.0 Y3.25 I0.5303 J-0.5303
G1 X191.7062
G3 X192.2366 Y4.5303 I0.0 J0.75
G1 F100.0 Z-3.0
G1 F200.0 X167.4138 Y29.3531
G1 X191.533 Y53.4723
G3 X191.0026 Y54.7526 I-0.5303 J0.5303
G1 X7.7036
G3 X7.1733 Y53.4723 I0.0 J-0.75
G1 X31.2925 Y29.3531
G1 X6.4697 Y4.5303
G3 X7.0 Y3.25 I0.5303 J-0.5303
G1 X191.7062
G3 X192.2366 Y4.5303 I0.0 J0.75
G1 F100.0 Z-4.0
G1 F200.0 X167.4138 Y29.3531
G1 X191.533 Y53.4723
G3 X191.0026 Y54.7526 I-0.5303 J0.5303
G1 X7.7036
G3 X7.1733 Y53.4723 I0.0 J-0.75
G1 X31.2925 Y29.3531
G1 X6.4697 Y4.5303
G3 X7.0 Y3.25 I0.5303 J-0.5303
G1 X191.7062
G3 X192.2366 Y4.5303 I0.0 J0.75
G1 F100.0 Z-5.0
G1 F200.0 X167.4138 Y29.3531
G1 X191.533 Y53.4723
G3 X191.0026 Y54.7526 I-0.5303 J0.5303
G1 X7.7036
G3 X7.1733 Y53.4723 I0.0 J-0.75
G1 X31.2925 Y29.3531
G1 X6.4697 Y4.5303
G3 X7.0 Y3.25 I0.5303 J-0.5303
G1 X191.7062
G3 X192.2366 Y4.5303 I0.0 J0.75
G1 F100.0 Z-6.0
G1 F200.0 X167.4138 Y29.3531
G1 X191.533 Y53.4723
G3 X191.0026 Y54.7526 I-0.5303 J0.5303
G1 X7.7036
G3 X7.1733 Y53.4723 I0.0 J-0.75
G1 X31.2925 Y29.3531
G1 X6.4697 Y4.5303
G3 X7.0 Y3.25 I0.5303 J-0.5303
G1 X191.7062
G3 X192.2366 Y4.5303 I0.0 J0.75
G1 F100.0 Z-7.0
G1 F200.0 X167.4138 Y29.3531
G1 X191.533 Y53.4723
G3 X191.0026 Y54.7526 I-0.5303 J0.5303
G1 X7.7036
G3 X7.1733 Y53.4723 I0.0 J-0.75
G1 X31.2925 Y29.3531
G1 X6.4697 Y4.5303
G3 X7.0 Y3.25 I0.5303 J-0.5303
G1 X191.7062
G3 X192.2366 Y4.5303 I0.0 J0.75
G1 F100.0 Z-8.0
G1 F200.0 X167.4138 Y29.3531
G1 X191.533 Y53.4723
G3 X191.0026 Y54.7526 I-0.5303 J0.5303
G1 X7.7036
G3 X7.1733 Y53.4723 I0.0 J-0.75
G1 X31.2925 Y29.3531
G1 X6.4697 Y4.5303
G3 X7.0 Y3.25 I0.5303 J-0.5303
G1 X191.7062
G3 X192.2366 Y4.5303 I0.0 J0.75
G1 F100.0 Z-9.0
G1 F200.0 X167.4138 Y29.3531
G1 X191.533 Y53.4723
G3 X191.0026 Y54.7526 I-0.5303 J0.5303
G1 X7.7036
G3 X7.1733 Y53.4723 I0.0 J-0.75
G1 X31.2925 Y29.3531
G1 X6.4697 Y4.5303
G3 X7.0 Y3.25 I0.5303 J-0.5303
G1 X191.7062
G3 X192.2366 Y4.5303 I0.0 J0.75
G1 F100.0 Z-10.0
G1 F200.0 X167.4138 Y29.3531
G1 X191.533 Y53.4723
G3 X191.0026 Y54.7526 I-0.5303 J0.5303
G1 X7.7036
G3 X7.1733 Y53.4723 I0.0 J-0.75
G1 X31.2925 Y29.3531
G1 X6.4697 Y4.5303
G3 X7.0 Y3.25 I0.5303 J-0.5303
G1 X191.7062
G3 X192.2366 Y4.5303 I0.0 J0.75
G0 Z3.0
M5
M30
