( Made using CamBam - http://www.cambam.co.uk )
( espacador 3/17/2019 8:41:00 AM )
( T0 : 1.5 )
G21 G90 G64 G40
G0 Z5.0
( T0 : 1.5 )
T0 M6
( 3DSurface1 )
G17
M3 S1000
G0 X14.85 Y14.85
G0 Z1.0
G1 F200.0 Z-0.5
G1 F400.0 Y23.6524
G1 X15.15
G1 Y14.85
G1 X14.85
G0 Z5.0
G0 Y13.65
G0 Z1.0
G1 F200.0 Z-0.5
G1 F400.0 X13.65
G1 Y24.8524
G1 X16.35
G1 Y13.65
G1 X14.85
G0 Z5.0
G0 Y12.45
G0 Z1.0
G1 F200.0 Z-0.5
G1 F400.0 X12.45
G1 Y26.0524
G1 X17.55
G1 Y12.45
G1 X14.85
G0 Z5.0
G0 Y11.25
G0 Z1.0
G1 F200.0 Z-0.5
G1 F400.0 X11.25
G1 Y27.2524
G1 X18.75
G1 Y11.25
G1 X14.85
G0 Z5.0
G0 Y10.05
G0 Z1.0
G1 F200.0 Z-0.5
G1 F400.0 X10.05
G1 Y28.4524
G1 X19.95
G1 Y10.05
G1 X14.85
G0 Z5.0
G0 Y8.85
G0 Z1.0
G1 F200.0 Z-0.5
G1 F400.0 X8.85
G1 Y29.6583
G3 X9.2 Y29.6524 I0.35 J10.3417
G1 X20.8
G3 X21.15 Y29.6583 I0.0 J10.3476
G1 Y8.85
G1 X14.85
G0 Z5.0
G0 Y7.65
G0 Z1.0
G1 F200.0 Z-0.5
G1 F400.0 X7.65
G1 Y30.9847
G3 X9.2 Y30.8524 I1.55 J9.0153
G1 X20.8
G3 X22.35 Y30.9847 I0.0 J9.1476
G1 Y7.65
G1 X14.85
G0 Z5.0
G0 Y6.45
G0 Z1.0
G1 F200.0 Z-0.5
G1 F400.0 X6.45
G1 Y32.5433
G3 X9.2 Y32.0524 I2.75 J7.4567
G1 X20.8
G3 X23.55 Y32.5433 I0.0 J7.9476
G1 Y6.45
G1 X14.85
G0 Z5.0
G0 Y5.25
G0 Z1.0
G1 F200.0 Z-0.5
G1 F400.0 X5.25
G1 Y34.5294
G3 X9.2 Y33.2524 I3.95 J5.4706
G1 X20.8
G3 X24.75 Y34.5294 I0.0 J6.7476
G1 Y5.25
G1 X14.85
G0 Z5.0
G0 Y4.05
G0 Z1.0
G1 F200.0 Z-0.5
G1 F400.0 X4.05
G1 Y37.9376
G3 X9.2 Y34.4524 I5.15 J2.0624
G1 X20.8
G3 X25.95 Y37.9376 I0.0 J5.5476
G1 Y4.05
G1 X14.85
G0 Z5.0
G0 Y96.3476
G0 Z1.0
G1 F200.0 Z-0.5
G1 F400.0 Y105.15
G1 X15.15
G1 Y96.3476
G1 X14.85
G0 Z5.0
G0 Y95.1476
G0 Z1.0
G1 F200.0 Z-0.5
G1 F400.0 X13.65
G1 Y106.35
G1 X16.35
G1 Y95.1476
G1 X14.85
G0 Z5.0
G0 Y93.9476
G0 Z1.0
G1 F200.0 Z-0.5
G1 F400.0 X12.45
G1 Y107.55
G1 X17.55
G1 Y93.9476
G1 X14.85
G0 Z5.0
G0 Y92.7476
G0 Z1.0
G1 F200.0 Z-0.5
G1 F400.0 X11.25
G1 Y108.75
G1 X18.75
G1 Y92.7476
G1 X14.85
G0 Z5.0
G0 Y91.5476
G0 Z1.0
G1 F200.0 Z-0.5
G1 F400.0 X10.05
G1 Y109.95
G1 X19.95
G1 Y91.5476
G1 X14.85
G0 Z5.0
G0 Y90.3476
G0 Z1.0
G1 F200.0 Z-0.5
G1 F400.0 X9.2
G3 X8.85 Y90.3417 I0.0 J-10.3476
G1 Y111.15
G1 X21.15
G1 Y90.3417
G3 X20.8 Y90.3476 I-0.35 J-10.3417
G1 X14.85
G0 Z5.0
G0 Y89.1476
G0 Z1.0
G1 F200.0 Z-0.5
G1 F400.0 X9.2
G3 X7.65 Y89.0153 I0.0 J-9.1476
G1 Y112.35
G1 X22.35
G1 Y89.0153
G3 X20.8 Y89.1476 I-1.55 J-9.0153
G1 X14.85
G0 Z5.0
G0 Y87.9476
G0 Z1.0
G1 F200.0 Z-0.5
G1 F400.0 X9.2
G3 X6.45 Y87.4567 I0.0 J-7.9476
G1 Y113.55
G1 X23.55
G1 Y87.4567
G3 X20.8 Y87.9476 I-2.75 J-7.4567
G1 X14.85
G0 Z5.0
G0 Y86.7476
G0 Z1.0
G1 F200.0 Z-0.5
G1 F400.0 X9.2
G3 X5.25 Y85.4706 I0.0 J-6.7476
G1 Y114.75
G1 X24.75
G1 Y85.4706
G3 X20.8 Y86.7476 I-3.95 J-5.4706
G1 X14.85
G0 Z5.0
G0 Y85.5476
G0 Z1.0
G1 F200.0 Z-0.5
G1 F400.0 X9.2
G3 X4.05 Y82.0624 I0.0 J-5.5476
G1 Y115.95
G1 X25.95
G1 Y82.0624
G3 X20.8 Y85.5476 I-5.15 J-2.0624
G1 X14.85
G0 Z5.0
G0 Y81.9476
G0 Z1.0
G1 F200.0 Z-0.5
G1 F400.0 X9.2
G3 X7.2524 Y80.0 I0.0 J-1.9476
G1 Y40.0
G3 X9.2 Y38.0524 I1.9476 J0.0
G1 X20.8
G3 X22.7476 Y40.0 I0.0 J1.9476
G1 Y80.0
G3 X20.8 Y81.9476 I-1.9476 J0.0
G1 X14.85
G0 Z5.0
G0 Y80.75
G0 Z1.0
G1 F200.0 Z-0.5
G1 F400.0 X9.2
G3 X8.45 Y80.0 I0.0 J-0.75
G1 Y40.0
G3 X9.2 Y39.25 I0.75 J0.0
G1 X20.8
G3 X21.55 Y40.0 I0.0 J0.75
G1 Y80.0
G3 X20.8 Y80.75 I-0.75 J0.0
G1 X14.85
G0 Z5.0
G0 Y83.1476
G0 Z1.0
G1 F200.0 Z-0.5
G1 F400.0 X20.8
G2 X23.9476 Y80.0 I0.0 J-3.1476
G1 Y40.0
G2 X20.8 Y36.8524 I-3.1476 J0.0
G1 X9.2
G2 X6.0524 Y40.0 I0.0 J3.1476
G1 Y80.0
G2 X9.2 Y83.1476 I3.1476 J0.0
G1 X14.85
G0 Z5.0
G0 Y84.3476
G0 Z1.0
G1 F200.0 Z-0.5
G1 F400.0 X20.8
G2 X25.1476 Y80.0 I0.0 J-4.3476
G1 Y40.0
G2 X20.8 Y35.6524 I-4.3476 J0.0
G1 X9.2
G2 X4.8524 Y40.0 I0.0 J4.3476
G1 Y80.0
G2 X9.2 Y84.3476 I4.3476 J0.0
G1 X14.85
G0 Z5.0
G0 X2.85
G0 Z1.0
G1 F200.0 Z-0.5
G1 F400.0 Y117.15
G1 X27.15
G1 Y2.85
G1 X2.85
G1 Y84.3476
G0 Z5.0
G0 X1.65
G0 Z1.0
G1 F200.0 Z-0.5
G1 F400.0 Y118.35
G1 X28.35
G1 Y1.65
G1 X1.65
G1 Y84.3476
G0 Z5.0
G0 X0.45
G0 Z1.0
G1 F200.0 Z-0.5
G1 F400.0 Y119.55
G1 X29.55
G1 Y0.45
G1 X0.45
G1 Y84.3476
G0 Z5.0
G0 X-0.75
G0 Z1.0
G1 F200.0 Z-0.5
G1 F400.0 Y120.0
G2 X0.0 Y120.75 I0.75 J0.0
G1 X30.0
G2 X30.75 Y120.0 I0.0 J-0.75
G1 Y0.0
G2 X30.0 Y-0.75 I-0.75 J0.0
G1 X0.0
G2 X-0.75 Y0.0 I0.0 J0.75
G1 Y84.3476
G0 Z5.0
G0 X14.85 Y96.3476
G0 Z0.5
G1 F200.0 Z-1.0
G1 F400.0 Y105.15
G1 X15.15
G1 Y96.3476
G1 X14.85
G0 Z5.0
G0 X13.65
G0 Z0.5
G1 F200.0 Z-1.0
G1 F400.0 Y106.35
G1 X16.35
G1 Y95.1476
G1 X13.65
G1 Y96.3476
G0 Z5.0
G0 X12.45
G0 Z0.5
G1 F200.0 Z-1.0
G1 F400.0 Y107.55
G1 X17.55
G1 Y93.9476
G1 X12.45
G1 Y96.3476
G0 Z5.0
G0 X11.25
G0 Z0.5
G1 F200.0 Z-1.0
G1 F400.0 Y108.75
G1 X18.75
G1 Y92.7476
G1 X11.25
G1 Y96.3476
G0 Z5.0
G0 X10.05
G0 Z0.5
G1 F200.0 Z-1.0
G1 F400.0 Y109.95
G1 X19.95
G1 Y91.5476
G1 X10.05
G1 Y96.3476
G0 Z5.0
G0 X8.85
G0 Z0.5
G1 F200.0 Z-1.0
G1 F400.0 Y111.15
G1 X21.15
G1 Y90.3476
G1 X8.85
G1 Y96.3476
G0 Z5.0
G0 X7.65
G0 Z0.5
G1 F200.0 Z-1.0
G1 F400.0 Y112.35
G1 X22.35
G1 Y89.0871
G3 X21.3 Y89.1476 I-1.05 J-9.0871
G1 X8.7
G3 X7.65 Y89.0871 I0.0 J-9.1476
G1 Y96.3476
G0 Z5.0
G0 X6.45
G0 Z0.5
G1 F200.0 Z-1.0
G1 F400.0 Y113.55
G1 X23.55
G1 Y87.6225
G3 X21.3 Y87.9476 I-2.25 J-7.6225
G1 X8.7
G3 X6.45 Y87.6225 I0.0 J-7.9476
G1 Y96.3476
G0 Z5.0
G0 X5.25
G0 Z0.5
G1 F200.0 Z-1.0
G1 F400.0 Y114.75
G1 X24.75
G1 Y85.7989
G3 X21.3 Y86.7476 I-3.45 J-5.7989
G1 X8.7
G3 X5.25 Y85.7989 I0.0 J-6.7476
G1 Y96.3476
G0 Z5.0
G0 X4.05
G0 Z0.5
G1 F200.0 Z-1.0
G1 F400.0 Y115.95
G1 X25.95
G1 Y83.0255
G3 X21.3 Y85.5476 I-4.65 J-3.0255
G1 X8.7
G3 X4.05 Y83.0255 I0.0 J-5.5476
G1 Y96.3476
G0 Z5.0
G0 X14.85 Y23.6524
G0 Z0.5
G1 F200.0 Z-1.0
G1 F400.0 X15.15
G1 Y14.85
G1 X14.85
G1 Y23.6524
G0 Z5.0
G0 Y24.8524
G0 Z0.5
G1 F200.0 Z-1.0
G1 F400.0 X16.35
G1 Y13.65
G1 X13.65
G1 Y24.8524
G1 X14.85
G0 Z5.0
G0 Y26.0524
G0 Z0.5
G1 F200.0 Z-1.0
G1 F400.0 X17.55
G1 Y12.45
G1 X12.45
G1 Y26.0524
G1 X14.85
G0 Z5.0
G0 Y27.2524
G0 Z0.5
G1 F200.0 Z-1.0
G1 F400.0 X18.75
G1 Y11.25
G1 X11.25
G1 Y27.2524
G1 X14.85
G0 Z5.0
G0 Y28.4524
G0 Z0.5
G1 F200.0 Z-1.0
G1 F400.0 X19.95
G1 Y10.05
G1 X10.05
G1 Y28.4524
G1 X14.85
G0 Z5.0
G0 Y29.6524
G0 Z0.5
G1 F200.0 Z-1.0
G1 F400.0 X21.15
G1 Y8.85
G1 X8.85
G1 Y29.6524
G1 X14.85
G0 Z5.0
G0 Y30.8524
G0 Z0.5
G1 F200.0 Z-1.0
G1 F400.0 X21.3
G3 X22.35 Y30.9129 I0.0 J9.1476
G1 Y7.65
G1 X7.65
G1 Y30.9129
G3 X8.7 Y30.8524 I1.05 J9.0871
G1 X14.85
G0 Z5.0
G0 Y32.0524
G0 Z0.5
G1 F200.0 Z-1.0
G1 F400.0 X21.3
G3 X23.55 Y32.3775 I0.0 J7.9476
G1 Y6.45
G1 X6.45
G1 Y32.3775
G3 X8.7 Y32.0524 I2.25 J7.6225
G1 X14.85
G0 Z5.0
G0 Y33.2524
G0 Z0.5
G1 F200.0 Z-1.0
G1 F400.0 X21.3
G3 X24.75 Y34.2011 I0.0 J6.7476
G1 Y5.25
G1 X5.25
G1 Y34.2011
G3 X8.7 Y33.2524 I3.45 J5.7989
G1 X14.85
G0 Z5.0
G0 Y34.4524
G0 Z0.5
G1 F200.0 Z-1.0
G1 F400.0 X21.3
G3 X25.95 Y36.9745 I0.0 J5.5476
G1 Y4.05
G1 X4.05
G1 Y36.9745
G3 X8.7 Y34.4524 I4.65 J3.0255
G1 X14.85
G0 Z5.0
G0 Y38.0524
G0 Z0.5
G1 F200.0 Z-1.0
G1 F400.0 X21.3
G3 X23.2476 Y40.0 I0.0 J1.9476
G1 Y80.0
G3 X21.3 Y81.9476 I-1.9476 J0.0
G1 X8.7
G3 X6.7524 Y80.0 I0.0 J-1.9476
G1 Y40.0
G3 X8.7 Y38.0524 I1.9476 J0.0
G1 X14.85
G0 Z5.0
G0 Y39.25
G0 Z0.5
G1 F200.0 Z-1.0
G1 F400.0 X21.3
G3 X22.05 Y40.0 I0.0 J0.75
G1 Y80.0
G3 X21.3 Y80.75 I-0.75 J0.0
G1 X8.7
G3 X7.95 Y80.0 I0.0 J-0.75
G1 Y40.0
G3 X8.7 Y39.25 I0.75 J0.0
G1 X14.85
G0 Z5.0
G0 Y36.8524
G0 Z0.5
G1 F200.0 Z-1.0
G1 F400.0 X8.7
G2 X5.5524 Y40.0 I0.0 J3.1476
G1 Y80.0
G2 X8.7 Y83.1476 I3.1476 J0.0
G1 X21.3
G2 X24.4476 Y80.0 I0.0 J-3.1476
G1 Y40.0
G2 X21.3 Y36.8524 I-3.1476 J0.0
G1 X14.85
G0 Z5.0
G0 Y35.6524
G0 Z0.5
G1 F200.0 Z-1.0
G1 F400.0 X8.7
G2 X4.3524 Y40.0 I0.0 J4.3476
G1 Y80.0
G2 X8.7 Y84.3476 I4.3476 J0.0
G1 X21.3
G2 X25.6476 Y80.0 I0.0 J-4.3476
G1 Y40.0
G2 X21.3 Y35.6524 I-4.3476 J0.0
G1 X14.85
G0 Z5.0
G0 X2.85
G0 Z0.5
G1 F200.0 Z-1.0
G1 F400.0 Y117.15
G1 X27.15
G1 Y2.85
G1 X2.85
G1 Y35.6524
G0 Z5.0
G0 X1.65
G0 Z0.5
G1 F200.0 Z-1.0
G1 F400.0 Y118.35
G1 X28.35
G1 Y1.65
G1 X1.65
G1 Y35.6524
G0 Z5.0
G0 X0.45
G0 Z0.5
G1 F200.0 Z-1.0
G1 F400.0 Y119.55
G1 X29.55
G1 Y0.45
G1 X0.45
G1 Y35.6524
G0 Z5.0
G0 X-0.75
G0 Z0.5
G1 F200.0 Z-1.0
G1 F400.0 Y120.0
G2 X0.0 Y120.75 I0.75 J0.0
G1 X30.0
G2 X30.75 Y120.0 I0.0 J-0.75
G1 Y0.0
G2 X30.0 Y-0.75 I-0.75 J0.0
G1 X0.0
G2 X-0.75 Y0.0 I0.0 J0.75
G1 Y35.6524
G0 Z5.0
G0 X14.85 Y23.6524
G0 Z0.0
G1 F200.0 Z-1.5
G1 F400.0 X15.15
G1 Y14.85
G1 X14.85
G1 Y23.6524
G0 Z5.0
G0 X13.65
G0 Z0.0
G1 F200.0 Z-1.5
G1 F400.0 Y24.8524
G1 X16.35
G1 Y13.65
G1 X13.65
G1 Y23.6524
G0 Z5.0
G0 X12.45
G0 Z0.0
G1 F200.0 Z-1.5
G1 F400.0 Y26.0524
G1 X17.55
G1 Y12.45
G1 X12.45
G1 Y23.6524
G0 Z5.0
G0 X11.25
G0 Z0.0
G1 F200.0 Z-1.5
G1 F400.0 Y27.2524
G1 X18.75
G1 Y11.25
G1 X11.25
G1 Y23.6524
G0 Z5.0
G0 X10.05
G0 Z0.0
G1 F200.0 Z-1.5
G1 F400.0 Y28.4524
G1 X19.95
G1 Y10.05
G1 X10.05
G1 Y23.6524
G0 Z5.0
G0 X8.85
G0 Z0.0
G1 F200.0 Z-1.5
G1 F400.0 Y29.6524
G1 X21.15
G1 Y8.85
G1 X8.85
G1 Y23.6524
G0 Z5.0
G0 X7.65
G0 Z0.0
G1 F200.0 Z-1.5
G1 F400.0 Y30.8689
G3 X8.2 Y30.8524 I0.55 J9.1311
G1 X21.8
G3 X22.35 Y30.8689 I0.0 J9.1476
G1 Y7.65
G1 X7.65
G1 Y23.6524
G0 Z5.0
G0 X6.45
G0 Z0.0
G1 F200.0 Z-1.5
G1 F400.0 Y32.2475
G3 X8.2 Y32.0524 I1.75 J7.7525
G1 X21.8
G3 X23.55 Y32.2475 I0.0 J7.9476
G1 Y6.45
G1 X6.45
G1 Y23.6524
G0 Z5.0
G0 X5.25
G0 Z0.0
G1 F200.0 Z-1.5
G1 F400.0 Y33.9314
G3 X8.2 Y33.2524 I2.95 J6.0686
G1 X21.8
G3 X24.75 Y33.9314 I0.0 J6.7476
G1 Y5.25
G1 X5.25
G1 Y23.6524
G0 Z5.0
G0 X4.05
G0 Z0.0
G1 F200.0 Z-1.5
G1 F400.0 Y36.3185
G3 X8.2 Y34.4524 I4.15 J3.6815
G1 X21.8
G3 X25.95 Y36.3185 I0.0 J5.5476
G1 Y4.05
G1 X4.05
G1 Y23.6524
G0 Z5.0
G0 X14.85 Y96.3476
G0 Z0.0
G1 F200.0 Z-1.5
G1 F400.0 Y105.15
G1 X15.15
G1 Y96.3476
G1 X14.85
G0 Z5.0
G0 X13.65
G0 Z0.0
G1 F200.0 Z-1.5
G1 F400.0 Y106.35
G1 X16.35
G1 Y95.1476
G1 X13.65
G1 Y96.3476
G0 Z5.0
G0 X12.45
G0 Z0.0
G1 F200.0 Z-1.5
G1 F400.0 Y107.55
G1 X17.55
G1 Y93.9476
G1 X12.45
G1 Y96.3476
G0 Z5.0
G0 X11.25
G0 Z0.0
G1 F200.0 Z-1.5
G1 F400.0 Y108.75
G1 X18.75
G1 Y92.7476
G1 X11.25
G1 Y96.3476
G0 Z5.0
G0 X10.05
G0 Z0.0
G1 F200.0 Z-1.5
G1 F400.0 Y109.95
G1 X19.95
G1 Y91.5476
G1 X10.05
G1 Y96.3476
G0 Z5.0
G0 X8.85
G0 Z0.0
G1 F200.0 Z-1.5
G1 F400.0 Y111.15
G1 X21.15
G1 Y90.3476
G1 X8.85
G1 Y96.3476
G0 Z5.0
G0 X7.65
G0 Z0.0
G1 F200.0 Z-1.5
G1 F400.0 Y112.35
G1 X22.35
G1 Y89.1311
G3 X21.8 Y89.1476 I-0.55 J-9.1311
G1 X8.2
G3 X7.65 Y89.1311 I0.0 J-9.1476
G1 Y96.3476
G0 Z5.0
G0 X6.45
G0 Z0.0
G1 F200.0 Z-1.5
G1 F400.0 Y113.55
G1 X23.55
G1 Y87.7525
G3 X21.8 Y87.9476 I-1.75 J-7.7525
G1 X8.2
G3 X6.45 Y87.7525 I0.0 J-7.9476
G1 Y96.3476
G0 Z5.0
G0 X5.25
G0 Z0.0
G1 F200.0 Z-1.5
G1 F400.0 Y114.75
G1 X24.75
G1 Y86.0686
G3 X21.8 Y86.7476 I-2.95 J-6.0686
G1 X8.2
G3 X5.25 Y86.0686 I0.0 J-6.7476
G1 Y96.3476
G0 Z5.0
G0 X4.05
G0 Z0.0
G1 F200.0 Z-1.5
G1 F400.0 Y115.95
G1 X25.95
G1 Y83.6815
G3 X21.8 Y85.5476 I-4.15 J-3.6815
G1 X8.2
G3 X4.05 Y83.6815 I0.0 J-5.5476
G1 Y96.3476
G0 Z5.0
G0 X7.7208 Y81.8877
G0 Z0.0
G1 F200.0 Z-1.5
G3 F400.0 X6.2524 Y80.0 I0.4792 J-1.8877
G1 Y40.0
G3 X8.2 Y38.0524 I1.9476 J0.0
G1 X21.8
G3 X23.7476 Y40.0 I0.0 J1.9476
G1 Y80.0
G3 X21.8 Y81.9476 I-1.9476 J0.0
G1 X8.2
G3 X7.7208 Y81.8877 I0.0 J-1.9476
G0 Z5.0
G0 X8.0155 Y80.7269
G0 Z0.0
G1 F200.0 Z-1.5
G3 F400.0 X7.45 Y80.0 I0.1845 J-0.7269
G1 Y40.0
G3 X8.2 Y39.25 I0.75 J0.0
G1 X21.8
G3 X22.55 Y40.0 I0.0 J0.75
G1 Y80.0
G3 X21.8 Y80.75 I-0.75 J0.0
G1 X8.2
G3 X8.0155 Y80.7269 I0.0 J-0.75
G0 Z5.0
G0 X7.4255 Y83.0508
G0 Z0.0
G1 F200.0 Z-1.5
G2 F400.0 X8.2 Y83.1476 I0.7745 J-3.0508
G1 X21.8
G2 X24.9476 Y80.0 I0.0 J-3.1476
G1 Y40.0
G2 X21.8 Y36.8524 I-3.1476 J0.0
G1 X8.2
G2 X5.0524 Y40.0 I0.0 J3.1476
G1 Y80.0
G2 X7.4255 Y83.0508 I3.1476 J0.0
G0 Z5.0
G0 X7.1303 Y84.2139
G0 Z0.0
G1 F200.0 Z-1.5
G2 F400.0 X8.2 Y84.3476 I1.0697 J-4.2139
G1 X21.8
G2 X26.1476 Y80.0 I0.0 J-4.3476
G1 Y40.0
G2 X21.8 Y35.6524 I-4.3476 J0.0
G1 X8.2
G2 X3.8524 Y40.0 I0.0 J4.3476
G1 Y80.0
G2 X7.1303 Y84.2139 I4.3476 J0.0
G0 Z5.0
G0 X2.85
G0 Z0.0
G1 F200.0 Z-1.5
G1 F400.0 Y117.15
G1 X27.15
G1 Y2.85
G1 X2.85
G1 Y84.2139
G0 Z5.0
G0 X1.65
G0 Z0.0
G1 F200.0 Z-1.5
G1 F400.0 Y118.35
G1 X28.35
G1 Y1.65
G1 X1.65
G1 Y84.2139
G0 Z5.0
G0 X0.45
G0 Z0.0
G1 F200.0 Z-1.5
G1 F400.0 Y119.55
G1 X29.55
G1 Y0.45
G1 X0.45
G1 Y84.2139
G0 Z5.0
G0 X-0.75
G0 Z0.0
G1 F200.0 Z-1.5
G1 F400.0 Y120.0
G2 X0.0 Y120.75 I0.75 J0.0
G1 X30.0
G2 X30.75 Y120.0 I0.0 J-0.75
G1 Y0.0
G2 X30.0 Y-0.75 I-0.75 J0.0
G1 X0.0
G2 X-0.75 Y0.0 I0.0 J0.75
G1 Y84.2139
G0 Z5.0
G0 X2.85
G0 Z-0.5
G1 F200.0 Z-2.0
G1 F400.0 Y117.15
G1 X3.3524
G1 Y2.85
G1 X2.85
G1 Y84.2139
G0 Z5.0
G0 X1.65
G0 Z-0.5
G1 F200.0 Z-2.0
G1 F400.0 Y118.35
G1 X4.5524
G1 Y1.65
G1 X1.65
G1 Y84.2139
G0 Z5.0
G0 X0.45
G0 Z-0.5
G1 F200.0 Z-2.0
G1 F400.0 Y119.55
G1 X5.7524
G1 Y0.45
G1 X0.45
G1 Y84.2139
G0 Z5.0
G0 X-0.75
G0 Z-0.5
G1 F200.0 Z-2.0
G1 F400.0 Y120.0
G2 X0.0 Y120.75 I0.75 J0.0
G1 X7.7
G3 X6.95 Y120.0 I0.0 J-0.75
G1 Y0.0
G3 X7.7 Y-0.75 I0.75 J0.0
G1 X0.0
G2 X-0.75 Y0.0 I0.0 J0.75
G1 Y84.2139
G0 Z5.0
G0 X14.9341 Y86.7476
G0 Z-0.5
G1 F200.0 Z-2.0
G1 F400.0 X14.9345 Y87.2064
G3 X14.9275 Y87.5206 I-6.7476 J0.0064
G1 X14.9293 Y114.75
G1 X15.0707
G1 X15.0719 Y86.7476
G1 X14.9341
G0 Z5.0
G0 Y85.5476
G0 Z-0.5
G1 F200.0 Z-2.0
G1 F400.0 X13.7329
G1 X13.7345 Y87.2075
G3 X13.7275 Y87.4915 I-5.5476 J0.0052
G1 X13.7303 Y115.95
G1 X16.2697
G1 X16.271 Y85.5476
G1 X14.9341
G0 Z5.0
G0 Y84.3476
G0 Z-0.5
G1 F200.0 Z-2.0
G1 F400.0 X12.5318
G1 X12.5345 Y87.2086
G3 X12.5275 Y87.4591 I-4.3476 J0.0041
G1 X12.5315 Y117.15
G1 X17.4685
G1 X17.4699 Y84.3476
G1 X14.9341
G0 Z5.0
G0 Y83.1476
G0 Z-0.5
G1 F200.0 Z-2.0
G1 F400.0 X11.3307
G1 X11.3345 Y87.2098
G3 X11.3276 Y87.4219 I-3.1476 J0.003
G1 X11.3327 Y118.35
G1 X18.6673
G1 X18.6688 Y83.1476
G1 X14.9341
G0 Z5.0
G0 Y81.9476
G0 Z-0.5
G1 F200.0 Z-2.0
G1 F400.0 X10.1295
G1 X10.1345 Y87.2109
G3 X10.1276 Y87.3768 I-1.9476 J0.0018
G1 X10.134 Y119.55
G1 X19.866
G1 X19.8676 Y81.9476
G1 X14.9341
G0 Z5.0
G0 Y80.75
G0 Z-0.5
G1 F200.0 Z-2.0
G1 F400.0 X8.9308
G1 X8.9369 Y87.212
G3 X8.93 Y87.3141 I-0.75 J0.0007
G1 X8.9369 Y119.9991
G3 X8.1869 Y120.75 I-0.75 J0.0009
G1 X21.8131
G3 X21.0631 Y119.9991 I0.0 J-0.75
G1 X21.0639 Y80.75
G1 X14.9341
G0 Z5.0
G0 X26.6476
G0 Z-0.5
G1 F200.0 Z-2.0
G1 F400.0 Y117.15
G1 X27.15
G1 Y2.85
G1 X26.6476
G1 Y80.75
G0 Z5.0
G0 X25.4476
G0 Z-0.5
G1 F200.0 Z-2.0
G1 F400.0 Y118.35
G1 X28.35
G1 Y1.65
G1 X25.4476
G1 Y80.75
G0 Z5.0
G0 X24.2476
G0 Z-0.5
G1 F200.0 Z-2.0
G1 F400.0 Y0.45
G1 X29.55
G1 Y119.55
G1 X24.2476
G1 Y80.75
G0 Z5.0
G0 X27.1476 Y117.15
G0 Z-1.0
G1 F200.0 Z-2.5
G1 F400.0 X27.15
G1 Y2.85
G1 X27.1476
G1 Y117.15
G0 Z5.0
G0 Y118.35
G0 Z-1.0
G1 F200.0 Z-2.5
G1 F400.0 X28.35
G1 Y1.65
G1 X25.9476
G1 Y118.35
G1 X27.1476
G0 Z5.0
G0 Y119.55
G0 Z-1.0
G1 F200.0 Z-2.5
G1 F400.0 X24.7476
G1 Y0.45
G1 X29.55
G1 Y119.55
G1 X27.1476
G0 Z5.0
G0 Y118.35
G0 Z-1.5
G1 F200.0 Z-3.0
G1 F400.0 X28.35
G1 Y1.65
G1 X26.4476
G1 Y118.35
G1 X27.1476
G0 Z5.0
G0 Y119.55
G0 Z-1.5
G1 F200.0 Z-3.0
G1 F400.0 X25.2476
G1 Y0.45
G1 X29.55
G1 Y119.55
G1 X27.1476
G0 Z5.0
G0 Y118.35
G0 Z-2.0
G1 F200.0 Z-3.5
G1 F400.0 X28.35
G1 Y1.65
G1 X26.9476
G1 Y118.35
G1 X27.1476
G0 Z5.0
G0 Y119.55
G0 Z-2.0
G1 F200.0 Z-3.5
G1 F400.0 X25.7476
G1 Y0.45
G1 X29.55
G1 Y119.55
G1 X27.1476
G0 Z5.0
G0 X27.4476 Y118.35
G0 Z-2.5
G1 F200.0 Z-4.0
G1 F400.0 X28.35
G1 Y1.65
G1 X27.4476
G1 Y118.35
G0 Z5.0
G0 Y119.55
G0 Z-2.5
G1 F200.0 Z-4.0
G1 F400.0 X26.2476
G1 Y0.45
G1 X29.55
G1 Y119.55
G1 X27.4476
G0 Z5.0
G0 X27.9476 Y118.35
G0 Z-3.0
G1 F200.0 Z-4.5
G1 F400.0 X28.35
G1 Y1.65
G1 X27.9476
G1 Y118.35
G0 Z5.0
G0 Y119.55
G0 Z-3.0
G1 F200.0 Z-4.5
G1 F400.0 X26.7476
G1 Y0.45
G1 X29.55
G1 Y119.55
G1 X27.9476
G1 F200.0 Y118.95
G1 Z-5.0
G1 F400.0 X28.95
G1 Y1.05
G1 X27.8476
G1 Y118.95
G1 X27.9476
G1 F200.0 Y119.55
G1 F400.0 X27.2476
G1 Y0.45
G1 X29.55
G1 Y119.55
G1 X27.9476
G1 F200.0 X28.3476 Y118.95
G1 Z-5.5
G1 F400.0 X28.95
G1 Y1.05
G1 X28.3476
G1 Y118.95
G1 F200.0 Y119.55
G1 F400.0 X27.7476
G1 Y0.45
G1 X29.55
G1 Y119.55
G1 X28.3476
G1 F200.0 X28.8476 Y118.95
G1 Z-6.0
G1 F400.0 X28.95
G1 Y1.05
G1 X28.8476
G1 Y118.95
G1 F200.0 Y119.55
G1 F400.0 X28.2476
G1 Y0.45
G1 X29.55
G1 Y119.55
G1 X28.8476
G1 F200.0 Z-6.5
G1 F400.0 X28.7476
G1 Y0.45
G1 X29.55
G1 Y119.55
G1 X28.8476
G1 F200.0 X29.2476
G1 Z-7.0
G1 F400.0 Y0.45
G1 X29.55
G1 Y119.55
G1 X29.2476
G0 Z5.0
G0 X21.8131 Y120.75
G0 Z-1.0
G1 F200.0 Z-2.0
G1 F400.0 X22.3
G2 X23.05 Y120.0 I0.0 J-0.75
G1 Y0.0
G2 X22.3 Y-0.75 I-0.75 J0.0
G1 X30.0
G3 X30.75 Y0.0 I0.0 J0.75
G1 Y120.0
G3 X30.0 Y120.75 I-0.75 J0.0
G1 X22.3
G0 Z5.0
G0 X7.7
G0 Z-1.0
G1 F200.0 Z-2.0
G1 F400.0 X8.1869
G1 F200.0 X7.2
G1 Z-2.5
G1 F400.0 X8.7513
G0 Z5.0
G0 X14.8945 Y115.35
G0 Z-1.0
G1 F200.0 Z-2.5
G1 F400.0 X15.1055
G1 X15.1093 Y111.3452
G1 X15.0966 Y100.0069
G3 X15.1089 Y99.612 I6.1476 J-0.0069
G1 X15.0966 Y88.6622
G3 X15.1089 Y88.2662 I6.1476 J-0.0069
G1 X15.1069 Y86.1476
G1 X14.8965
G1 X14.8989 Y88.6495
G3 X14.8911 Y88.9652 I-6.1476 J0.0058
G1 X14.9034 Y99.9931
G3 X14.8911 Y100.388 I-6.1476 J0.0069
G1 X14.9034 Y111.3378
G3 X14.8911 Y111.7338 I-6.1476 J0.0069
G1 X14.8945 Y115.35
G1 F200.0 Y115.95
G1 F400.0 X15.7049
G1 X15.7093 Y111.3452
G1 X15.6966 Y100.0062
G3 X15.7089 Y99.6311 I5.5476 J-0.0062
G1 X15.6966 Y88.6615
G3 X15.7089 Y88.2854 I5.5476 J-0.0062
G1 X15.7064 Y85.5476
G1 X14.2959
G1 X14.2989 Y88.6501
G3 X14.291 Y88.95 I-5.5476 J0.0052
G1 X14.3034 Y99.9938
G3 X14.2911 Y100.3689 I-5.5476 J0.0062
G1 X14.3034 Y111.3385
G3 X14.2911 Y111.7146 I-5.5476 J0.0062
G1 X14.2951 Y115.95
G1 X14.8945
G0 Z5.0
G0 Y117.15
G0 Z-1.0
G1 F200.0 Z-2.5
G1 F400.0 X16.9038
G1 X16.9093 Y111.3451
G1 X16.8966 Y100.0049
G3 X16.9089 Y99.6729 I4.3476 J-0.0049
G1 X16.8966 Y88.6602
G3 X16.909 Y88.3274 I4.3476 J-0.0049
G1 X16.9052 Y84.3476
G1 X13.0948
G1 X13.0989 Y88.6512
G3 X13.091 Y88.9168 I-4.3476 J0.0041
G1 X13.1034 Y99.9951
G3 X13.0911 Y100.3271 I-4.3476 J0.0049
G1 X13.1034 Y111.3398
G3 X13.091 Y111.6726 I-4.3476 J0.0049
G1 X13.0962 Y117.15
G1 X14.8945
G0 Z5.0
G0 Y118.35
G0 Z-1.0
G1 F200.0 Z-2.5
G1 F400.0 X18.1027
G1 X18.1093 Y111.345
G1 X18.0966 Y100.0035
G3 X18.109 Y99.7211 I3.1476 J-0.0035
G1 X18.0966 Y88.6588
G3 X18.109 Y88.3758 I3.1476 J-0.0035
G1 X18.1041 Y83.1476
G1 X11.8937
G1 X11.8989 Y88.6523
G3 X11.891 Y88.8784 I-3.1476 J0.003
G1 X11.9034 Y99.9965
G3 X11.891 Y100.2789 I-3.1476 J0.0035
G1 X11.9034 Y111.3412
G3 X11.891 Y111.6242 I-3.1476 J0.0035
G1 X11.8973 Y118.35
G1 X14.8945
G0 Z5.0
G0 Y119.55
G0 Z-1.0
G1 F200.0 Z-2.5
G1 F400.0 X19.3016
G1 X19.3093 Y111.3449
G1 X19.2966 Y100.0022
G3 X19.309 Y99.7802 I1.9476 J-0.0022
G1 X19.2966 Y88.6575
G3 X19.3091 Y88.4351 I1.9476 J-0.0022
G1 X19.303 Y81.9476
G1 X10.6925
G1 X10.6989 Y88.6535
G3 X10.6909 Y88.8313 I-1.9476 J0.0018
G1 X10.7034 Y99.9978
G3 X10.691 Y100.2198 I-1.9476 J0.0022
G1 X10.7034 Y111.3425
G3 X10.6909 Y111.5649 I-1.9476 J0.0022
G1 X10.6984 Y119.55
G1 X14.8945
G0 Z5.0
G0 Y120.75
G0 Z-1.0
G1 F200.0 Z-2.5
G1 F400.0 X21.2487
G3 X20.4987 Y119.9993 I0.0 J-0.75
G1 X20.5069 Y111.3448
G1 X20.4942 Y100.0008
G3 X20.5067 Y99.8634 I0.75 J-0.0008
G1 X20.4942 Y88.6561
G3 X20.5068 Y88.5186 I0.75 J-0.0008
G1 X20.4994 Y80.75
G1 X9.4938
G1 X9.5013 Y88.6546
G3 X9.4932 Y88.7648 I-0.75 J0.0007
G1 X9.5058 Y99.9992
G3 X9.4933 Y100.1366 I-0.75 J0.0008
G1 X9.5058 Y111.3439
G3 X9.4932 Y111.4814 I-0.75 J0.0008
G1 X9.5013 Y119.9993
G3 X8.7513 Y120.75 I-0.75 J0.0007
G1 X14.8945
G0 Z5.0
G0 X14.9285 Y33.2524
G0 Z-0.5
G1 F200.0 Z-2.0
G1 F400.0 X15.0715
G1 X15.0703 Y5.25
G1 X14.9297
G1 X14.9285 Y33.2524
G0 Z5.0
G0 Y34.4524
G0 Z-0.5
G1 F200.0 Z-2.0
G1 F400.0 X16.2706
G1 X16.2692 Y4.05
G1 X13.7308
G1 X13.7294 Y34.4524
G1 X14.9285
G0 Z5.0
G0 Y35.6524
G0 Z-0.5
G1 F200.0 Z-2.0
G1 F400.0 X17.4695
G1 X17.4681 Y2.85
G1 X12.5319
G1 X12.5305 Y35.6524
G1 X14.9285
G0 Z5.0
G0 Y36.8524
G0 Z-0.5
G1 F200.0 Z-2.0
G1 F400.0 X18.6684
G1 X18.6669 Y1.65
G1 X11.3331
G1 X11.3316 Y36.8524
G1 X14.9285
G0 Z5.0
G0 Y38.0524
G0 Z-0.5
G1 F200.0 Z-2.0
G1 F400.0 X19.8672
G1 X19.8656 Y0.45
G1 X10.1344
G1 X10.1328 Y38.0524
G1 X14.9285
G0 Z5.0
G0 Y39.25
G0 Z-0.5
G1 F200.0 Z-2.0
G1 F400.0 X21.0635
G1 X21.0626 Y0.0009
G3 X21.8126 Y-0.75 I0.75 J-0.0009
G1 X8.1874
G3 X8.9374 Y0.0009 I0.0 J0.75
G1 X8.9365 Y39.25
G1 X14.9285
G0 Z5.0
G0 X8.1874 Y-0.75
G0 Z-1.0
G1 F200.0 Z-2.0
G1 F400.0 X7.7
G0 Z5.0
G0 X8.7517
G0 Z-1.0
G1 F200.0 Z-2.5
G1 F400.0 X7.2
G0 Z5.0
G0 X2.8524 Y2.85
G0 Z-1.0
G1 F200.0 Z-2.5
G1 F400.0 X2.85
G1 Y117.15
G1 X2.8524
G1 Y2.85
G0 Z5.0
G0 X4.0524
G0 Z-1.0
G1 F200.0 Z-2.5
G1 F400.0 Y1.65
G1 X1.65
G1 Y118.35
G1 X4.0524
G1 Y2.85
G0 Z5.0
G0 X5.2524
G0 Z-1.0
G1 F200.0 Z-2.5
G1 F400.0 Y0.45
G1 X0.45
G1 Y119.55
G1 X5.2524
G1 Y2.85
G0 Z5.0
G0 X6.45
G0 Z-1.0
G1 F200.0 Z-2.5
G1 F400.0 Y0.0
G3 X7.2 Y-0.75 I0.75 J0.0
G1 X0.0
G2 X-0.75 Y0.0 I0.0 J0.75
G1 Y120.0
G2 X0.0 Y120.75 I0.75 J0.0
G1 X7.2
G3 X6.45 Y120.0 I0.0 J-0.75
G1 Y2.85
G0 Z5.0
G0 X3.5524
G0 Z-1.5
G1 F200.0 Z-3.0
G1 F400.0 Y1.65
G1 X1.65
G1 Y118.35
G1 X3.5524
G1 Y2.85
G0 Z5.0
G0 X4.7524
G0 Z-1.5
G1 F200.0 Z-3.0
G1 F400.0 Y0.45
G1 X0.45
G1 Y119.55
G1 X4.7524
G1 Y2.85
G0 Z5.0
G0 X5.95
G0 Z-1.5
G1 F200.0 Z-3.0
G1 F400.0 Y0.0
G3 X6.7 Y-0.75 I0.75 J0.0
G1 X0.0
G2 X-0.75 Y0.0 I0.0 J0.75
G1 Y120.0
G2 X0.0 Y120.75 I0.75 J0.0
G1 X6.7
G3 X5.95 Y120.0 I0.0 J-0.75
G1 Y2.85
G0 Z5.0
G0 X6.7 Y120.75
G0 Z-2.0
G1 F200.0 Z-3.0
G1 F400.0 X9.4525
G0 Z5.0
G0 X22.3 Y-0.75
G0 Z-1.0
G1 F200.0 Z-2.0
G1 F400.0 X21.8126
G1 F200.0 X22.8
G1 Z-2.5
G1 F400.0 X21.2483
G0 Z5.0
G0 X15.1051 Y4.65
G0 Z-1.0
G1 F200.0 Z-2.5
G1 F400.0 X14.8949
G1 X14.8912 Y8.6171
G1 X14.9039 Y19.9931
G3 X14.8916 Y20.3888 I-6.1476 J0.0069
G1 X14.9039 Y31.3755
G3 X14.8916 Y31.7722 I-6.1476 J0.0069
G1 X14.8935 Y33.8524
G1 X15.1065
G1 X15.1088 Y31.3829
G1 X15.0961 Y20.0069
G3 X15.1084 Y19.6112 I6.1476 J-0.0069
G1 X15.0961 Y8.6245
G3 X15.1084 Y8.2277 I6.1476 J-0.0069
G1 X15.1051 Y4.65
G1 F200.0 Y4.05
G1 F400.0 X14.2955
G1 X14.2912 Y8.6171
G1 X14.3039 Y19.9938
G3 X14.2916 Y20.3696 I-5.5476 J0.0062
G1 X14.3039 Y31.3762
G3 X14.2916 Y31.753 I-5.5476 J0.0062
G1 X14.2941 Y34.4524
G1 X15.7059
G1 X15.7088 Y31.3829
G1 X15.6961 Y20.0062
G3 X15.7084 Y19.6304 I5.5476 J-0.0062
G1 X15.6961 Y8.6238
G3 X15.7084 Y8.247 I5.5476 J-0.0062
G1 X15.7045 Y4.05
G1 X15.1051
G0 Z5.0
G0 Y2.85
G0 Z-1.0
G1 F200.0 Z-2.5
G1 F400.0 X13.0966
G1 X13.0912 Y8.6172
G1 X13.1039 Y19.9951
G3 X13.0916 Y20.3278 I-4.3476 J0.0049
G1 X13.1039 Y31.3775
G3 X13.0915 Y31.7109 I-4.3476 J0.0049
G1 X13.0952 Y35.6524
G1 X16.9048
G1 X16.9088 Y31.3828
G1 X16.8961 Y20.0049
G3 X16.9084 Y19.6722 I4.3476 J-0.0049
G1 X16.8961 Y8.6225
G3 X16.9085 Y8.289 I4.3476 J-0.0049
G1 X16.9034 Y2.85
G1 X15.1051
G0 Z5.0
G0 Y1.65
G0 Z-1.0
G1 F200.0 Z-2.5
G1 F400.0 X11.8978
G1 X11.8912 Y8.6173
G1 X11.9039 Y19.9965
G3 X11.8915 Y20.2795 I-3.1476 J0.0035
G1 X11.9039 Y31.3789
G3 X11.8915 Y31.6624 I-3.1476 J0.0035
G1 X11.8964 Y36.8524
G1 X18.1036
G1 X18.1088 Y31.3827
G1 X18.0961 Y20.0035
G3 X18.1085 Y19.7205 I3.1476 J-0.0035
G1 X18.0961 Y8.6211
G3 X18.1085 Y8.3376 I3.1476 J-0.0035
G1 X18.1022 Y1.65
G1 X15.1051
G0 Z5.0
G0 Y0.45
G0 Z-1.0
G1 F200.0 Z-2.5
G1 F400.0 X10.6989
G1 X10.6912 Y8.6174
G1 X10.7039 Y19.9978
G3 X10.6914 Y20.2203 I-1.9476 J0.0022
G1 X10.7039 Y31.3802
G3 X10.6914 Y31.603 I-1.9476 J0.0022
G1 X10.6975 Y38.0524
G1 X19.3025
G1 X19.3088 Y31.3826
G1 X19.2961 Y20.0022
G3 X19.3086 Y19.7797 I1.9476 J-0.0022
G1 X19.2961 Y8.6198
G3 X19.3086 Y8.397 I1.9476 J-0.0022
G1 X19.3011 Y0.45
G1 X15.1051
G0 Z5.0
G0 Y-0.75
G0 Z-1.0
G1 F200.0 Z-2.5
G1 F400.0 X8.7517
G3 X9.5017 Y0.0007 I0.0 J0.75
G1 X9.4936 Y8.6175
G1 X9.5063 Y19.9992
G3 X9.4938 Y20.1369 I-0.75 J0.0008
G1 X9.5063 Y31.3815
G3 X9.4937 Y31.5194 I-0.75 J0.0008
G1 X9.501 Y39.25
G1 X20.499
G1 X20.5064 Y31.3825
G1 X20.4937 Y20.0008
G3 X20.5062 Y19.8631 I0.75 J-0.0008
G1 X20.4937 Y8.6185
G3 X20.5063 Y8.4806 I0.75 J-0.0008
G1 X20.4983 Y0.0007
G3 X21.2483 Y-0.75 I0.75 J-0.0007
G1 X15.1051
G0 Z5.0
G0 X15.0031 Y4.05
G0 Z-1.5
G1 F200.0 Z-3.0
G1 F400.0 X15.0135 Y14.982
G2 X15.0126 Y24.6295 I2244.5819 J5.018
G2 X14.9993 Y25.0197 I5.5342 J0.3849
G1 X15.0082 Y34.4524
G1 X14.9955
G1 X14.9865 Y25.018
G2 Y14.982 I-2244.6342 J-5.018
G1 X14.9969 Y4.05
G0 Z5.0
G0 X13.7969 Y4.0489
G0 Z-1.5
G1 F200.0 Z-3.0
G1 F400.0 X13.7865 Y14.9828
G3 Y25.0172 I-2243.4342 J5.0172
G1 X13.7966 Y35.6524
G1 X16.2094
G1 X16.1993 Y25.0185
G3 X16.2127 Y24.6726 I4.3476 J-0.0041
G3 X16.2135 Y14.9828 I2243.3827 J-4.6726
G1 X16.202 Y2.85
G1 X13.798
G1 X13.7969 Y4.0489
G0 Z5.0
G0 X12.5969 Y4.0477
G0 Z-1.5
G1 F200.0 Z-3.0
G1 F400.0 X12.5865 Y14.9836
G3 Y25.0164 I-2242.2342 J5.0164
G1 X12.5977 Y36.8524
G1 X17.4105
G1 X17.3993 Y25.0174
G3 X17.4128 Y24.7225 I3.1476 J-0.003
G3 X17.4135 Y14.9836 I2242.1826 J-4.7225
G1 X17.4008 Y1.65
G1 X12.5992
G1 X12.5969 Y4.0477
G0 Z5.0
G0 X11.3969 Y4.0466
G0 Z-1.5
G1 F200.0 Z-3.0
G1 F400.0 X11.3865 Y14.9843
G3 Y25.0157 I-2241.0342 J5.0157
G1 X11.3989 Y38.0524
G1 X18.6116
G1 X18.5993 Y25.0162
G3 X18.613 Y24.7838 I1.9476 J-0.0018
G3 X18.6135 Y14.9843 I2240.9824 J-4.7838
G1 X18.5997 Y0.45
G1 X11.4003
G1 X11.3969 Y4.0466
G0 Z5.0
G0 X10.1993 Y4.0455
G0 Z-1.5
G1 F200.0 Z-3.0
G1 F400.0 X10.1889 Y14.9851
G3 Y25.0149 I-2239.8366 J5.0149
G1 X10.2024 Y39.25
G1 X19.8104
G1 X19.7969 Y25.0151
G3 X19.8108 Y24.8707 I0.75 J-0.0007
G3 X19.8111 Y14.9851 I2239.7846 J-4.8707
G1 X19.7969 Y0.0007
G3 X20.5469 Y-0.75 I0.75 J-0.0007
G1 X9.4531
G3 X10.2031 Y0.0007 I0.0 J0.75
G1 X10.1993 Y4.0455
G0 Z5.0
G0 X9.4531 Y-0.75
G0 Z-2.0
G1 F200.0 Z-3.0
G1 F400.0 X6.7
G0 Z5.0
G0 X10.2881
G0 Z-2.0
G1 F200.0 Z-3.5
G1 F400.0 X6.2
G0 Z5.0
G0 X3.0524 Y1.65
G0 Z-2.0
G1 F200.0 Z-3.5
G1 F400.0 X1.65
G1 Y118.35
G1 X3.0524
G1 Y1.65
G0 Z5.0
G0 X4.2524
G0 Z-2.0
G1 F200.0 Z-3.5
G1 F400.0 Y0.45
G1 X0.45
G1 Y119.55
G1 X4.2524
G1 Y1.65
G0 Z5.0
G0 X5.45
G0 Z-2.0
G1 F200.0 Z-3.5
G1 F400.0 Y0.0
G3 X6.2 Y-0.75 I0.75 J0.0
G1 X0.0
G2 X-0.75 Y0.0 I0.0 J0.75
G1 Y120.0
G2 X0.0 Y120.75 I0.75 J0.0
G1 X6.2
G3 X5.45 Y120.0 I0.0 J-0.75
G1 Y1.65
G0 Z5.0
G0 X21.2487 Y120.75
G0 Z-1.5
G1 F200.0 Z-2.5
G1 F400.0 X22.8
G2 X23.55 Y120.0 I0.0 J-0.75
G1 Y0.0
G2 X22.8 Y-0.75 I-0.75 J0.0
G1 X30.0
G3 X30.75 Y0.0 I0.0 J0.75
G1 Y120.0
G3 X30.0 Y120.75 I-0.75 J0.0
G1 X22.8
G0 Z5.0
G0 X20.5475
G0 Z-1.5
G1 F200.0 Z-3.0
G1 F400.0 X23.3
G2 X24.05 Y120.0 I0.0 J-0.75
G1 Y0.0
G2 X23.3 Y-0.75 I-0.75 J0.0
G1 X30.0
G3 X30.75 Y0.0 I0.0 J0.75
G1 Y120.0
G3 X30.0 Y120.75 I-0.75 J0.0
G1 X23.3
G0 Z5.0
G0 X15.0037 Y115.95
G0 Z-1.5
G1 F200.0 Z-3.0
G1 F400.0 X15.014 Y105.0306
G3 Y94.9694 I2251.6971 J-5.0306
G1 X15.0051 Y85.5476
G1 X14.9912
G1 X15.0001 Y94.9677
G3 X14.9868 Y95.3576 I-5.5476 J0.0053
G3 X14.986 Y105.0306 I-2251.7505 J4.6424
G1 X14.9963 Y115.95
G0 Z5.0
G0 Y117.15
G0 Z-1.5
G1 F200.0 Z-3.0
G1 F400.0 X16.2026
G1 X16.214 Y105.0298
G3 Y94.9702 I2250.4971 J-5.0298
G1 X16.204 Y84.3476
G1 X13.7901
G1 X13.8001 Y94.9689
G3 X13.7867 Y95.3145 I-4.3476 J0.0041
G3 X13.786 Y105.0298 I-2250.5504 J4.6855
G1 X13.7975 Y117.15
G1 X14.9963
G0 Z5.0
G0 Y118.35
G0 Z-1.5
G1 F200.0 Z-3.0
G1 F400.0 X17.4014
G1 X17.414 Y105.029
G3 Y94.971 I2249.2971 J-5.029
G1 X17.4028 Y83.1476
G1 X12.5889
G1 X12.6001 Y94.97
G3 X12.5866 Y95.2647 I-3.1476 J0.003
G3 X12.586 Y105.029 I-2249.3503 J4.7353
G1 X12.5986 Y118.35
G1 X14.9963
G0 Z5.0
G0 Y119.55
G0 Z-1.5
G1 F200.0 Z-3.0
G1 F400.0 X18.6003
G1 X18.614 Y105.0283
G3 Y94.9717 I2248.0971 J-5.0283
G1 X18.6017 Y81.9476
G1 X11.3878
G1 X11.4001 Y94.9711
G3 X11.3865 Y95.2034 I-1.9476 J0.0018
G3 X11.386 Y105.0283 I-2248.1501 J4.7966
G1 X11.3997 Y119.55
G1 X14.9963
G0 Z5.0
G0 Y120.75
G0 Z-1.5
G1 F200.0 Z-3.0
G1 F400.0 X20.5475
G3 X19.7975 Y119.9993 I0.0 J-0.75
G1 X19.8116 Y105.0275
G3 Y94.9725 I2246.8995 J-5.0275
G1 X19.7982 Y80.75
G1 X10.1891
G1 X10.2025 Y94.9723
G3 X10.1887 Y95.1165 I-0.75 J0.0007
G3 X10.1884 Y105.0275 I-2246.9523 J4.8835
G1 X10.2025 Y119.9993
G3 X9.4525 Y120.75 I-0.75 J0.0007
G1 X14.9963
G0 Z5.0
G0 Y117.15
G0 Z-2.0
G1 F200.0 Z-3.5
G1 F400.0 X15.3699
G2 X15.3625 Y100.0098 I-4721.5347 J-6.5448
G3 Y99.9902 I4.3476 J-0.0098
G2 X15.3717 Y84.3476 I-4721.5273 J-10.5954
G1 X14.6283
G2 X14.6375 Y99.9902 I4721.6296 J5.0471
G3 Y100.0098 I-4.3476 J0.0098
G2 X14.6301 Y117.15 I4721.6204 J10.5955
G1 X14.9963
G0 Z5.0
G0 Y118.35
G0 Z-2.0
G1 F200.0 Z-3.5
G1 F400.0 X16.5681
G2 X16.5625 Y100.0071 I-4722.7329 J-7.7448
G3 Y99.9929 I3.1476 J-0.0071
G2 X16.5703 Y83.1476 I-4722.7273 J-10.5981
G1 X13.4297
G2 X13.4375 Y99.9929 I4722.8282 J6.2471
G3 Y100.0071 I-3.1476 J0.0071
G2 X13.4319 Y118.35 I4722.8204 J10.5982
G1 X14.9963
G0 Z5.0
G0 Y119.55
G0 Z-2.0
G1 F200.0 Z-3.5
G1 F400.0 X17.7659
G2 X17.7625 Y100.0044 I-4723.9308 J-8.9448
G3 Y99.9956 I1.9476 J-0.0044
G2 X17.7685 Y81.9476 I-4723.9273 J-10.6008
G1 X12.2315
G2 X12.2375 Y99.9956 I4724.0265 J7.4471
G3 Y100.0044 I-1.9476 J0.0044
G2 X12.2341 Y119.55 I4724.0204 J10.6009
G1 X14.9963
G0 Z5.0
G0 Y120.75
G0 Z-2.0
G1 F200.0 Z-3.5
G1 F400.0 X19.7127
G3 X18.9627 Y119.9985 I0.0 J-0.75
G2 X18.9601 Y100.0017 I-4725.1275 J-9.3934
G3 Y99.9983 I0.75 J-0.0017
G2 X18.9641 Y80.75 I-4725.1249 J-10.6035
G1 X11.0359
G2 X11.0399 Y99.9983 I4725.222 J8.6447
G3 Y100.0017 I-0.75 J0.0017
G2 X11.0373 Y119.9985 I4725.218 J10.6036
G3 X10.2873 Y120.75 I-0.75 J0.0015
G1 X14.9963
G0 Z5.0
G0 Y118.35
G0 Z-2.5
G1 F200.0 Z-4.0
G1 F400.0 X15.4818
G1 X15.4888 Y110.7737
G1 X15.4754 Y100.0039
G3 Y99.9961 I3.1476 J-0.0039
G1 X15.4888 Y89.2263
G1 X15.4832 Y83.1476
G1 X14.5168
G1 X14.5112 Y89.2263
G1 X14.5246 Y99.9961
G3 Y100.0039 I-3.1476 J0.0039
G1 X14.5112 Y110.7737
G1 X14.5182 Y118.35
G1 X14.9963
G0 Z5.0
G0 Y119.55
G0 Z-2.5
G1 F200.0 Z-4.0
G1 F400.0 X16.6807
G1 X16.6888 Y110.7735
G1 X16.6754 Y100.0024
G3 Y99.9976 I1.9476 J-0.0024
G1 X16.6888 Y89.2265
G1 X16.6821 Y81.9476
G1 X13.3179
G1 X13.3112 Y89.2265
G1 X13.3246 Y99.9976
G3 Y100.0024 I-1.9476 J0.0024
G1 X13.3112 Y110.7735
G1 X13.3193 Y119.55
G1 X14.9963
G0 Z5.0
G0 Y120.75
G0 Z-2.5
G1 F200.0 Z-4.0
G1 F400.0 X18.6279
G3 X17.8779 Y119.9993 I0.0 J-0.75
G1 X17.8864 Y110.7734
G1 X17.873 Y100.0009
G3 Y99.9991 I0.75 J-0.0009
G1 X17.8864 Y89.2266
G1 X17.8786 Y80.75
G1 X12.1214
G1 X12.1136 Y89.2266
G1 X12.127 Y99.9991
G3 Y100.0009 I-0.75 J0.0009
G1 X12.1136 Y110.7734
G1 X12.1221 Y119.9993
G3 X11.3721 Y120.75 I-0.75 J0.0007
G1 X14.9963
G0 Z5.0
G0 X15.0038 Y119.55
G0 Z-3.0
G1 F200.0 Z-4.5
G1 F400.0 X15.0191 Y101.6894
G3 Y98.3106 I614.3313 J-1.6894
G1 X15.0051 Y81.9476
G1 X14.9949
G1 X14.9809 Y98.3106
G3 Y101.6894 I-614.3289 J1.6894
G1 X14.9962 Y119.55
G0 Z5.0
G0 X13.049 Y120.75
G0 Z-3.0
G1 F200.0 Z-4.5
G1 F400.0 X16.951
G0 Z5.0
G0 X6.2
G0 Z-2.5
G1 F200.0 Z-3.5
G1 F400.0 X10.2873
G0 Z5.0
G0 X5.7
G0 Z-2.5
G1 F200.0 Z-4.0
G1 F400.0 X11.3721
G0 Z5.0
G0 X2.5524 Y118.35
G0 Z-2.5
G1 F200.0 Z-4.0
G1 F400.0 Y1.65
G1 X1.65
G1 Y118.35
G1 X2.5524
G0 Z5.0
G0 X3.7524
G0 Z-2.5
G1 F200.0 Z-4.0
G1 F400.0 Y0.45
G1 X0.45
G1 Y119.55
G1 X3.7524
G1 Y118.35
G0 Z5.0
G0 X4.95
G0 Z-2.5
G1 F200.0 Z-4.0
G1 F400.0 Y0.0
G3 X5.7 Y-0.75 I0.75 J0.0
G1 X0.0
G2 X-0.75 Y0.0 I0.0 J0.75
G1 Y120.0
G2 X0.0 Y120.75 I0.75 J0.0
G1 X5.7
G3 X4.95 Y120.0 I0.0 J-0.75
G1 Y118.35
G0 Z5.0
G0 X23.3 Y-0.75
G0 Z-2.0
G1 F200.0 Z-3.0
G1 F400.0 X20.5469
G0 Z5.0
G0 X23.8
G0 Z-2.0
G1 F200.0 Z-3.5
G1 F400.0 X19.7119
G0 Z5.0
G0 X15.3691 Y2.85
G0 Z-2.0
G1 F200.0 Z-3.5
G1 F400.0 X14.6309
G2 X14.6382 Y19.9902 I4718.1168 J6.5519
G3 Y20.0098 I-4.3476 J0.0098
G2 X14.629 Y35.6524 I4718.1094 J10.5884
G1 X15.371
G2 X15.3618 Y20.0098 I-4718.3045 J-5.0545
G3 Y19.9902 I4.3476 J-0.0098
G2 X15.3691 Y2.85 I-4718.2953 J-10.5881
G0 Z5.0
G0 Y1.65
G0 Z-2.0
G1 F200.0 Z-3.5
G1 F400.0 X13.4327
G2 X13.4382 Y19.9929 I4719.3149 J7.7519
G3 Y20.0071 I-3.1476 J0.0071
G2 X13.4305 Y36.8524 I4719.3094 J10.5911
G1 X16.5695
G2 X16.5618 Y20.0071 I-4719.503 J-6.2545
G3 Y19.9929 I3.1476 J-0.0071
G2 X16.5673 Y1.65 I-4719.4953 J-10.5908
G1 X15.3691
G0 Z5.0
G0 Y0.45
G0 Z-2.0
G1 F200.0 Z-3.5
G1 F400.0 X12.2348
G2 X12.2382 Y19.9956 I4720.5128 J8.9519
G3 Y20.0044 I-1.9476 J0.0044
G2 X12.2322 Y38.0524 I4720.5094 J10.5938
G1 X17.7678
G2 X17.7618 Y20.0044 I-4720.7013 J-7.4545
G3 Y19.9956 I1.9476 J-0.0044
G2 X17.7652 Y0.45 I-4720.6953 J-10.5935
G1 X15.3691
G0 Z5.0
G0 Y-0.75
G0 Z-2.0
G1 F200.0 Z-3.5
G1 F400.0 X10.2881
G3 X11.0381 Y0.0015 I0.0 J0.75
G2 X11.0406 Y19.9983 I4721.7095 J9.4004
G3 Y20.0017 I-0.75 J0.0017
G2 X11.0367 Y39.25 I4721.707 J10.5964
G1 X18.9633
G2 X18.9594 Y20.0017 I-4721.8969 J-8.6521
G3 Y19.9983 I0.75 J-0.0017
G2 X18.9619 Y0.0015 I-4721.8929 J-10.5962
G3 X19.7119 Y-0.75 I0.75 J-0.0015
G1 X15.3691
G0 Z5.0
G0 Y1.65
G0 Z-2.5
G1 F200.0 Z-4.0
G1 F400.0 X14.5192
G1 X14.5122 Y9.2448
G1 X14.5256 Y19.9961
G3 Y20.0039 I-3.1476 J0.0039
G1 X14.5122 Y30.7552
G1 X14.5178 Y36.8524
G1 X15.4822
G1 X15.4878 Y30.7552
G1 X15.4744 Y20.0039
G3 Y19.9961 I3.1476 J-0.0039
G1 X15.4878 Y9.2448
G1 X15.4808 Y1.65
G1 X15.3691
G0 Z5.0
G0 Y0.45
G0 Z-2.5
G1 F200.0 Z-4.0
G1 F400.0 X13.3203
G1 X13.3122 Y9.245
G1 X13.3256 Y19.9976
G3 Y20.0024 I-1.9476 J0.0024
G1 X13.3122 Y30.755
G1 X13.319 Y38.0524
G1 X16.681
G1 X16.6878 Y30.755
G1 X16.6744 Y20.0024
G3 Y19.9976 I1.9476 J-0.0024
G1 X16.6878 Y9.245
G1 X16.6797 Y0.45
G1 X15.3691
G0 Z5.0
G0 Y-0.75
G0 Z-2.5
G1 F200.0 Z-4.0
G1 F400.0 X11.3732
G3 X12.1232 Y0.0007 I0.0 J0.75
G1 X12.1146 Y9.2452
G1 X12.128 Y19.9991
G3 Y20.0009 I-0.75 J0.0009
G1 X12.1146 Y30.7548
G1 X12.1225 Y39.25
G1 X17.8775
G1 X17.8854 Y30.7548
G1 X17.872 Y20.0009
G3 Y19.9991 I0.75 J-0.0009
G1 X17.8854 Y9.2452
G1 X17.8768 Y0.0007
G3 X18.6268 Y-0.75 I0.75 J-0.0007
G1 X15.3691
G0 Z5.0
G0 X14.9978 Y0.45
G0 Z-3.0
G1 F200.0 Z-4.5
G1 F400.0 X14.9824 Y18.3392
G3 Y21.6608 I-603.4867 J1.6608
G1 X14.9965 Y38.0524
G1 X15.0035
G1 X15.0176 Y21.6608
G3 Y18.3392 I603.4892 J-1.6608
G1 X15.0022 Y0.45
G0 Z5.0
G0 X16.9494 Y-0.75
G0 Z-3.0
G1 F200.0 Z-4.5
G1 F400.0 X13.0506
G0 Z5.0
G0 X11.3732
G0 Z-3.0
G1 F200.0 Z-4.0
G1 F400.0 X5.7
G0 Z5.0
G0 X2.0524 Y1.65
G0 Z-3.0
G1 F200.0 Z-4.5
G1 F400.0 X1.65
G1 Y118.35
G1 X2.0524
G1 Y1.65
G0 Z5.0
G0 X3.2524
G0 Z-3.0
G1 F200.0 Z-4.5
G1 F400.0 Y0.45
G1 X0.45
G1 Y119.55
G1 X3.2524
G1 Y1.65
G0 Z5.0
G0 X4.45
G0 Z-3.0
G1 F200.0 Z-4.5
G1 F400.0 Y0.0
G3 X5.2 Y-0.75 I0.75 J0.0
G1 X0.0
G2 X-0.75 Y0.0 I0.0 J0.75
G1 Y120.0
G2 X0.0 Y120.75 I0.75 J0.0
G1 X5.2
G3 X4.45 Y120.0 I0.0 J-0.75
G1 Y1.65
G0 Z5.0
G0 X19.7127 Y120.75
G0 Z-2.5
G1 F200.0 Z-3.5
G1 F400.0 X23.8
G2 X24.55 Y120.0 I0.0 J-0.75
G1 Y0.0
G2 X23.8 Y-0.75 I-0.75 J0.0
G1 X30.0
G3 X30.75 Y0.0 I0.0 J0.75
G1 Y120.0
G3 X30.0 Y120.75 I-0.75 J0.0
G1 X23.8
G0 Z5.0
G0 X18.6279
G0 Z-3.0
G1 F200.0 Z-4.0
G1 F400.0 X24.3
G2 X25.05 Y120.0 I0.0 J-0.75
G1 Y0.0
G2 X24.3 Y-0.75 I-0.75 J0.0
G1 X30.0
G3 X30.75 Y0.0 I0.0 J0.75
G1 Y120.0
G3 X30.0 Y120.75 I-0.75 J0.0
G1 X24.3
G0 Z5.0
G0 Y-0.75
G0 Z-3.0
G1 F200.0 Z-4.0
G1 F400.0 X18.6268
G0 Z5.0
G0 X24.8
G0 Z-3.0
G1 F200.0 Z-4.5
G1 F400.0 X16.9494
G2 X16.1994 Y0.0006 I0.0 J0.75
G1 X16.2152 Y18.3404
G2 Y21.6596 I602.2916 J1.6596
G1 X16.2 Y39.25
G1 X13.8
G1 X13.7848 Y21.6596
G2 Y18.3404 I-602.2891 J-1.6596
G1 X13.8006 Y0.0006
G2 X13.0506 Y-0.75 I-0.75 J-0.0006
G1 X5.2
G0 Z5.0
G0 Y120.75
G0 Z-3.5
G1 F200.0 Z-4.5
G1 F400.0 X13.049
G2 X13.799 Y119.9994 I0.0 J-0.75
G1 X13.7833 Y101.6882
G2 Y98.3118 I-613.1313 J-1.6882
G1 X13.7983 Y80.75
G1 X16.2017
G1 X16.2167 Y98.3118
G2 Y101.6882 I613.1337 J1.6882
G1 X16.201 Y119.9994
G2 X16.951 Y120.75 I0.75 J0.0006
G1 X24.8
G2 X25.55 Y120.0 I0.0 J-0.75
G1 Y0.0
G2 X24.8 Y-0.75 I-0.75 J0.0
G1 X30.0
G3 X30.75 Y0.0 I0.0 J0.75
G1 Y120.0
G3 X30.0 Y120.75 I-0.75 J0.0
G1 X24.8
G0 Z5.0
G0 X4.7
G0 Z-3.5
G1 F200.0 Z-5.0
G1 F400.0 X25.3
G2 X26.05 Y120.0 I0.0 J-0.75
G1 Y0.0
G2 X25.3 Y-0.75 I-0.75 J0.0
G1 X30.0
G3 X30.75 Y0.0 I0.0 J0.75
G1 Y120.0
G3 X30.0 Y120.75 I-0.75 J0.0
G1 X25.3
G0 Z5.0
G0 X2.1524 Y118.95
G0 Z-3.5
G1 F200.0 Z-5.0
G1 F400.0 Y1.05
G1 X1.05
G1 Y118.95
G1 X2.1524
G1 F200.0 Y119.55
G1 F400.0 X2.7524
G1 Y0.45
G1 X0.45
G1 Y119.55
G1 X2.1524
G0 Z5.0
G0 Y120.75
G0 Z-3.5
G1 F200.0 Z-5.0
G1 F400.0 X4.7
G3 X3.95 Y120.0 I0.0 J-0.75
G1 Y0.0
G3 X4.7 Y-0.75 I0.75 J0.0
G1 X0.0
G2 X-0.75 Y0.0 I0.0 J0.75
G1 Y120.0
G2 X0.0 Y120.75 I0.75 J0.0
G1 X2.1524
G0 Z5.0
G0 X25.3 Y-0.75
G0 Z-4.0
G1 F200.0 Z-5.0
G1 F400.0 X4.7
G0 Z5.0
G0 X1.6524 Y1.05
G0 Z-4.0
G1 F200.0 Z-5.5
G1 F400.0 X1.05
G1 Y118.95
G1 X1.6524
G1 Y1.05
G1 F200.0 Y0.45
G1 F400.0 X0.45
G1 Y119.55
G1 X2.2524
G1 Y0.45
G1 X1.6524
G0 Z5.0
G0 Y-0.75
G0 Z-4.0
G1 F200.0 Z-5.5
G1 F400.0 X0.0
G2 X-0.75 Y0.0 I0.0 J0.75
G1 Y120.0
G2 X0.0 Y120.75 I0.75 J0.0
G1 X4.2
G3 X3.45 Y120.0 I0.0 J-0.75
G1 Y0.0
G3 X4.2 Y-0.75 I0.75 J0.0
G1 X1.6524
G0 Z5.0
G0 X25.8
G0 Z-4.0
G1 F200.0 Z-5.5
G1 F400.0 X4.2
G0 Z5.0
G0 Y120.75
G0 Z-4.5
G1 F200.0 Z-5.5
G1 F400.0 X25.8
G2 X26.55 Y120.0 I0.0 J-0.75
G1 Y0.0
G2 X25.8 Y-0.75 I-0.75 J0.0
G1 X30.0
G3 X30.75 Y0.0 I0.0 J0.75
G1 Y120.0
G3 X30.0 Y120.75 I-0.75 J0.0
G1 X25.8
G0 Z5.0
G0 X3.7
G0 Z-4.5
G1 F200.0 Z-6.0
G1 F400.0 X26.3
G2 X27.05 Y120.0 I0.0 J-0.75
G1 Y0.0
G2 X26.3 Y-0.75 I-0.75 J0.0
G1 X30.0
G3 X30.75 Y0.0 I0.0 J0.75
G1 Y120.0
G3 X30.0 Y120.75 I-0.75 J0.0
G1 X26.3
G0 Z5.0
G0 X1.1524 Y118.95
G0 Z-4.5
G1 F200.0 Z-6.0
G1 F400.0 Y1.05
G1 X1.05
G1 Y118.95
G1 X1.1524
G1 F200.0 X1.7524
G1 F400.0 Y0.45
G1 X0.45
G1 Y119.55
G1 X1.7524
G1 Y118.95
G0 Z5.0
G0 X2.95
G0 Z-4.5
G1 F200.0 Z-6.0
G1 F400.0 Y0.0
G3 X3.7 Y-0.75 I0.75 J0.0
G1 X0.0
G2 X-0.75 Y0.0 I0.0 J0.75
G1 Y120.0
G2 X0.0 Y120.75 I0.75 J0.0
G1 X3.7
G3 X2.95 Y120.0 I0.0 J-0.75
G1 Y118.95
G0 Z5.0
G0 X26.3 Y-0.75
G0 Z-5.0
G1 F200.0 Z-6.0
G1 F400.0 X3.7
G0 Z5.0
G0 X1.2524 Y0.45
G0 Z-5.0
G1 F200.0 Z-6.5
G1 F400.0 X0.45
G1 Y119.55
G1 X1.2524
G1 Y0.45
G0 Z5.0
G0 X2.45
G0 Z-5.0
G1 F200.0 Z-6.5
G1 F400.0 Y0.0
G3 X3.2 Y-0.75 I0.75 J0.0
G1 X0.0
G2 X-0.75 Y0.0 I0.0 J0.75
G1 Y120.0
G2 X0.0 Y120.75 I0.75 J0.0
G1 X3.2
G3 X2.45 Y120.0 I0.0 J-0.75
G1 Y0.45
G0 Z5.0
G0 X26.8 Y-0.75
G0 Z-5.0
G1 F200.0 Z-6.5
G1 F400.0 X3.2
G0 Z5.0
G0 Y120.75
G0 Z-5.5
G1 F200.0 Z-6.5
G1 F400.0 X26.8
G2 X27.55 Y120.0 I0.0 J-0.75
G1 Y0.0
G2 X26.8 Y-0.75 I-0.75 J0.0
G1 X30.0
G3 X30.75 Y0.0 I0.0 J0.75
G1 Y120.0
G3 X30.0 Y120.75 I-0.75 J0.0
G1 X26.8
G0 Z5.0
G0 X2.7
G0 Z-5.5
G1 F200.0 Z-7.0
G1 F400.0 X27.3
G2 X28.05 Y120.0 I0.0 J-0.75
G1 Y0.0
G2 X27.3 Y-0.75 I-0.75 J0.0
G1 X30.0
G3 X30.75 Y0.0 I0.0 J0.75
G1 Y120.0
G3 X30.0 Y120.75 I-0.75 J0.0
G1 X27.3
G0 Z5.0
G0 X29.1392 Y120.15
G0 Z-6.0
G1 F200.0 Z-7.5
G2 F400.0 X29.1476 Y120.0 I-1.3392 J-0.15
G1 Y0.0
G2 X29.1392 Y-0.15 I-1.3476 J0.0
G1 X30.0
G3 X30.15 Y0.0 I0.0 J0.15
G1 Y120.0
G3 X30.0 Y120.15 I-0.15 J0.0
G1 X29.1392
G0 Z5.0
G0 X0.7524 Y119.55
G0 Z-5.5
G1 F200.0 Z-7.0
G1 F400.0 Y0.45
G1 X0.45
G1 Y119.55
G1 X0.7524
G0 Z5.0
G0 X1.95
G0 Z-5.5
G1 F200.0 Z-7.0
G1 F400.0 Y0.0
G3 X2.7 Y-0.75 I0.75 J0.0
G1 X0.0
G2 X-0.75 Y0.0 I0.0 J0.75
G1 Y120.0
G2 X0.0 Y120.75 I0.75 J0.0
G1 X2.7
G3 X1.95 Y120.0 I0.0 J-0.75
G1 Y119.55
G0 Z5.0
G0 X27.3 Y-0.75
G0 Z-6.0
G1 F200.0 Z-7.0
G1 F400.0 X2.7
G0 Z5.0
G0 X0.8608 Y-0.15
G0 Z-6.0
G1 F200.0 Z-7.5
G1 F400.0 X0.0
G2 X-0.15 Y0.0 I0.0 J0.15
G1 Y120.0
G2 X0.0 Y120.15 I0.15 J0.0
G1 X0.8608
G3 X0.8524 Y120.0 I1.3392 J-0.15
G1 Y0.0
G3 X0.8608 Y-0.15 I1.3476 J0.0
G1 F200.0 X1.4547 Y-0.0835
G3 F400.0 X2.2 Y-0.75 I0.7453 J0.0835
G1 X0.0
G2 X-0.75 Y0.0 I0.0 J0.75
G1 Y120.0
G2 X0.0 Y120.75 I0.75 J0.0
G1 X2.2
G3 X1.45 Y120.0 I0.0 J-0.75
G1 Y0.0
G3 X1.4547 Y-0.0835 I0.75 J0.0
G0 Z5.0
G0 X27.8 Y-0.75
G0 Z-6.0
G1 F200.0 Z-7.5
G1 F400.0 X2.2
G0 Z5.0
G0 Y120.75
G0 Z-6.5
G1 F200.0 Z-7.5
G1 F400.0 X27.8
G2 X28.55 Y120.0 I0.0 J-0.75
G1 Y0.0
G2 X27.8 Y-0.75 I-0.75 J0.0
G1 X30.0
G3 X30.75 Y0.0 I0.0 J0.75
G1 Y120.0
G3 X30.0 Y120.75 I-0.75 J0.0
G1 X27.8
G0 Z5.0
G0 X29.6392 Y120.15
G0 Z-6.5
G1 F200.0 Z-8.0
G2 F400.0 X29.6476 Y120.0 I-1.3392 J-0.15
G1 Y0.0
G2 X29.6392 Y-0.15 I-1.3476 J0.0
G1 X30.0
G3 X30.15 Y0.0 I0.0 J0.15
G1 Y120.0
G3 X30.0 Y120.15 I-0.15 J0.0
G1 X29.6392
G0 Z5.0
G0 X1.7 Y120.75
G0 Z-6.5
G1 F200.0 Z-8.0
G1 F400.0 X28.3
G2 X29.05 Y120.0 I0.0 J-0.75
G1 Y0.0
G2 X28.3 Y-0.75 I-0.75 J0.0
G1 X30.0
G3 X30.75 Y0.0 I0.0 J0.75
G1 Y120.0
G3 X30.0 Y120.75 I-0.75 J0.0
G1 X28.3
G0 Z5.0
G0 X30.1473 Y120.0283
G0 Z-7.0
G1 F200.0 Z-8.5
G2 F400.0 X30.1476 Y120.0 I-1.3473 J-0.0283
G1 Y0.0
G2 X30.1473 Y-0.0283 I-1.3476 J0.0
G3 X30.15 Y0.0 I-0.1473 J0.0283
G1 Y120.0
G3 X30.1473 Y120.0283 I-0.15 J0.0
G0 Z5.0
G0 X0.3608 Y120.15
G0 Z-6.5
G1 F200.0 Z-8.0
G3 F400.0 X0.3524 Y120.0 I1.3392 J-0.15
G1 Y0.0
G3 X0.3608 Y-0.15 I1.3476 J0.0
G1 X0.0
G2 X-0.15 Y0.0 I0.0 J0.15
G1 Y120.0
G2 X0.0 Y120.15 I0.15 J0.0
G1 X0.3608
G1 F200.0 X0.9547 Y120.0835
G3 F400.0 X0.95 Y120.0 I0.7453 J-0.0835
G1 Y0.0
G3 X1.7 Y-0.75 I0.75 J0.0
G1 X0.0
G2 X-0.75 Y0.0 I0.0 J0.75
G1 Y120.0
G2 X0.0 Y120.75 I0.75 J0.0
G1 X1.7
G3 X0.9547 Y120.0835 I0.0 J-0.75
G0 Z5.0
G0 X28.3 Y-0.75
G0 Z-7.0
G1 F200.0 Z-8.0
G1 F400.0 X1.7
G0 Z5.0
G0 X-0.1473 Y-0.0283
G0 Z-7.0
G1 F200.0 Z-8.5
G2 F400.0 X-0.15 Y0.0 I0.1473 J0.0283
G1 Y120.0
G2 X-0.1473 Y120.0283 I0.15 J0.0
G3 X-0.1476 Y120.0 I1.3473 J-0.0283
G1 Y0.0
G3 X-0.1473 Y-0.0283 I1.3476 J0.0
G1 F200.0 X0.4502 Y-0.0158
G3 F400.0 X1.2 Y-0.75 I0.7498 J0.0158
G1 X0.0
G2 X-0.75 Y0.0 I0.0 J0.75
G1 Y120.0
G2 X0.0 Y120.75 I0.75 J0.0
G1 X1.2
G3 X0.45 Y120.0 I0.0 J-0.75
G1 Y0.0
G3 X0.4502 Y-0.0158 I0.75 J0.0
G0 Z5.0
G0 X28.8 Y-0.75
G0 Z-7.0
G1 F200.0 Z-8.5
G1 F400.0 X1.2
G0 Z5.0
G0 Y120.75
G0 Z-7.5
G1 F200.0 Z-8.5
G1 F400.0 X28.8
G2 X29.55 Y120.0 I0.0 J-0.75
G1 Y0.0
G2 X28.8 Y-0.75 I-0.75 J0.0
G1 X30.0
G3 X30.75 Y0.0 I0.0 J0.75
G1 Y120.0
G3 X30.0 Y120.75 I-0.75 J0.0
G1 X28.8
G0 Z5.0
G0 X0.7
G0 Z-7.5
G1 F200.0 Z-9.0
G3 F400.0 X-0.05 Y120.0 I0.0 J-0.75
G1 Y0.0
G3 X0.7 Y-0.75 I0.75 J0.0
G1 X0.0
G2 X-0.75 Y0.0 I0.0 J0.75
G1 Y120.0
G2 X0.0 Y120.75 I0.75 J0.0
G1 X0.7
G1 X29.3
G2 X30.05 Y120.0 I0.0 J-0.75
G1 Y0.0
G2 X29.3 Y-0.75 I-0.75 J0.0
G1 X30.0
G3 X30.75 Y0.0 I0.0 J0.75
G1 Y120.0
G3 X30.0 Y120.75 I-0.75 J0.0
G1 X29.3
G0 Z5.0
G0 Y-0.75
G0 Z-8.0
G1 F200.0 Z-9.0
G1 F400.0 X0.7
G1 F200.0 X0.2
G1 Z-9.5
G1 F400.0 X0.0
G2 X-0.75 Y0.0 I0.0 J0.75
G1 Y120.0
G2 X0.0 Y120.75 I0.75 J0.0
G1 X0.2
G3 X-0.55 Y120.0 I0.0 J-0.75
G1 Y0.0
G3 X0.2 Y-0.75 I0.75 J0.0
G0 Z5.0
G0 X29.8
G0 Z-8.0
G1 F200.0 Z-9.5
G1 F400.0 X0.2
G0 Z5.0
G0 Y120.75
G0 Z-8.5
G1 F200.0 Z-9.5
G1 F400.0 X29.8
G2 X30.55 Y120.0 I0.0 J-0.75
G1 Y0.0
G2 X29.8 Y-0.75 I-0.75 J0.0
G1 X30.0
G3 X30.75 Y0.0 I0.0 J0.75
G1 Y120.0
G3 X30.0 Y120.75 I-0.75 J0.0
G1 X29.8
G1 F200.0 Z-9.7
G1 F400.0 X30.0
G2 X30.75 Y120.0 I0.0 J-0.75
G1 Y0.0
G2 X30.0 Y-0.75 I-0.75 J0.0
G1 X0.0
G2 X-0.75 Y0.0 I0.0 J0.75
G1 Y120.0
G2 X0.0 Y120.75 I0.75 J0.0
G1 X29.8
G0 Z5.0
M5
M30
