( Made using CamBam - http://www.cambam.co.uk )
( espacador-quad 3/17/2019 11:07:08 PM )
( T0 : 1.5 )
G21 G90 G64 G40
G0 Z5.0
( T0 : 1.5 )
T0 M6
( 3DSurface1 )
G17
M3 S1000
G0 X-0.75 Y40.0
G0 Z1.0
G1 F100.0 Z-0.5
G1 F300.0 Y80.0
G0 Z5.0
G0 X5.85 Y87.3476
G0 Z1.0
G1 F100.0 Z-0.5
G1 F300.0 Y114.15
G1 X6.0766
G1 X6.0767 Y87.3476
G1 X5.85
G1 F100.0 Y86.7476
G1 F300.0 X5.25
G1 Y114.75
G1 X6.6766
G1 X6.6767 Y86.7476
G1 X5.85
G0 Z5.0
G0 Y85.5476
G0 Z1.0
G1 F100.0 Z-0.5
G1 F300.0 X4.05
G1 Y115.95
G1 X7.8765
G1 X7.8766 Y85.5476
G1 X5.85
G0 Z5.0
G0 Y84.3476
G0 Z1.0
G1 F100.0 Z-0.5
G1 F300.0 X2.85
G1 Y117.15
G1 X9.0764
G1 X9.0765 Y84.3476
G1 X5.85
G0 Z5.0
G0 Y83.1476
G0 Z1.0
G1 F100.0 Z-0.5
G1 F300.0 X1.65
G1 Y118.35
G1 X10.2763
G1 X10.2764 Y83.1476
G1 X5.85
G0 Z5.0
G0 Y81.9476
G0 Z1.0
G1 F100.0 Z-0.5
G1 F300.0 X0.45
G1 Y119.55
G1 X11.4762
G1 X11.4763 Y81.9476
G1 X5.85
G0 Z5.0
G0 Y80.75
G0 Z1.0
G1 F100.0 Z-0.5
G1 F300.0 X0.0
G3 X-0.75 Y80.0 I0.0 J-0.75
G1 Y120.0
G2 X0.0 Y120.75 I0.75 J0.0
G1 X13.4238
G3 X12.6738 Y119.9999 I0.0 J-0.75
G1 Y80.75
G1 X5.85
G0 Z5.0
G0 X13.4238 Y120.75
G0 Z0.5
G1 F100.0 Z-0.5
G1 F300.0 X20.3
G2 X21.05 Y120.0 I0.0 J-0.75
G1 Y0.0
G2 X20.3 Y-0.75 I-0.75 J0.0
G1 X13.4238
G2 X12.6738 Y0.0006 I0.0 J0.75
G1 X12.6949 Y20.7035
G2 X12.6738 Y20.8812 I0.7289 J0.1768
G1 X12.6943 Y39.25
G1 X0.0
G2 X-0.75 Y40.0 I0.0 J0.75
G1 Y0.0
G3 X0.0 Y-0.75 I0.75 J0.0
G1 X13.4238
G0 Z5.0
G0 X6.0813 Y5.85
G0 Z1.0
G1 F100.0 Z-0.5
G1 F300.0 X5.85
G1 Y32.6524
G1 X6.0893
G1 X6.0762 Y20.8885
G3 X6.0968 Y20.3294 I7.3476 J-0.0082
G1 X6.0813 Y5.85
G1 F100.0 X6.6813 Y5.8494
G1 F300.0 X6.6807 Y5.25
G1 X5.25
G1 Y33.2524
G1 X6.69
G1 X6.6762 Y20.8879
G3 X6.6969 Y20.352 I6.7476 J-0.0075
G1 X6.6813 Y5.8494
G0 Z5.0
G0 X7.8813 Y5.8483
G0 Z1.0
G1 F100.0 Z-0.5
G1 F300.0 X7.8796 Y4.05
G1 X4.05
G1 Y34.4524
G1 X7.8913
G1 X7.8762 Y20.8865
G3 X7.8969 Y20.4007 I5.5476 J-0.0062
G1 X7.8813 Y5.8483
G0 Z5.0
G0 X9.0813 Y5.8472
G0 Z1.0
G1 F100.0 Z-0.5
G1 F300.0 X9.0786 Y2.85
G1 X2.85
G1 Y35.6524
G1 X9.0927
G1 X9.0762 Y20.8852
G3 X9.097 Y20.4551 I4.3476 J-0.0049
G1 X9.0813 Y5.8472
G0 Z5.0
G0 X10.2813 Y5.8461
G0 Z1.0
G1 F100.0 Z-0.5
G1 F300.0 X10.2775 Y1.65
G1 X1.65
G1 Y36.8524
G1 X10.294
G1 X10.2762 Y20.8838
G3 X10.2971 Y20.518 I3.1476 J-0.0035
G1 X10.2813 Y5.8461
G0 Z5.0
G0 X11.4813 Y5.845
G0 Z1.0
G1 F100.0 Z-0.5
G1 F300.0 X11.4972 Y20.595
G2 X11.4762 Y20.8825 I1.9266 J0.2853
G1 X11.4953 Y38.0524
G1 X0.45
G1 Y0.45
G1 X11.4765
G1 X11.4813 Y5.845
G0 Z5.0
G0 X6.3202 Y5.8444
G0 Z0.5
G1 F100.0 Z-1.0
G2 F300.0 Y5.25 I-4072.9952 J-0.4423
G1 X5.25
G1 Y33.2524
G1 X6.32
G2 X6.2942 Y20.0241 I-4072.995 J1.3455
G3 Y19.9759 I6.7476 J-0.0241
G2 X6.3202 Y5.8444 I-4072.9691 J-14.5738
G0 Z5.0
G0 X7.5202 Y5.8445
G0 Z0.5
G1 F100.0 Z-1.0
G2 F300.0 X7.52 Y4.05 I-4074.1952 J-0.4425
G1 X4.05
G1 Y34.4524
G1 X7.5202
G2 X7.4941 Y20.0199 I-4074.1952 J0.1455
G3 Y19.9801 I5.5476 J-0.0199
G2 X7.5202 Y5.8445 I-4074.1691 J-14.5781
G0 Z5.0
G0 X8.7202 Y5.8447
G0 Z0.5
G1 F100.0 Z-1.0
G2 F300.0 X8.7194 Y2.85 I-4075.3952 J-0.4426
G1 X2.85
G1 Y35.6524
G1 X8.7201
G2 X8.6941 Y20.0156 I-4075.395 J-1.0545
G3 Y19.9844 I4.3476 J-0.0156
G2 X8.7202 Y5.8447 I-4075.3691 J-14.5824
G0 Z5.0
G0 X9.9202 Y5.8448
G0 Z0.5
G1 F100.0 Z-1.0
G2 F300.0 X9.9185 Y1.65 I-4076.5952 J-0.4427
G1 X1.65
G1 Y36.8524
G1 X9.9196
G2 X9.8941 Y20.0113 I-4076.5946 J-2.2545
G3 Y19.9887 I3.1476 J-0.0113
G2 X9.9202 Y5.8448 I-4076.5691 J-14.5867
G0 Z5.0
G0 X11.1202 Y5.8449
G0 Z0.5
G1 F100.0 Z-1.0
G3 F300.0 X11.0941 Y19.993 I-4077.7952 J-0.4428
G2 Y20.007 I1.9476 J0.007
G3 X11.1188 Y38.0524 I-4077.7691 J14.591
G1 X0.45
G1 Y0.45
G1 X11.1172
G3 X11.1202 Y5.8449 I-4077.7922 J4.9521
G0 Z5.0
G0 X5.8675 Y5.8514
G0 Z0.0
G1 F100.0 Z-1.5
G1 F300.0 X5.8667 Y5.25
G1 X5.25
G1 Y33.2524
G1 X5.8686
G1 X5.8814 Y22.8809
G3 Y17.1191 I1062.3528 J-2.8809
G1 X5.8675 Y5.8514
G0 Z5.0
G0 X7.0675 Y5.8499
G0 Z0.0
G1 F100.0 Z-1.5
G1 F300.0 X7.0652 Y4.05
G1 X4.05
G1 Y34.4524
G1 X7.0671
G1 X7.0814 Y22.88
G3 Y17.12 I1061.1528 J-2.88
G1 X7.0675 Y5.8499
G0 Z5.0
G0 X8.2675 Y5.8484
G0 Z0.0
G1 F100.0 Z-1.5
G1 F300.0 X8.2638 Y2.85
G1 X2.85
G1 Y35.6524
G1 X8.2656
G1 X8.2814 Y22.8791
G3 Y17.1209 I1059.9528 J-2.8791
G1 X8.2675 Y5.8484
G0 Z5.0
G0 X9.4675 Y5.847
G0 Z0.0
G1 F100.0 Z-1.5
G1 F300.0 X9.4623 Y1.65
G1 X1.65
G1 Y36.8524
G1 X9.4641
G1 X9.4814 Y22.8782
G3 Y17.1218 I1058.7528 J-2.8782
G1 X9.4675 Y5.847
G0 Z5.0
G0 X10.6675 Y5.8455
G0 Z0.0
G1 F100.0 Z-1.5
G1 F300.0 X10.6814 Y17.1226
G2 Y22.8774 I1057.5528 J2.8774
G1 X10.6626 Y38.0524
G1 X0.45
G1 Y0.45
G1 X10.6608
G1 X10.6675 Y5.8455
G0 Z5.0
G0 X5.3809 Y5.8487
G0 Z-0.5
G1 F100.0 Z-2.0
G2 F300.0 X5.3805 Y5.25 I-3616.0243 J2.1929
G1 X5.25
G1 Y33.2524
G1 X5.3813
G2 X5.3619 Y20.0223 I-3616.0248 J-1.294
G3 Y19.9777 I6.7476 J-0.0223
G2 X5.3809 Y5.8487 I-3616.0053 J-11.9361
G0 Z5.0
G0 X6.5809 Y5.848
G0 Z-0.5
G1 F100.0 Z-2.0
G2 F300.0 X6.5794 Y4.05 I-3617.2243 J2.1936
G1 X4.05
G1 Y34.4524
G1 X6.5807
G2 X6.5619 Y20.0183 I-3617.2242 J-2.494
G3 Y19.9817 I5.5476 J-0.0183
G2 X6.5809 Y5.848 I-3617.2053 J-11.9401
G0 Z5.0
G0 X7.7809 Y5.8472
G0 Z-0.5
G1 F100.0 Z-2.0
G2 F300.0 X7.7778 Y2.85 I-3618.4243 J2.1944
G1 X2.85
G1 Y35.6524
G1 X7.7797
G2 X7.7619 Y20.0144 I-3618.4231 J-3.694
G3 Y19.9856 I4.3476 J-0.0144
G2 X7.7809 Y5.8472 I-3618.4053 J-11.9441
G0 Z5.0
G0 X8.9809 Y5.8465
G0 Z-0.5
G1 F100.0 Z-2.0
G2 F300.0 X8.9759 Y1.65 I-3619.6243 J2.1951
G1 X1.65
G1 Y36.8524
G1 X8.9783
G2 X8.9618 Y20.0104 I-3619.6217 J-4.894
G3 Y19.9896 I3.1476 J-0.0104
G2 X8.9809 Y5.8465 I-3619.6053 J-11.948
G0 Z5.0
G0 X10.1809 Y5.8458
G0 Z-0.5
G1 F100.0 Z-2.0
G3 F300.0 X10.1618 Y19.9936 I-3620.8243 J2.1958
G2 Y20.0064 I1.9476 J0.0064
G3 X10.1764 Y38.0524 I-3620.8053 J11.952
G1 X0.45
G1 Y0.45
G1 X10.1736
G3 X10.1809 Y5.8458 I-3620.8171 J7.5916
G0 Z5.0
G0 X5.3992 Y5.8525
G0 Z-1.0
G1 F100.0 Z-2.5
G1 F300.0 X5.3976 Y4.65
G1 X4.65
G1 Y33.8524
G1 X5.3997
G1 X5.4034 Y31.176
G1 X5.3859 Y20.0097
G3 X5.4027 Y19.5455 I6.1476 J-0.0097
G1 X5.3859 Y8.8342
G3 X5.4028 Y8.369 I6.1476 J-0.0097
G1 X5.3992 Y5.8525
G1 F100.0 X5.9992 Y5.8516
G1 F300.0 X5.9967 Y4.05
G1 X4.05
G1 Y34.4524
G1 X5.9988
G1 X6.0034 Y31.1759
G1 X5.9859 Y20.0087
G3 X6.0027 Y19.5678 I5.5476 J-0.0087
G1 X5.9859 Y8.8333
G3 X6.0028 Y8.3914 I5.5476 J-0.0087
G1 X5.9992 Y5.8516
G0 Z5.0
G0 X7.1992 Y5.8499
G0 Z-1.0
G1 F100.0 Z-2.5
G1 F300.0 X7.195 Y2.85
G1 X2.85
G1 Y35.6524
G1 X7.1971
G1 X7.2034 Y31.1758
G1 X7.1859 Y20.0068
G3 X7.2028 Y19.6166 I4.3476 J-0.0068
G1 X7.1859 Y8.8314
G3 X7.2029 Y8.4404 I4.3476 J-0.0068
G1 X7.1992 Y5.8499
G0 Z5.0
G0 X8.3992 Y5.8483
G0 Z-1.0
G1 F100.0 Z-2.5
G1 F300.0 X8.3934 Y1.65
G1 X1.65
G1 Y36.8524
G1 X8.3955
G1 X8.4034 Y31.1757
G1 X8.3859 Y20.0049
G3 X8.4029 Y19.673 I3.1476 J-0.0049
G1 X8.3859 Y8.8295
G3 X8.4029 Y8.4971 I3.1476 J-0.0049
G1 X8.3992 Y5.8483
G0 Z5.0
G0 X9.5992 Y5.8466
G0 Z-1.0
G1 F100.0 Z-2.5
G1 F300.0 X9.603 Y8.5664
G2 X9.5859 Y8.8276 I1.9304 J0.2582
G1 X9.603 Y19.7422
G2 X9.5859 Y20.0031 I1.9305 J0.2578
G1 X9.6034 Y31.1756
G1 X9.5938 Y38.0524
G1 X0.45
G1 Y0.45
G1 X9.5917
G1 X9.5992 Y5.8466
G0 Z5.0
G0 X4.7068 Y5.8546
G0 Z-1.5
G1 F100.0 Z-3.0
G1 F300.0 X4.7048 Y4.65
G1 X4.65
G1 Y33.8524
G1 X4.7073
G1 X4.7268 Y21.9341
G3 Y18.0659 I620.5736 J-1.9341
G1 X4.7068 Y5.8546
G1 F100.0 X5.3068 Y5.8536
G1 F300.0 X5.3039 Y4.05
G1 X4.05
G1 Y34.4524
G1 X5.3063
G1 X5.3268 Y21.9337
G3 Y18.0663 I619.9736 J-1.9337
G1 X5.3068 Y5.8536
G0 Z5.0
G0 X6.5068 Y5.8516
G0 Z-1.5
G1 F100.0 Z-3.0
G1 F300.0 X6.5019 Y2.85
G1 X2.85
G1 Y35.6524
G1 X6.5044
G1 X6.5268 Y21.9328
G3 Y18.0672 I618.7736 J-1.9328
G1 X6.5068 Y5.8516
G0 Z5.0
G0 X7.7068 Y5.8497
G0 Z-1.5
G1 F100.0 Z-3.0
G1 F300.0 X7.7 Y1.65
G1 X1.65
G1 Y36.8524
G1 X7.7024
G1 X7.7268 Y21.9319
G3 Y18.0681 I617.5736 J-1.9319
G1 X7.7068 Y5.8497
G0 Z5.0
G0 X8.9068 Y5.8477
G0 Z-1.5
G1 F100.0 Z-3.0
G1 F300.0 X8.9268 Y18.069
G2 Y21.931 I616.3736 J1.931
G1 X8.9004 Y38.0524
G1 X0.45
G1 Y0.45
G1 X8.898
G1 X8.9068 Y5.8477
G0 Z5.0
G0 X5.6864 Y5.8534
G0 Z-2.0
G1 F100.0 Z-3.5
G2 F300.0 X5.6794 Y2.85 I-2572.9512 J4.5239
G1 X4.9201
G1 X4.9359 Y12.9484
G3 X4.917 Y13.3604 I-4.3476 J0.0068
G3 X4.9156 Y27.0491 I-1963.0293 J6.6396
G1 X4.9291 Y35.6524
G1 X5.6833
G2 X5.6724 Y20.0162 I-2572.9481 J-6.0297
G3 Y19.9838 I4.3476 J-0.0162
G2 X5.6864 Y5.8534 I-2572.9372 J-9.6065
G0 Z5.0
G0 X6.8864 Y5.8513
G0 Z-2.0
G1 F100.0 Z-3.5
G2 F300.0 X6.8756 Y1.65 I-2574.1512 J4.526
G1 X3.7182
G1 X3.7359 Y12.9503
G3 X3.7168 Y13.3017 I-3.1476 J0.0049
G3 X3.7156 Y27.0479 I-1961.8291 J6.6983
G1 X3.731 Y36.8524
G1 X6.8802
G2 X6.8724 Y20.0118 I-2574.145 J-7.2297
G3 Y19.9882 I3.1476 J-0.0118
G2 X6.8864 Y5.8513 I-2574.1372 J-9.6109
G0 Z5.0
G0 X8.0864 Y5.8492
G0 Z-2.0
G1 F100.0 Z-3.5
G3 F300.0 X8.0724 Y19.9927 I-2575.3512 J4.5281
G2 Y20.0073 I1.9476 J0.0073
G3 X8.0766 Y38.0524 I-2575.3372 J9.6154
G1 X2.5329
G1 X2.5156 Y27.0467
G2 X2.5166 Y13.2293 I-1960.6279 J-7.0467
G2 X2.5359 Y12.9522 I-1.9282 J-0.274
G1 X2.5163 Y0.45
G1 X8.0712
G3 X8.0864 Y5.8492 I-2575.336 J9.9273
G0 Z5.0
G0 X5.8019 Y5.8551
G0 Z-2.5
G1 F100.0 Z-4.0
G1 F300.0 X5.7909 Y1.65
G1 X4.818
G1 X4.7923 Y13.7891
G1 X4.8078 Y19.9922
G3 Y20.0078 I-3.1476 J0.0078
G1 X4.7923 Y26.2109
G1 X4.8149 Y36.8524
G1 X5.7948
G1 X5.8117 Y30.4168
G1 X5.7867 Y20.0075
G3 Y19.9925 I3.1476 J-0.0075
G1 X5.8117 Y9.5832
G1 X5.8019 Y5.8551
G0 Z5.0
G0 X7.0019 Y5.852
G0 Z-2.5
G1 F100.0 Z-4.0
G1 F300.0 X7.0117 Y9.5831
G1 X6.9867 Y19.9953
G2 Y20.0047 I1.9476 J0.0047
G1 X7.0117 Y30.4169
G1 X6.9917 Y38.0524
G1 X3.6174
G1 X3.5923 Y26.2107
G1 X3.6078 Y20.0049
G2 Y19.9951 I-1.9476 J-0.0049
G1 X3.5923 Y13.7893
G1 X3.6206 Y0.45
G1 X6.9877
G1 X7.0019 Y5.852
G0 Z5.0
G0 X5.2997 Y5.8587
G0 Z-3.0
G1 F100.0 Z-4.5
G1 F300.0 X5.3009 Y6.164
G2 X5.2646 Y0.871 I-2399.0614 J13.836
G1 X5.2659 Y0.45
G1 X5.2786
G1 X5.2997 Y5.8587
G0 Z5.0
G0 X5.3299 Y27.2453
G0 Z-3.0
G1 F100.0 Z-4.5
G3 F300.0 X5.2952 Y38.0524 I-1013.3073 J2.1513
G1 X5.2729
G2 X5.3299 Y27.2453 I-2399.0334 J-18.0524
G0 Z5.0
G0 X-0.75 Y40.0
G0 Z0.5
G1 F100.0 Z-1.0
G1 F300.0 Y80.0
G0 Z5.0
G0 X5.25 Y86.7476
G0 Z0.5
G1 F100.0 Z-1.0
G1 F300.0 Y114.75
G1 X6.3157
G1 X6.3152 Y99.1878
G3 X6.3166 Y99.051 I6.7476 J0.0005
G1 X6.3157 Y86.7476
G1 X5.25
G0 Z5.0
G0 X4.05
G0 Z0.5
G1 F100.0 Z-1.0
G1 F300.0 Y115.95
G1 X7.5159
G1 X7.5152 Y99.1879
G3 X7.5166 Y99.0638 I5.5476 J0.0004
G1 X7.5156 Y85.5476
G1 X4.05
G1 Y86.7476
G0 Z5.0
G0 X2.85
G0 Z0.5
G1 F100.0 Z-1.0
G1 F300.0 Y117.15
G1 X8.7161
G1 X8.7152 Y99.188
G3 X8.7166 Y99.078 I4.3476 J0.0004
G1 X8.7155 Y84.3476
G1 X2.85
G1 Y86.7476
G0 Z5.0
G0 X1.65
G0 Z0.5
G1 F100.0 Z-1.0
G1 F300.0 Y118.35
G1 X9.9163
G1 X9.9152 Y99.1881
G3 X9.9166 Y99.0945 I3.1476 J0.0003
G1 X9.9154 Y83.1476
G1 X1.65
G1 Y86.7476
G0 Z5.0
G0 X0.45
G0 Z0.5
G1 F100.0 Z-1.0
G1 F300.0 Y119.55
G1 X11.1166
G1 X11.1152 Y99.1882
G3 X11.1166 Y99.1145 I1.9476 J0.0002
G1 X11.1154 Y81.9476
G1 X0.45
G1 Y86.7476
G0 Z5.0
G0 X-0.75
G0 Z0.5
G1 F100.0 Z-1.0
G1 F300.0 Y120.0
G2 X0.0 Y120.75 I0.75 J0.0
G1 X13.0642
G3 X12.3142 Y120.0002 I0.0 J-0.75
G1 X12.3128 Y99.1883
G3 X12.3142 Y99.1425 I0.75 J0.0001
G1 X12.3129 Y80.75
G1 X0.0
G3 X-0.75 Y80.0 I0.0 J-0.75
G1 Y86.7476
G0 Z5.0
G0 X13.0642 Y120.75
G0 Z0.0
G1 F100.0 Z-1.0
G1 F300.0 X20.3
G2 X21.05 Y120.0 I0.0 J-0.75
G1 Y0.0
G2 X20.3 Y-0.75 I-0.75 J0.0
G1 X13.0642
G2 X12.3142 Y0.001 I0.0 J0.75
G3 X12.2917 Y19.9973 I-4078.9892 J5.4011
G2 Y20.0027 I0.75 J0.0027
G3 X12.3152 Y39.25 I-4078.9667 J14.5952
G1 X0.0
G2 X-0.75 Y40.0 I0.0 J0.75
G1 Y0.0
G3 X0.0 Y-0.75 I0.75 J0.0
G1 X13.0642
G0 Z5.0
G0 X-0.75 Y40.0
G0 Z0.0
G1 F100.0 Z-1.5
G1 F300.0 Y80.0
G0 Z5.0
G0 X5.25 Y86.7476
G0 Z0.0
G1 F100.0 Z-1.5
G1 F300.0 Y114.75
G1 X5.8602
G1 Y108.4182
G1 Y108.4178
G1 Y108.4185
G1 Y108.4182
G1 X5.8597 Y86.7476
G1 X5.25
G0 Z5.0
G0 X4.05
G0 Z0.0
G1 F100.0 Z-1.5
G1 F300.0 Y115.95
G1 X7.0602
G1 Y108.4181
G1 Y108.4178
G1 Y108.4184
G1 Y108.4181
G1 X7.0598 Y85.5476
G1 X4.05
G1 Y86.7476
G0 Z5.0
G0 X2.85
G0 Z0.0
G1 F100.0 Z-1.5
G1 F300.0 Y117.15
G1 X8.2602
G1 Y108.418
G1 Y108.4178
G1 Y108.4183
G1 Y108.418
G1 X8.2599 Y84.3476
G1 X2.85
G1 Y86.7476
G0 Z5.0
G0 X1.65
G0 Z0.0
G1 F100.0 Z-1.5
G1 F300.0 Y118.35
G1 X9.4602
G1 Y108.418
G1 Y108.4178
G1 Y108.4181
G1 Y108.418
G1 X9.4599 Y83.1476
G1 X1.65
G1 Y86.7476
G0 Z5.0
G0 X0.45
G0 Z0.0
G1 F100.0 Z-1.5
G1 F300.0 Y119.55
G1 X10.6602
G1 Y108.4179
G1 Y108.4178
G1 Y108.418
G1 Y108.4179
G1 X10.6601 Y81.9476
G1 X0.45
G1 Y86.7476
G0 Z5.0
G0 X-0.75
G0 Z0.0
G1 F100.0 Z-1.5
G1 F300.0 Y120.0
G2 X0.0 Y120.75 I0.75 J0.0
G1 X12.6078
G3 X11.8578 Y120.0 I0.0 J-0.75
G1 Y108.4179
G1 Y108.4178
G1 Y108.4179
G1 Y80.75
G1 X0.0
G3 X-0.75 Y80.0 I0.0 J-0.75
G1 Y86.7476
G0 Z5.0
G0 X12.6078 Y120.75
G0 Z-0.5
G1 F100.0 Z-1.5
G1 F300.0 X20.3
G2 X21.05 Y120.0 I0.0 J-0.75
G1 Y0.0
G2 X20.3 Y-0.75 I-0.75 J0.0
G1 X12.6078
G2 X11.8578 Y0.0009 I0.0 J0.75
G1 X11.879 Y17.1235
G2 Y22.8765 I1056.3552 J2.8765
G1 X11.8588 Y39.25
G1 X0.0
G2 X-0.75 Y40.0 I0.0 J0.75
G1 Y0.0
G3 X0.0 Y-0.75 I0.75 J0.0
G1 X12.6078
G0 Z5.0
G0 X-0.75 Y40.0
G0 Z-0.5
G1 F100.0 Z-2.0
G1 F300.0 Y80.0
G0 Z5.0
G0 X5.25 Y86.7476
G0 Z-0.5
G1 F100.0 Z-2.0
G1 F300.0 Y114.75
G1 X5.3726
G1 Y103.1664
G1 X5.3719 Y86.7476
G1 X5.25
G0 Z5.0
G0 Y85.5476
G0 Z-0.5
G1 F100.0 Z-2.0
G1 F300.0 X4.05
G1 Y115.95
G1 X6.5726
G1 Y103.1663
G1 X6.572 Y85.5476
G1 X5.25
G0 Z5.0
G0 Y84.3476
G0 Z-0.5
G1 F100.0 Z-2.0
G1 F300.0 X2.85
G1 Y117.15
G1 X7.7726
G1 Y103.1662
G1 X7.7721 Y84.3476
G1 X5.25
G0 Z5.0
G0 Y83.1476
G0 Z-0.5
G1 F100.0 Z-2.0
G1 F300.0 X1.65
G1 Y118.35
G1 X8.9726
G1 Y103.1662
G1 X8.9722 Y83.1476
G1 X5.25
G0 Z5.0
G0 Y81.9476
G0 Z-0.5
G1 F100.0 Z-2.0
G1 F300.0 X0.45
G1 Y119.55
G1 X10.1726
G1 Y103.1661
G1 X10.1724 Y81.9476
G1 X5.25
G0 Z5.0
G0 Y80.75
G0 Z-0.5
G1 F100.0 Z-2.0
G1 F300.0 X0.0
G3 X-0.75 Y80.0 I0.0 J-0.75
G1 Y120.0
G2 X0.0 Y120.75 I0.75 J0.0
G1 X12.1202
G3 X11.3702 Y120.0 I0.0 J-0.75
G1 Y103.166
G1 X11.3701 Y80.75
G1 X5.25
G0 Z5.0
G0 X12.1202 Y120.75
G0 Z-1.0
G1 F100.0 Z-2.0
G1 F300.0 X20.3
G2 X21.05 Y120.0 I0.0 J-0.75
G1 Y0.0
G2 X20.3 Y-0.75 I-0.75 J0.0
G1 X12.1202
G2 X11.3702 Y0.0017 I0.0 J0.75
G3 X11.3594 Y19.9975 I-3622.0137 J8.0399
G2 Y20.0025 I0.75 J0.0025
G3 X11.3718 Y39.25 I-3622.0029 J11.9559
G1 X0.0
G2 X-0.75 Y40.0 I0.0 J0.75
G1 Y0.0
G3 X0.0 Y-0.75 I0.75 J0.0
G1 X12.1202
G0 Z5.0
G0 X-0.75 Y40.0
G0 Z-1.0
G1 F100.0 Z-2.5
G1 F300.0 Y80.0
G0 Z5.0
G0 X4.65 Y86.1476
G0 Z-1.0
G1 F100.0 Z-2.5
G1 F300.0 Y115.35
G1 X5.3909
G1 X5.3898 Y86.1476
G1 X4.65
G1 F100.0 Y85.5476
G1 F300.0 X4.05
G1 Y115.95
G1 X5.9911
G1 Y115.8691
G1 X5.9899 Y85.5476
G1 X4.65
G0 Z5.0
G0 Y84.3476
G0 Z-1.0
G1 F100.0 Z-2.5
G1 F300.0 X2.85
G1 Y117.15
G1 X7.1911
G1 Y115.869
G1 X7.1901 Y84.3476
G1 X4.65
G0 Z5.0
G0 Y83.1476
G0 Z-1.0
G1 F100.0 Z-2.5
G1 F300.0 X1.65
G1 Y118.35
G1 X8.3911
G1 Y115.8688
G1 X8.3904 Y83.1476
G1 X4.65
G0 Z5.0
G0 Y81.9476
G0 Z-1.0
G1 F100.0 Z-2.5
G1 F300.0 X0.45
G1 Y119.55
G1 X9.5911
G1 Y115.8687
G1 X9.5906 Y81.9476
G1 X4.65
G0 Z5.0
G0 Y80.75
G0 Z-1.0
G1 F100.0 Z-2.5
G1 F300.0 X0.0
G3 X-0.75 Y80.0 I0.0 J-0.75
G1 Y120.0
G2 X0.0 Y120.75 I0.75 J0.0
G1 X11.5387
G3 X10.7887 Y120.0 I0.0 J-0.75
G1 Y115.8685
G1 X10.7885 Y80.75
G1 X4.65
G0 Z5.0
G0 X11.5387 Y120.75
G0 Z-1.5
G1 F100.0 Z-2.5
G1 F300.0 X20.3
G2 X21.05 Y120.0 I0.0 J-0.75
G1 Y0.0
G2 X20.3 Y-0.75 I-0.75 J0.0
G1 X11.5387
G2 X10.7887 Y0.001 I0.0 J0.75
G1 X10.8008 Y8.6643
G2 X10.7835 Y8.8258 I0.7327 J0.1603
G1 X10.8008 Y19.8399
G2 X10.7835 Y20.0012 I0.7327 J0.1601
G1 X10.801 Y31.1755
G1 X10.7897 Y39.25
G1 X0.0
G2 X-0.75 Y40.0 I0.0 J0.75
G1 Y0.0
G3 X0.0 Y-0.75 I0.75 J0.0
G1 X11.5387
G0 Z5.0
G0 X-0.75 Y40.0
G0 Z-1.5
G1 F100.0 Z-3.0
G1 F300.0 Y80.0
G0 Z5.0
G0 X4.65 Y86.1476
G0 Z-1.5
G1 F100.0 Z-3.0
G1 F300.0 Y115.35
G1 X4.6985
G1 X4.6961 Y100.003
G3 Y99.997 I6.1476 J-0.003
G1 X4.6987 Y86.1476
G1 X4.65
G1 F100.0 Y85.5476
G1 F300.0 X4.05
G1 Y115.95
G1 X5.2984
G1 X5.2961 Y100.0027
G3 Y99.9973 I5.5476 J-0.0027
G1 X5.2987 Y85.5476
G1 X4.65
G0 Z5.0
G0 Y84.3476
G0 Z-1.5
G1 F100.0 Z-3.0
G1 F300.0 X2.85
G1 Y117.15
G1 X6.4982
G1 X6.4961 Y100.0021
G3 Y99.9979 I4.3476 J-0.0021
G1 X6.4985 Y84.3476
G1 X4.65
G0 Z5.0
G0 Y83.1476
G0 Z-1.5
G1 F100.0 Z-3.0
G1 F300.0 X1.65
G1 Y118.35
G1 X7.6978
G1 X7.6961 Y100.0016
G3 Y99.9984 I3.1476 J-0.0016
G1 X7.6982 Y83.1476
G1 X4.65
G0 Z5.0
G0 Y81.9476
G0 Z-1.5
G1 F100.0 Z-3.0
G1 F300.0 X0.45
G1 Y119.55
G1 X8.8974
G1 X8.8961 Y100.001
G3 Y99.999 I1.9476 J-0.001
G1 X8.8979 Y81.9476
G1 X4.65
G0 Z5.0
G0 Y80.75
G0 Z-1.5
G1 F100.0 Z-3.0
G1 F300.0 X0.0
G3 X-0.75 Y80.0 I0.0 J-0.75
G1 Y120.0
G2 X0.0 Y120.75 I0.75 J0.0
G1 X10.8449
G3 X10.0949 Y119.9997 I0.0 J-0.75
G1 X10.0937 Y100.0004
G3 Y99.9996 I0.75 J-0.0004
G1 X10.0951 Y80.75
G1 X4.65
G0 Z5.0
G0 X4.9288 Y84.3476
G0 Z-2.0
G1 F100.0 Z-3.5
G1 F300.0 X4.931 Y117.15
G1 X5.6709
G1 X5.6716 Y84.3476
G1 X4.9288
G0 Z5.0
G0 Y83.1476
G0 Z-2.0
G1 F100.0 Z-3.5
G1 F300.0 X3.7306
G1 X3.733 Y118.35
G1 X6.8703
G1 X6.871 Y83.1476
G1 X4.9288
G0 Z5.0
G0 Y81.9476
G0 Z-2.0
G1 F100.0 Z-3.5
G1 F300.0 X8.0705
G1 X8.0697 Y119.55
G1 X2.5351
G1 X2.5325 Y81.9476
G1 X4.9288
G0 Z5.0
G0 Y83.1476
G0 Z-2.5
G1 F100.0 Z-4.0
G1 F300.0 X4.8071
G1 X4.8215 Y92.9713
G3 X4.8035 Y93.3122 I-3.1476 J0.0046
G3 X4.8025 Y107.0266 I-2287.6426 J6.6878
G1 X4.8191 Y118.35
G1 X5.7876
G1 X5.7962 Y104.7717
G3 Y95.2283 I2802.2255 J-4.7717
G1 X5.7886 Y83.1476
G1 X4.9288
G0 Z5.0
G0 Y81.9476
G0 Z-2.5
G1 F100.0 Z-4.0
G1 F300.0 X6.9878
G1 X6.9962 Y95.2289
G2 Y104.7711 I2801.0255 J4.7711
G1 X6.9869 Y119.55
G1 X3.6208
G1 X3.6025 Y107.0256
G2 X3.6033 Y93.2418 I-2286.4416 J-7.0256
G2 X3.6215 Y92.9731 I-1.9294 J-0.2658
G1 X3.6053 Y81.9476
G1 X4.9288
G1 F100.0 X5.2624 Y81.9483
G1 Z-4.5
G1 F300.0 Y81.9476
G1 X5.2792
G1 X5.2831 Y85.08
G2 X5.2682 Y91.8904 I7027.8663 J18.7215
G3 X5.2624 Y81.9483 I1907.1008 J-6.0879
G0 Z5.0
G0 X5.2665 Y119.55
G0 Z-3.0
G1 F100.0 Z-4.5
G1 F300.0 X5.2601 Y116.2661
G2 X5.2691 Y116.2255 I-1.8964 J-0.4438
G2 X5.2758 Y119.55 I7027.8802 J-12.424
G0 Z5.0
G0 X10.8449 Y120.75
G0 Z-2.0
G1 F100.0 Z-3.0
G1 F300.0 X20.3
G2 X21.05 Y120.0 I0.0 J-0.75
G1 Y0.0
G2 X20.3 Y-0.75 I-0.75 J0.0
G1 X10.8449
G2 X10.0949 Y0.0012 I0.0 J0.75
G1 X10.1244 Y18.0699
G2 Y21.9301 I615.176 J1.9301
G1 X10.0961 Y39.25
G1 X0.0
G2 X-0.75 Y40.0 I0.0 J0.75
G1 Y0.0
G3 X0.0 Y-0.75 I0.75 J0.0
G1 X10.8449
G0 Z5.0
G0 X0.568
G0 Z-2.0
G1 F100.0 Z-3.5
G1 F300.0 X0.0
G2 X-0.75 Y0.0 I0.0 J0.75
G1 Y120.0
G2 X0.0 Y120.75 I0.75 J0.0
G1 X0.5883
G0 Z5.0
G0 X10.0171
G0 Z-2.0
G1 F100.0 Z-3.5
G1 F300.0 X0.5883
G2 X1.3383 Y119.9986 I0.0 J-0.75
G1 X1.337 Y80.75
G1 X9.2675
G1 X9.2671 Y119.9996
G2 X10.0171 Y120.75 I0.75 J0.0004
G1 X20.3
G2 X21.05 Y120.0 I0.0 J-0.75
G1 Y0.0
G2 X20.3 Y-0.75 I-0.75 J0.0
G1 X10.0171
G2 X9.2671 Y0.003 I0.0 J0.75
G3 X9.27 Y19.9972 I-2576.5319 J10.3743
G2 Y20.0028 I0.75 J0.0028
G3 Y39.25 I-2576.5348 J9.6199
G1 X1.3372
G1 X1.318 Y27.0455
G2 X1.3186 Y13.1262 I-1959.4303 J-7.0455
G2 X1.3383 Y12.9541 I-0.7303 J-0.171
G1 X1.318 Y-0.0012
G2 X0.568 Y-0.75 I-0.75 J0.0012
G1 X10.0171
G0 Z5.0
G0 X1.6739
G0 Z-2.5
G1 F100.0 Z-4.0
G1 F300.0 X0.0
G2 X-0.75 Y0.0 I0.0 J0.75
G1 Y120.0
G2 X0.0 Y120.75 I0.75 J0.0
G1 X1.6739
G0 Z5.0
G0 X8.9342
G0 Z-2.5
G1 F100.0 Z-4.0
G1 F300.0 X1.6739
G2 X2.4239 Y119.9989 I0.0 J-0.75
G1 X2.4049 Y107.0247
G2 X2.4054 Y93.1416 I-2285.244 J-7.0247
G2 X2.4239 Y92.9748 I-0.7315 J-0.1657
G1 X2.406 Y80.75
G1 X8.1847
G1 X8.1938 Y95.2296
G2 Y104.7704 I2799.8279 J4.7704
G1 X8.1842 Y119.9995
G2 X8.9342 Y120.75 I0.75 J0.0005
G1 X20.3
G2 X21.05 Y120.0 I0.0 J-0.75
G1 Y0.0
G2 X20.3 Y-0.75 I-0.75 J0.0
G1 X8.9342
G2 X8.1842 Y0.002 I0.0 J0.75
G1 X8.2093 Y9.583
G1 X8.1843 Y19.9982
G2 Y20.0018 I0.75 J0.0018
G1 X8.2093 Y30.417
G1 X8.1861 Y39.25
G1 X2.4223
G1 X2.3947 Y26.2105
G1 X2.4102 Y20.0019
G2 Y19.9981 I-0.75 J-0.0019
G1 X2.3947 Y13.7895
G1 X2.4239 Y0.0016
G2 X1.6739 Y-0.75 I-0.75 J-0.0016
G1 X8.9342
G0 Z5.0
G0 X3.3197
G0 Z-3.0
G1 F100.0 Z-4.5
G1 F300.0 X0.0
G2 X-0.75 Y0.0 I0.0 J0.75
G1 Y120.0
G2 X0.0 Y120.75 I0.75 J0.0
G1 X3.3197
G0 Z5.0
G0 X7.2244
G0 Z-3.0
G1 F100.0 Z-4.5
G1 F300.0 X3.3197
G2 X4.0697 Y119.9985 I0.0 J-0.75
G1 X4.0621 Y116.0956
G2 X4.1137 Y115.8198 I-0.6984 J-0.2733
G1 X4.0625 Y100.2724
G2 X4.1137 Y99.9944 I-0.6988 J-0.2724
G3 X4.0676 Y80.75 I1908.2554 J-14.1919
G1 X6.4753
G1 X6.4807 Y85.0809
G2 X6.4744 Y120.0017 I7026.6687 J18.7206
G2 X7.2244 Y120.75 I0.75 J-0.0017
G1 X20.3
G2 X21.05 Y120.0 I0.0 J-0.75
G1 Y0.0
G2 X20.3 Y-0.75 I-0.75 J0.0
G1 X7.2244
G2 X6.4744 Y0.0029 I0.0 J0.75
G1 X6.5254 Y13.0137
G2 X6.4863 Y13.2571 I0.7109 J0.239
G1 X6.5249 Y19.7625
G2 X6.4863 Y20.0069 I0.7114 J0.2375
G3 X6.4819 Y39.25 I-1014.4637 J9.3896
G1 X4.0674
G1 X4.067 Y39.1261
G2 Y0.8739 I-2397.8274 J-19.1261
G1 X4.0697 Y0.0024
G2 X3.3197 Y-0.75 I-0.75 J-0.0024
G1 X7.2244
G1 F100.0 Z-5.0
G1 F300.0 X0.0
G2 X-0.75 Y0.0 I0.0 J0.75
G1 Y120.0
G2 X0.0 Y120.75 I0.75 J0.0
G1 X20.3
G2 X21.05 Y120.0 I0.0 J-0.75
G1 Y0.0
G2 X20.3 Y-0.75 I-0.75 J0.0
G1 X7.2244
G1 F100.0 Z-5.5
G1 F300.0 X0.0
G2 X-0.75 Y0.0 I0.0 J0.75
G1 Y120.0
G2 X0.0 Y120.75 I0.75 J0.0
G1 X20.3
G2 X21.05 Y120.0 I0.0 J-0.75
G1 Y0.0
G2 X20.3 Y-0.75 I-0.75 J0.0
G1 X7.2244
G1 F100.0 Z-6.0
G1 F300.0 X0.0
G2 X-0.75 Y0.0 I0.0 J0.75
G1 Y120.0
G2 X0.0 Y120.75 I0.75 J0.0
G1 X20.3
G2 X21.05 Y120.0 I0.0 J-0.75
G1 Y0.0
G2 X20.3 Y-0.75 I-0.75 J0.0
G1 X7.2244
G1 F100.0 Z-6.5
G1 F300.0 X0.0
G2 X-0.75 Y0.0 I0.0 J0.75
G1 Y120.0
G2 X0.0 Y120.75 I0.75 J0.0
G1 X20.3
G2 X21.05 Y120.0 I0.0 J-0.75
G1 Y0.0
G2 X20.3 Y-0.75 I-0.75 J0.0
G1 X7.2244
G1 F100.0 Z-7.0
G1 F300.0 X0.0
G2 X-0.75 Y0.0 I0.0 J0.75
G1 Y120.0
G2 X0.0 Y120.75 I0.75 J0.0
G1 X20.3
G2 X21.05 Y120.0 I0.0 J-0.75
G1 Y0.0
G2 X20.3 Y-0.75 I-0.75 J0.0
G1 X7.2244
G1 F100.0 Z-7.5
G1 F300.0 X0.0
G2 X-0.75 Y0.0 I0.0 J0.75
G1 Y120.0
G2 X0.0 Y120.75 I0.75 J0.0
G1 X20.3
G2 X21.05 Y120.0 I0.0 J-0.75
G1 Y0.0
G2 X20.3 Y-0.75 I-0.75 J0.0
G1 X7.2244
G1 F100.0 Z-8.0
G1 F300.0 X0.0
G2 X-0.75 Y0.0 I0.0 J0.75
G1 Y120.0
G2 X0.0 Y120.75 I0.75 J0.0
G1 X20.3
G2 X21.05 Y120.0 I0.0 J-0.75
G1 Y0.0
G2 X20.3 Y-0.75 I-0.75 J0.0
G1 X7.2244
G1 F100.0 Z-8.5
G1 F300.0 X0.0
G2 X-0.75 Y0.0 I0.0 J0.75
G1 Y120.0
G2 X0.0 Y120.75 I0.75 J0.0
G1 X20.3
G2 X21.05 Y120.0 I0.0 J-0.75
G1 Y0.0
G2 X20.3 Y-0.75 I-0.75 J0.0
G1 X7.2244
G1 F100.0 Z-9.0
G1 F300.0 X0.0
G2 X-0.75 Y0.0 I0.0 J0.75
G1 Y120.0
G2 X0.0 Y120.75 I0.75 J0.0
G1 X20.3
G2 X21.05 Y120.0 I0.0 J-0.75
G1 Y0.0
G2 X20.3 Y-0.75 I-0.75 J0.0
G1 X7.2244
G1 F100.0 Z-9.5
G1 F300.0 X0.0
G2 X-0.75 Y0.0 I0.0 J0.75
G1 Y120.0
G2 X0.0 Y120.75 I0.75 J0.0
G1 X20.3
G2 X21.05 Y120.0 I0.0 J-0.75
G1 Y0.0
G2 X20.3 Y-0.75 I-0.75 J0.0
G1 X7.2244
G1 F100.0 Z-9.7
G1 F300.0 X0.0
G2 X-0.75 Y0.0 I0.0 J0.75
G1 Y120.0
G2 X0.0 Y120.75 I0.75 J0.0
G1 X20.3
G2 X21.05 Y120.0 I0.0 J-0.75
G1 Y0.0
G2 X20.3 Y-0.75 I-0.75 J0.0
G1 X7.2244
G0 Z5.0
M5
M30
