( Made using CamBam - http://www.cambam.co.uk )
( espacador-quad2 3/23/2019 1:28:48 PM )
( T0 : 1.5 )
G21 G90 G64 G40
G0 Z3.0
( T0 : 1.5 )
T0 M6
( 3DSurface1 )
G17
M3 S1000
G0 X10.75 Y10.05
G0 Z1.0
G1 F100.0 Z-0.499
G1 F400.0 X10.05
G1 Y109.95
G1 X10.75
G1 Y10.05
G0 Z3.0
G0 Y8.85
G0 Z1.0
G1 F100.0 Z-0.499
G1 F400.0 X8.85
G1 Y111.15
G1 X11.95
G1 Y8.85
G1 X10.75
G0 Z3.0
G0 Y7.65
G0 Z1.0
G1 F100.0 Z-0.499
G1 F400.0 X7.65
G1 Y112.35
G1 X13.15
G1 Y7.65
G1 X10.75
G0 Z3.0
G0 Y6.45
G0 Z1.0
G1 F100.0 Z-0.499
G1 F400.0 X6.45
G1 Y113.55
G1 X14.35
G1 Y6.45
G1 X10.75
G0 Z3.0
G0 Y5.25
G0 Z1.0
G1 F100.0 Z-0.499
G1 F400.0 X5.25
G1 Y114.75
G1 X15.55
G1 Y5.25
G1 X10.75
G0 Z3.0
G0 Y4.05
G0 Z1.0
G1 F100.0 Z-0.499
G1 F400.0 X4.05
G1 Y115.95
G1 X16.75
G1 Y4.05
G1 X10.75
G0 Z3.0
G0 Y2.85
G0 Z1.0
G1 F100.0 Z-0.499
G1 F400.0 X2.85
G1 Y117.15
G1 X17.95
G1 Y2.85
G1 X10.75
G0 Z3.0
G0 Y1.65
G0 Z1.0
G1 F100.0 Z-0.499
G1 F400.0 X1.65
G1 Y118.35
G1 X19.15
G1 Y1.65
G1 X10.75
G0 Z3.0
G0 Y0.45
G0 Z1.0
G1 F100.0 Z-0.499
G1 F400.0 X0.45
G1 Y119.55
G1 X20.35
G1 Y0.45
G1 X10.75
G0 Z3.0
G0 Y-0.75
G0 Z1.0
G1 F100.0 Z-0.499
G1 F400.0 X0.0
G2 X-0.75 Y0.0 I0.0 J0.75
G1 Y120.0
G2 X0.0 Y120.75 I0.75 J0.0
G1 X20.8
G2 X21.55 Y120.0 I0.0 J-0.75
G1 Y0.0
G2 X20.8 Y-0.75 I-0.75 J0.0
G1 X10.75
G0 Z3.0
G0 X7.2558
G0 Z0.501
G1 F100.0 Z-0.998
G1 F400.0 X0.0
G2 X-0.75 Y0.0 I0.0 J0.75
G1 Y120.0
G2 X0.0 Y120.75 I0.75 J0.0
G1 X7.2558
G0 Z3.0
G0 X14.6034 Y114.15
G0 Z0.501
G1 F100.0 Z-0.998
G1 F400.0 X14.95
G1 Y5.85
G1 X14.6034
G1 Y114.15
G1 F100.0 X14.0034
G1 F400.0 Y114.75
G1 X15.55
G1 Y5.25
G1 X14.0034
G1 Y114.15
G0 Z3.0
G0 X12.8034
G0 Z0.501
G1 F100.0 Z-0.998
G1 F400.0 Y115.95
G1 X16.75
G1 Y4.05
G1 X12.8034
G1 Y114.15
G0 Z3.0
G0 X11.6034
G0 Z0.501
G1 F100.0 Z-0.998
G1 F400.0 Y117.15
G1 X17.95
G1 Y2.85
G1 X11.6034
G1 Y114.15
G0 Z3.0
G0 X10.4034
G0 Z0.501
G1 F100.0 Z-0.998
G1 F400.0 Y118.35
G1 X19.15
G1 Y1.65
G1 X10.4034
G1 Y114.15
G0 Z3.0
G0 X9.2034
G0 Z0.501
G1 F100.0 Z-0.998
G1 F400.0 Y119.55
G1 X20.35
G1 Y0.45
G1 X9.2034
G1 Y114.15
G0 Z3.0
G0 X8.0058
G0 Z0.501
G1 F100.0 Z-0.998
G1 F400.0 Y120.0
G3 X7.2558 Y120.75 I-0.75 J0.0
G1 X20.8
G2 X21.55 Y120.0 I0.0 J-0.75
G1 Y0.0
G2 X20.8 Y-0.75 I-0.75 J0.0
G1 X7.2558
G3 X8.0058 Y0.0 I0.0 J0.75
G1 Y114.15
G0 Z3.0
G0 X14.419
G0 Z0.002
G1 F100.0 Z-1.497
G1 F400.0 Y114.75
G1 X15.55
G1 Y5.25
G1 X14.4194
G1 X14.419 Y97.637
G1 Y97.6372
G1 Y97.6367
G1 Y97.637
G1 Y114.15
G0 Z3.0
G0 X13.219
G0 Z0.002
G1 F100.0 Z-1.497
G1 F400.0 Y115.95
G1 X16.75
G1 Y4.05
G1 X13.2193
G1 X13.219 Y97.6369
G1 Y97.6371
G1 Y97.6367
G1 Y97.6369
G1 Y114.15
G0 Z3.0
G0 X12.019
G0 Z0.002
G1 F100.0 Z-1.497
G1 F400.0 Y117.15
G1 X17.95
G1 Y2.85
G1 X12.0192
G1 X12.019 Y97.6369
G1 Y97.637
G1 Y97.6367
G1 Y97.6369
G1 Y114.15
G0 Z3.0
G0 X10.819
G0 Z0.002
G1 F100.0 Z-1.497
G1 F400.0 Y118.35
G1 X19.15
G1 Y1.65
G1 X10.8191
G1 X10.819 Y97.6368
G1 Y97.637
G1 Y97.6367
G1 Y97.6368
G1 Y114.15
G0 Z3.0
G0 X9.619
G0 Z0.002
G1 F100.0 Z-1.497
G1 F400.0 Y119.55
G1 X20.35
G1 Y0.45
G1 X9.6191
G1 X9.619 Y97.6368
G1 Y97.6369
G1 Y97.6367
G1 Y97.6368
G1 Y114.15
G0 Z3.0
G0 X8.4214
G0 Z0.002
G1 F100.0 Z-1.497
G1 F400.0 Y120.0
G3 X7.6714 Y120.75 I-0.75 J0.0
G1 X20.8
G2 X21.55 Y120.0 I0.0 J-0.75
G1 Y0.0
G2 X20.8 Y-0.75 I-0.75 J0.0
G1 X7.6714
G3 X8.4214 Y-0.0001 I0.0 J0.75
G1 Y97.6367
G1 Y97.6368
G1 Y97.6367
G1 Y114.15
G0 Z3.0
G0 X7.6714 Y-0.75
G1 F100.0 Z-1.497
G1 F400.0 X0.0
G2 X-0.75 Y0.0 I0.0 J0.75
G1 Y120.0
G2 X0.0 Y120.75 I0.75 J0.0
G1 X7.6714
G0 Z3.0
G0 X14.9332 Y114.75
G0 Z-0.497
G1 F100.0 Z-1.996
G1 F400.0 X15.55
G1 Y5.25
G1 X14.9328
G1 Y8.1286
G1 Y8.1289
G1 Y8.1283
G1 Y8.1286
G1 X14.9332 Y114.75
G0 Z3.0
G0 X13.7332 Y114.7499
G0 Z-0.497
G1 F100.0 Z-1.996
G1 F400.0 X13.7331 Y115.95
G1 X16.75
G1 Y4.05
G1 X13.7328
G1 Y8.1287
G1 Y8.1289
G1 Y8.1284
G1 Y8.1287
G1 X13.7332 Y114.7499
G0 Z3.0
G0 X12.5332 Y114.7498
G0 Z-0.497
G1 F100.0 Z-1.996
G1 F400.0 X12.533 Y117.15
G1 X17.95
G1 Y2.85
G1 X12.5328
G1 Y8.1287
G1 Y8.1289
G1 Y8.1286
G1 Y8.1287
G1 X12.5332 Y114.7498
G0 Z3.0
G0 X11.3332 Y114.7497
G0 Z-0.497
G1 F100.0 Z-1.996
G1 F400.0 X11.3329 Y118.35
G1 X19.15
G1 Y1.65
G1 X11.3328
G1 Y8.1288
G1 Y8.1289
G1 Y8.1287
G1 Y8.1288
G1 X11.3332 Y114.7497
G0 Z3.0
G0 X10.1332 Y114.7496
G0 Z-0.497
G1 F100.0 Z-1.996
G1 F400.0 X10.1328 Y119.55
G1 X20.35
G1 Y0.45
G1 X10.1328
G1 Y8.1288
G1 Y8.1289
G1 Y8.1288
G1 X10.1332 Y114.7496
G0 Z3.0
G0 X8.9356 Y114.7495
G0 Z-0.497
G1 F100.0 Z-1.996
G1 F400.0 X8.9352 Y120.0001
G3 X8.1852 Y120.75 I-0.75 J-0.0001
G1 X20.8
G2 X21.55 Y120.0 I0.0 J-0.75
G1 Y0.0
G2 X20.8 Y-0.75 I-0.75 J0.0
G1 X8.1852
G3 X8.9352 Y0.0 I0.0 J0.75
G1 Y8.1289
G1 X8.9356 Y114.7495
G0 Z3.0
G0 X8.1852 Y-0.75
G0 Z-0.996
G1 F100.0 Z-1.996
G1 F400.0 X0.0
G2 X-0.75 Y0.0 I0.0 J0.75
G1 Y120.0
G2 X0.0 Y120.75 I0.75 J0.0
G1 X8.1852
G0 Z3.0
G0 X15.5066 Y114.75
G0 Z-0.996
G1 F100.0 Z-2.495
G1 F400.0 X15.55
G1 Y5.25
G1 X15.5077
G1 X15.5075 Y96.0
G3 Y96.0017 I-6.7476 J0.0
G1 X15.5066 Y114.75
G0 Z3.0
G0 X14.3066 Y114.7502
G0 Z-0.996
G1 F100.0 Z-2.495
G1 F400.0 X14.3068 Y115.95
G1 X16.75
G1 Y4.05
G1 X14.3077
G1 X14.3075 Y96.0
G3 Y96.0014 I-5.5476 J0.0
G1 X14.3066 Y114.7502
G0 Z3.0
G0 X13.1066 Y114.7504
G0 Z-0.996
G1 F100.0 Z-2.495
G1 F400.0 X13.107 Y117.15
G1 X17.95
G1 Y2.85
G1 X13.1077
G1 X13.1075 Y96.0
G3 Y96.0011 I-4.3476 J0.0
G1 X13.1066 Y114.7504
G0 Z3.0
G0 X11.9066 Y114.7506
G0 Z-0.996
G1 F100.0 Z-2.495
G1 F400.0 X11.9073 Y118.35
G1 X19.15
G1 Y1.65
G1 X11.9077
G1 X11.9075 Y96.0
G3 Y96.0008 I-3.1476 J0.0
G1 X11.9066 Y114.7506
G0 Z3.0
G0 X10.7066 Y114.7507
G0 Z-0.996
G1 F100.0 Z-2.495
G1 F400.0 X10.7076 Y119.55
G1 X20.35
G1 Y0.45
G1 X10.7077
G1 X10.7075 Y96.0
G3 Y96.0005 I-1.9476 J0.0
G1 X10.7066 Y114.7507
G0 Z3.0
G0 X9.509 Y114.7509
G0 Z-0.996
G1 F100.0 Z-2.495
G1 F400.0 X9.5101 Y119.9998
G3 X8.7601 Y120.75 I-0.75 J0.0002
G1 X20.8
G2 X21.55 Y120.0 I0.0 J-0.75
G1 Y0.0
G2 X20.8 Y-0.75 I-0.75 J0.0
G1 X8.7601
G3 X9.5101 Y0.0 I0.0 J0.75
G1 X9.5099 Y96.0
G3 Y96.0002 I-0.75 J0.0
G1 X9.509 Y114.7509
G0 Z3.0
G0 X20.5633 Y120.75
G0 Z-1.495
G1 F100.0 Z-2.994
G1 F400.0 X20.8
G2 X21.55 Y120.0 I0.0 J-0.75
G1 Y0.0
G2 X20.8 Y-0.75 I-0.75 J0.0
G1 X20.5633
G0 Z3.0
G0 X8.7601
G0 Z-1.495
G1 F100.0 Z-2.495
G1 F400.0 X0.0
G2 X-0.75 Y0.0 I0.0 J0.75
G1 Y120.0
G2 X0.0 Y120.75 I0.75 J0.0
G1 X8.7601
G0 Z3.0
G0 X14.9638 Y115.95
G0 Z-1.495
G1 F100.0 Z-2.994
G1 F400.0 X15.0196
G1 X15.0223 Y113.0957
G1 Y6.9043
G1 X15.0196 Y4.05
G1 X14.9638
G1 Y115.95
G0 Z3.0
G0 Y117.15
G0 Z-1.495
G1 F100.0 Z-2.994
G1 F400.0 X16.2184
G1 X16.2223 Y113.0963
G1 Y6.9037
G1 X16.2184 Y2.85
G1 X13.7639
G1 Y117.15
G1 X14.9638
G0 Z3.0
G0 Y118.35
G0 Z-1.495
G1 F100.0 Z-2.994
G1 F400.0 X17.4173
G1 X17.4223 Y113.0969
G1 Y6.9031
G1 X17.4173 Y1.65
G1 X12.564
G1 Y118.35
G1 X14.9638
G0 Z3.0
G0 Y119.55
G0 Z-1.495
G1 F100.0 Z-2.994
G1 F400.0 X18.6161
G1 X18.6223 Y113.0974
G1 Y6.9026
G1 X18.6161 Y0.45
G1 X11.3641
G1 Y119.55
G1 X14.9638
G0 Z3.0
G0 Y120.75
G0 Z-1.495
G1 F100.0 Z-2.994
G1 F400.0 X20.5633
G3 X19.8133 Y119.9993 I0.0 J-0.75
G1 X19.8199 Y113.098
G1 Y6.902
G1 X19.8133 Y0.0007
G3 X20.5633 Y-0.75 I0.75 J-0.0007
G1 X9.4165
G3 X10.1665 Y0.0001 I0.0 J0.75
G1 Y119.9999
G3 X9.4165 Y120.75 I-0.75 J0.0001
G1 X14.9638
G0 Z3.0
G0 Y117.15
G0 Z-1.994
G1 F100.0 Z-3.493
G1 F400.0 X15.4089
G1 X15.4099 Y2.85
G1 X14.6098
G1 Y117.15
G1 X14.9638
G0 Z3.0
G0 Y118.35
G0 Z-1.994
G1 F100.0 Z-3.493
G1 F400.0 X16.6106
G1 X16.6116 Y1.65
G1 X13.4101
G1 Y118.35
G1 X14.9638
G0 Z3.0
G0 Y119.55
G0 Z-1.994
G1 F100.0 Z-3.493
G1 F400.0 X12.2103
G1 Y0.45
G1 X17.8134
G1 X17.8123 Y119.55
G1 X14.9638
G0 Z3.0
G0 Y118.35
G0 Z-2.493
G1 F100.0 Z-3.992
G1 F400.0 X15.5475
G1 X15.5149 Y96.0046
G3 Y96.0 I3.1476 J-0.0046
G1 Y24.0
G3 X15.5471 Y23.5509 I3.1476 J0.0
G1 X15.5151 Y1.65
G1 X14.4859
G1 X14.4843 Y5.8154
G1 X14.4944 Y23.9983
G3 Y24.0 I-3.1476 J0.0017
G1 Y96.0
G3 Y96.0017 I-3.1476 J0.0
G1 X14.4843 Y114.1846
G1 X14.4859 Y118.35
G1 X14.9638
G0 Z3.0
G0 Y119.55
G0 Z-2.493
G1 F100.0 Z-3.992
G1 F400.0 X13.2864
G1 X13.2843 Y114.1845
G1 X13.2944 Y96.0011
G2 Y96.0 I-1.9476 J-0.0011
G1 Y24.0
G2 Y23.9989 I-1.9476 J0.0
G1 X13.2843 Y5.8155
G1 X13.2864 Y0.45
G1 X16.7466
G1 X16.7473 Y1.1339
G2 X16.7149 Y1.4909 I1.9151 J0.3541
G1 X16.7472 Y23.6465
G2 X16.7149 Y24.0 I1.9153 J0.3535
G1 Y96.0
G2 Y96.0028 I1.9476 J0.0
G1 X16.7477 Y118.5123
G1 X16.7466 Y119.55
G1 X14.9638
G1 F100.0 X14.9792
G1 Z-4.491
G1 F400.0 X14.947 Y99.0864
G1 X14.9533 Y96.004
G2 Y96.0 I-1.9476 J-0.004
G1 Y24.0
G2 Y23.996 I-1.9476 J0.0
G1 X14.947 Y20.9136
G1 X14.9792 Y0.45
G1 X14.9954
G1 X15.0221 Y13.5473
G1 X15.0003 Y23.9959
G2 Y24.0 I1.9476 J0.0041
G1 Y96.0
G2 Y96.0041 I1.9476 J0.0
G1 X15.0221 Y106.4527
G1 X14.9954 Y119.55
G1 X14.9792
G0 Z3.0
G0 X19.7606 Y120.75
G0 Z-1.994
G1 F100.0 Z-3.493
G1 F400.0 X20.8
G2 X21.55 Y120.0 I0.0 J-0.75
G1 Y0.0
G2 X20.8 Y-0.75 I-0.75 J0.0
G1 X19.7606
G0 Z3.0
G0 X9.4165
G0 Z-1.994
G1 F100.0 Z-2.994
G1 F400.0 X0.0
G2 X-0.75 Y0.0 I0.0 J0.75
G1 Y120.0
G2 X0.0 Y120.75 I0.75 J0.0
G1 X9.4165
G1 F100.0 Z-3.493
G1 F400.0 X10.2628
G2 X11.0128 Y119.9998 I0.0 J-0.75
G1 Y0.0002
G2 X10.2628 Y-0.75 I-0.75 J-0.0002
G1 X0.0
G2 X-0.75 Y0.0 I0.0 J0.75
G1 Y120.0
G2 X0.0 Y120.75 I0.75 J0.0
G1 X9.4165
G1 F100.0 X10.2628
G1 F400.0 X19.7606
G3 X19.0106 Y120.0011 I0.0 J-0.75
G1 X19.011 Y0.4035
G1 X19.0106 Y0.0008
G3 X19.7606 Y-0.75 I0.75 J-0.0008
G1 X10.2628
G1 F100.0 Z-3.992
G1 F400.0 X0.0
G2 X-0.75 Y0.0 I0.0 J0.75
G1 Y120.0
G2 X0.0 Y120.75 I0.75 J0.0
G1 X11.339
G2 X12.089 Y119.9997 I0.0 J-0.75
G1 X12.0867 Y114.1844
G1 X12.0968 Y96.0004
G2 Y96.0 I-0.75 J-0.0004
G1 Y24.0
G2 Y23.9996 I-0.75 J0.0
G1 X12.0867 Y5.8156
G1 X12.089 Y0.0003
G2 X11.339 Y-0.75 I-0.75 J-0.0003
G1 X10.2628
G0 Z3.0
G0 X11.339 Y120.75
G0 Z-2.992
G1 F100.0 Z-3.992
G1 F400.0 X18.6937
G3 X17.9437 Y119.9992 I0.0 J-0.75
G1 X17.9453 Y118.5121
G1 X17.9125 Y96.0011
G3 Y96.0 I0.75 J-0.0011
G1 Y24.0
G3 X17.945 Y23.7815 I0.75 J0.0
G1 X17.9125 Y1.4892
G3 X17.9451 Y1.2693 I0.75 J-0.0011
G1 X17.9437 Y0.0008
G3 X18.6937 Y-0.75 I0.75 J-0.0008
G1 X11.339
G1 F100.0 Z-4.491
G1 F400.0 X0.0
G2 X-0.75 Y0.0 I0.0 J0.75
G1 Y120.0
G2 X0.0 Y120.75 I0.75 J0.0
G1 X13.0323
G2 X13.7823 Y119.9988 I0.0 J-0.75
G1 X13.7494 Y99.0861
G1 X13.7557 Y96.0015
G2 Y96.0 I-0.75 J-0.0015
G1 Y24.0
G2 Y23.9985 I-0.75 J0.0
G1 X13.7494 Y20.9139
G1 X13.7823 Y0.0012
G2 X13.0323 Y-0.75 I-0.75 J-0.0012
G1 X11.339
G0 Z3.0
G0 X13.0323 Y120.75
G0 Z-3.491
G1 F100.0 Z-4.491
G1 F400.0 X16.9421
G3 X16.1921 Y119.9985 I0.0 J-0.75
G1 X16.2197 Y106.4526
G1 X16.1979 Y96.0016
G3 Y96.0 I0.75 J-0.0016
G1 Y24.0
G3 Y23.9984 I0.75 J0.0
G1 X16.2197 Y13.5474
G1 X16.1921 Y0.0015
G3 X16.9421 Y-0.75 I0.75 J-0.0015
G1 X13.0323
G0 Z3.0
G0 X18.6937 Y120.75
G0 Z-2.992
G1 F100.0 Z-3.992
G1 F400.0 X20.8
G2 X21.55 Y120.0 I0.0 J-0.75
G1 Y0.0
G2 X20.8 Y-0.75 I-0.75 J0.0
G1 X18.6937
G0 Z3.0
G0 X16.9421 Y120.75
G0 Z-3.491
G1 F100.0 Z-4.491
G1 F400.0 X20.8
G2 X21.55 Y120.0 I0.0 J-0.75
G1 Y0.0
G2 X20.8 Y-0.75 I-0.75 J0.0
G1 X16.9421
G1 F100.0 Z-4.99
G1 F400.0 X0.0
G2 X-0.75 Y0.0 I0.0 J0.75
G1 Y120.0
G2 X0.0 Y120.75 I0.75 J0.0
G1 X20.8
G2 X21.55 Y120.0 I0.0 J-0.75
G1 Y0.0
G2 X20.8 Y-0.75 I-0.75 J0.0
G1 X16.9421
G1 F100.0 Z-5.0
G1 F400.0 X0.0
G2 X-0.75 Y0.0 I0.0 J0.75
G1 Y120.0
G2 X0.0 Y120.75 I0.75 J0.0
G1 X20.8
G2 X21.55 Y120.0 I0.0 J-0.75
G1 Y0.0
G2 X20.8 Y-0.75 I-0.75 J0.0
G1 X16.9421
( 3DSurface2 )
S1000
G0 Z1.0
G0 X-0.6874 Y-0.3
G0 Z0.999
G1 F100.0 Z-0.5
G1 F800.0 X7.5
G1 X7.8 Z-0.5572
G1 X8.4 Z-1.3005
G1 X8.7 Z-1.6219
G1 X9.3 Z-2.2046
G1 X9.6 Z-2.4493
G1 X10.2 Z-2.9054
G1 X10.5 Z-3.1054
G1 X11.1 Z-3.4563
G1 X11.4 Z-3.629
G1 X12.3 Z-4.0184
G1 X12.6 Z-4.1332
G1 X13.5 Z-4.3993
G1 X13.8 Z-4.4687
G1 X14.7 Z-4.6201
G1 X15.0 Z-4.6423
G1 X15.3 Z-4.6197
G1 X15.6 Z-4.5787
G1 X16.5 Z-4.4002
G1 X16.8 Z-4.3192
G1 X17.7 Z-4.0243
G1 X18.0 Z-3.8955
G1 X18.6 Z-3.6149
G1 X18.9 Z-3.4708
G1 X19.8 Z-2.9086
G1 X21.3
G1 X21.4874
G0 Z1.0
G0 X-0.75 Y0.9
G0 Z0.999
G1 F100.0 Z-0.5
G1 F800.0 X7.5
G1 X7.8 Z-0.5572
G1 X8.4 Z-1.3005
G1 X8.7 Z-1.6219
G1 X9.3 Z-2.2046
G1 X9.6 Z-2.4493
G1 X10.2 Z-2.9054
G1 X10.5 Z-3.1054
G1 X11.1 Z-3.4563
G1 X11.4 Z-3.629
G1 X12.3 Z-4.0184
G1 X12.6 Z-4.1332
G1 X13.5 Z-4.3993
G1 X13.8 Z-4.4687
G1 X14.7 Z-4.6201
G1 X15.0 Z-4.6423
G1 X15.3 Z-4.6197
G1 X15.6 Z-4.5787
G1 X16.5 Z-4.4002
G1 X16.8 Z-4.3192
G1 X17.7 Z-4.0243
G1 X18.0 Z-3.8955
G1 X18.6 Z-3.6149
G1 X18.9 Z-3.4708
G1 X19.8 Z-2.9086
G1 X21.3
G1 X21.55
G0 Z1.0
G0 X-0.75 Y2.1
G0 Z0.999
G1 F100.0 Z-0.5
G1 F800.0 X7.5
G1 X7.8 Z-0.5572
G1 X8.4 Z-1.3005
G1 X8.7 Z-1.6219
G1 X9.0 Z-1.9133
G1 X9.3 Z-2.2046
G1 X9.6 Z-2.4494
G1 X10.2 Z-2.9055
G1 X10.5 Z-3.1055
G1 X11.1 Z-3.4564
G1 X11.4 Z-3.6292
G1 X12.3 Z-4.0186
G1 X12.6 Z-4.1335
G1 X13.5 Z-4.3996
G1 X13.8 Z-4.4691
G1 X14.7 Z-4.6205
G1 X15.0 Z-4.6427
G1 X15.3 Z-4.6202
G1 X15.6 Z-4.5792
G1 X16.5 Z-4.4007
G1 X16.8 Z-4.3198
G1 X17.4 Z-4.1232
G1 X17.7 Z-4.0248
G1 X18.0 Z-3.8961
G1 X18.6 Z-3.6155
G1 X18.9 Z-3.4715
G1 X19.8 Z-2.9093
G1 X20.1 Z-2.9086
G1 X21.3
G1 X21.55 Z-2.9093
G0 Z1.0
G0 X-0.75 Y3.3
G0 Z0.999
G1 F100.0 Z-0.5
G1 F800.0 X7.5
G1 X7.8 Z-0.5572
G1 X8.4 Z-1.3005
G1 X8.7 Z-1.6219
G1 X9.0 Z-1.9133
G1 X9.3 Z-2.2045
G1 X9.6 Z-2.4494
G1 X9.9 Z-2.6775
G1 X10.2 Z-2.9055
G1 X10.5 Z-3.1057
G1 X11.1 Z-3.4566
G1 X11.4 Z-3.6294
G1 X12.3 Z-4.0188
G1 X12.6 Z-4.1337
G1 X13.2 Z-4.3111
G1 X13.5 Z-4.3998
G1 X13.8 Z-4.4694
G1 X14.4 Z-4.5703
G1 X14.7 Z-4.6206
G1 X15.0 Z-4.6431
G1 X15.3 Z-4.6206
G1 X15.6 Z-4.5797
G1 X16.2 Z-4.4606
G1 X16.5 Z-4.401
G1 X16.8 Z-4.3203
G1 X17.4 Z-4.1237
G1 X17.7 Z-4.0242
G1 X18.0 Z-3.8968
G1 X18.6 Z-3.6161
G1 X18.9 Z-3.4714
G1 X19.2 Z-3.2848
G1 X19.8 Z-2.9101
G1 X20.1 Z-2.9093
G1 X21.3
G1 X21.55 Z-2.9101
G0 Z1.0
G0 X-0.75 Y4.5
G0 Z0.999
G1 F100.0 Z-0.5
G1 F800.0 X7.5
G1 X7.8 Z-0.5572
G1 X8.4 Z-1.3005
G1 X8.7 Z-1.6219
G1 X9.0 Z-1.9133
G1 X9.3 Z-2.2044
G1 X9.6 Z-2.4495
G1 X9.9 Z-2.6776
G1 X10.2 Z-2.9054
G1 X10.5 Z-3.1058
G1 X11.1 Z-3.4567
G1 X11.4 Z-3.6296
G1 X12.0 Z-3.8892
G1 X12.3 Z-4.0189
G1 X12.6 Z-4.134
G1 X13.2 Z-4.3114
G1 X13.5 Z-4.3995
G1 X13.8 Z-4.4697
G1 X14.4 Z-4.5706
G1 X14.7 Z-4.6202
G1 X15.0 Z-4.6435
G1 X15.3 Z-4.6202
G1 X15.6 Z-4.5802
G1 X16.2 Z-4.4611
G1 X16.5 Z-4.4005
G1 X16.8 Z-4.3209
G1 X17.4 Z-4.1243
G1 X17.7 Z-4.0236
G1 X18.0 Z-3.8974
G1 X18.6 Z-3.6168
G1 X18.9 Z-3.4707
G1 X19.2 Z-3.2855
G1 X19.5 Z-3.0982
G1 X19.8 Z-2.9104
G1 X20.1 Z-2.9101
G1 X21.3
G1 X21.55 Z-2.9104
G0 Z1.0
G0 X-0.75 Y5.7
G0 Z0.999
G1 F100.0 Z-0.5
G1 F800.0 X7.5
G1 X7.8 Z-0.5572
G1 X8.4 Z-1.3005
G1 X8.7 Z-1.6219
G1 X9.0 Z-1.9133
G1 X9.3 Z-2.2043
G1 X9.6 Z-2.4496
G1 X9.9 Z-2.6776
G1 X10.2 Z-2.9052
G1 X10.5 Z-3.106
G1 X11.1 Z-3.4568
G1 X11.4 Z-3.6298
G1 X12.0 Z-3.8894
G1 X12.3 Z-4.0186
G1 X12.6 Z-4.1343
G1 X13.2 Z-4.3117
G1 X13.5 Z-4.3991
G1 X13.8 Z-4.47
G1 X14.4 Z-4.5709
G1 X14.7 Z-4.6198
G1 X15.0 Z-4.644
G1 X15.3 Z-4.6197
G1 X15.6 Z-4.5806
G1 X16.2 Z-4.4616
G1 X16.5 Z-4.3999
G1 X16.8 Z-4.3215
G1 X17.4 Z-4.1248
G1 X17.7 Z-4.023
G1 X18.0 Z-3.898
G1 X18.6 Z-3.6174
G1 X18.9 Z-3.47
G1 X19.2 Z-3.2863
G1 X19.5 Z-3.0989
G1 X19.8 Z-2.9104
G1 X21.3
G1 X21.55
G0 Z1.0
G0 X-0.75 Y6.9
G0 Z0.999
G1 F100.0 Z-0.5
G1 F800.0 X7.5
G1 X7.8 Z-0.5572
G1 X8.4 Z-1.3005
G1 X8.7 Z-1.6219
G1 X9.0 Z-1.9133
G1 X9.3 Z-2.2043
G1 X9.6 Z-2.4497
G1 X9.9 Z-2.6777
G1 X10.2 Z-2.905
G1 X10.5 Z-3.1061
G1 X10.8 Z-3.2816
G1 X11.1 Z-3.4569
G1 X11.4 Z-3.6301
G1 X12.0 Z-3.8896
G1 X12.3 Z-4.0183
G1 X12.6 Z-4.1345
G1 X13.2 Z-4.3119
G1 X13.5 Z-4.3988
G1 X13.8 Z-4.4703
G1 X14.4 Z-4.5713
G1 X14.7 Z-4.6195
G1 X15.0 Z-4.6444
G1 X15.3 Z-4.6192
G1 X15.6 Z-4.5811
G1 X16.2 Z-4.4621
G1 X16.5 Z-4.3994
G1 X16.8 Z-4.322
G1 X17.4 Z-4.1254
G1 X17.7 Z-4.0224
G1 X18.0 Z-3.8986
G1 X18.6 Z-3.618
G1 X18.9 Z-3.4693
G1 X19.2 Z-3.287
G1 X19.5 Z-3.0996
G1 X19.8 Z-2.9104
G1 X21.3
G1 X21.55
G0 Z1.0
G0 X-0.75 Y8.1
G0 Z0.999
G1 F100.0 Z-0.5
G1 F800.0 X7.5
G1 X7.8 Z-0.5572
G1 X8.4 Z-1.3005
G1 X8.7 Z-1.6219
G1 X9.0 Z-1.9133
G1 X9.3 Z-2.2042
G1 X9.6 Z-2.4497
G1 X9.9 Z-2.6778
G1 X10.2 Z-2.9049
G1 X10.5 Z-3.1063
G1 X10.8 Z-3.2817
G1 X11.1 Z-3.4567
G1 X11.4 Z-3.6299
G1 X11.7 Z-3.7601
G1 X12.0 Z-3.8898
G1 X12.3 Z-4.0181
G1 X12.6 Z-4.1348
G1 X13.2 Z-4.3122
G1 X13.5 Z-4.3985
G1 X13.8 Z-4.4706
G1 X14.4 Z-4.5716
G1 X14.7 Z-4.6191
G1 X15.0 Z-4.6448
G1 X15.3 Z-4.6187
G1 X15.6 Z-4.5816
G1 X16.2 Z-4.4626
G1 X16.5 Z-4.3988
G1 X16.8 Z-4.3226
G1 X17.4 Z-4.1259
G1 X17.7 Z-4.0217
G1 X18.0 Z-3.8993
G1 X18.3 Z-3.759
G1 X18.6 Z-3.618
G1 X18.9 Z-3.4686
G1 X19.2 Z-3.2877
G1 X19.5 Z-3.1003
G1 X19.8 Z-2.9104
G1 X21.3
G1 X21.55
G0 Z1.0
G0 X-0.75 Y9.3
G0 Z0.999
G1 F100.0 Z-0.5
G1 F800.0 X7.5
G1 X7.8 Z-0.5572
G1 X8.4 Z-1.3005
G1 X8.7 Z-1.6219
G1 X9.0 Z-1.9133
G1 X9.3 Z-2.2041
G1 X9.6 Z-2.4498
G1 X9.9 Z-2.6779
G1 X10.2 Z-2.9047
G1 X10.5 Z-3.1064
G1 X10.8 Z-3.2819
G1 X11.1 Z-3.4564
G1 X11.4 Z-3.6296
G1 X11.7 Z-3.7603
G1 X12.0 Z-3.8901
G1 X12.3 Z-4.0178
G1 X12.6 Z-4.1351
G1 X13.2 Z-4.3125
G1 X13.5 Z-4.3981
G1 X13.8 Z-4.471
G1 X14.4 Z-4.5719
G1 X14.7 Z-4.6187
G1 X15.0 Z-4.6452
G1 X15.3 Z-4.6182
G1 X15.6 Z-4.5821
G1 X16.2 Z-4.4631
G1 X16.5 Z-4.3983
G1 X16.8 Z-4.3231
G1 X17.4 Z-4.1265
G1 X17.7 Z-4.0211
G1 X18.0 Z-3.8999
G1 X18.3 Z-3.7596
G1 X18.6 Z-3.6173
G1 X18.9 Z-3.4679
G1 X19.2 Z-3.2884
G1 X19.5 Z-3.101
G1 X19.8 Z-2.9104
G1 X21.3
G1 X21.55
G0 Z1.0
G0 X-0.75 Y10.5
G0 Z0.999
G1 F100.0 Z-0.5
G1 F800.0 X7.5
G1 X7.8 Z-0.5572
G1 X8.4 Z-1.3005
G1 X8.7 Z-1.6219
G1 X9.0 Z-1.9132
G1 X9.3 Z-2.204
G1 X9.6 Z-2.4499
G1 X9.9 Z-2.6779
G1 X10.2 Z-2.9046
G1 X10.5 Z-3.1066
G1 X10.8 Z-3.282
G1 X11.1 Z-3.4562
G1 X11.4 Z-3.6294
G1 X11.7 Z-3.7605
G1 X12.0 Z-3.8903
G1 X12.3 Z-4.0175
G1 X12.6 Z-4.1353
G1 X12.9 Z-4.224
G1 X13.2 Z-4.3125
G1 X13.5 Z-4.3978
G1 X13.8 Z-4.4713
G1 X14.1 Z-4.5218
G1 X14.4 Z-4.5717
G1 X14.7 Z-4.6183
G1 X15.0 Z-4.6455
G1 X15.3 Z-4.6177
G1 X15.6 Z-4.5826
G1 X15.9 Z-4.5231
G1 X16.2 Z-4.4634
G1 X16.5 Z-4.3977
G1 X16.8 Z-4.3237
G1 X17.1 Z-4.2253
G1 X17.4 Z-4.1262
G1 X17.7 Z-4.0205
G1 X18.0 Z-3.9005
G1 X18.3 Z-3.7602
G1 X18.6 Z-3.6166
G1 X18.9 Z-3.4672
G1 X19.2 Z-3.2891
G1 X19.5 Z-3.1018
G1 X19.8 Z-2.9104
G1 X21.3
G1 X21.55
G0 Z1.0
G0 X-0.75 Y11.7
G0 Z0.999
G1 F100.0 Z-0.5
G1 F800.0 X7.5
G1 X7.8 Z-0.5572
G1 X8.4 Z-1.3005
G1 X8.7 Z-1.6219
G1 X9.0 Z-1.9131
G1 X9.3 Z-2.2039
G1 X9.6 Z-2.45
G1 X9.9 Z-2.6778
G1 X10.2 Z-2.9044
G1 X10.5 Z-3.1067
G1 X10.8 Z-3.2821
G1 X11.1 Z-3.456
G1 X11.4 Z-3.6292
G1 X11.7 Z-3.7607
G1 X12.0 Z-3.8902
G1 X12.3 Z-4.0172
G1 X12.6 Z-4.1356
G1 X12.9 Z-4.2243
G1 X13.2 Z-4.3121
G1 X13.5 Z-4.3975
G1 X13.8 Z-4.4716
G1 X14.1 Z-4.5221
G1 X14.4 Z-4.5714
G1 X14.7 Z-4.6179
G1 X15.0 Z-4.645
G1 X15.3 Z-4.6172
G1 X15.6 Z-4.5831
G1 X15.9 Z-4.5235
G1 X16.2 Z-4.4629
G1 X16.5 Z-4.3972
G1 X16.8 Z-4.3242
G1 X17.1 Z-4.2259
G1 X17.4 Z-4.1256
G1 X17.7 Z-4.0199
G1 X18.0 Z-3.9012
G1 X18.3 Z-3.7608
G1 X18.6 Z-3.6159
G1 X18.9 Z-3.4665
G1 X19.2 Z-3.2899
G1 X19.5 Z-3.1025
G1 X19.8 Z-2.9104
G1 X21.3
G1 X21.55
G0 Z1.0
G0 X-0.75 Y12.9
G0 Z0.999
G1 F100.0 Z-0.5
G1 F800.0 X7.5
G1 X7.8 Z-0.5572
G1 X8.4 Z-1.3005
G1 X8.7 Z-1.6219
G1 X9.0 Z-1.913
G1 X9.3 Z-2.2038
G1 X9.6 Z-2.45
G1 X9.9 Z-2.6777
G1 X10.2 Z-2.9042
G1 X10.5 Z-3.1069
G1 X10.8 Z-3.2823
G1 X11.1 Z-3.4557
G1 X11.4 Z-3.629
G1 X11.7 Z-3.7609
G1 X12.0 Z-3.89
G1 X12.3 Z-4.0169
G1 X12.6 Z-4.1359
G1 X12.9 Z-4.2246
G1 X13.2 Z-4.3118
G1 X13.5 Z-4.3971
G1 X13.8 Z-4.4719
G1 X14.1 Z-4.5224
G1 X14.4 Z-4.571
G1 X14.7 Z-4.6176
G1 X15.0 Z-4.6445
G1 X15.3 Z-4.6167
G1 X15.6 Z-4.5835
G1 X15.9 Z-4.524
G1 X16.2 Z-4.4623
G1 X16.5 Z-4.3966
G1 X16.8 Z-4.3248
G1 X17.1 Z-4.2265
G1 X17.4 Z-4.125
G1 X17.7 Z-4.0193
G1 X18.0 Z-3.9018
G1 X18.3 Z-3.7615
G1 X18.6 Z-3.6152
G1 X18.9 Z-3.4658
G1 X19.2 Z-3.2906
G1 X19.5 Z-3.1032
G1 X19.8 Z-2.9104
G1 X21.3
G1 X21.55
G0 Z1.0
G0 X-0.75 Y14.1
G0 Z0.999
G1 F100.0 Z-0.5
G1 F800.0 X7.5
G1 X7.8 Z-0.5572
G1 X8.4 Z-1.3005
G1 X8.7 Z-1.6219
G1 X9.0 Z-1.9129
G1 X9.3 Z-2.2037
G1 X9.6 Z-2.4501
G1 X9.9 Z-2.6775
G1 X10.2 Z-2.9041
G1 X10.5 Z-3.107
G1 X10.8 Z-3.2823
G1 X11.4 Z-3.6287
G1 X11.7 Z-3.7611
G1 X12.0 Z-3.8897
G1 X12.3 Z-4.0166
G1 X12.6 Z-4.1361
G1 X12.9 Z-4.2248
G1 X13.2 Z-4.3115
G1 X13.5 Z-4.3968
G1 X13.8 Z-4.4722
G1 X14.1 Z-4.5227
G1 X14.4 Z-4.5706
G1 X14.7 Z-4.6172
G1 X15.0 Z-4.6441
G1 X15.3 Z-4.6163
G1 X15.6 Z-4.584
G1 X15.9 Z-4.5245
G1 X16.2 Z-4.4618
G1 X16.5 Z-4.3961
G1 X16.8 Z-4.3253
G1 X17.1 Z-4.227
G1 X17.4 Z-4.1244
G1 X17.7 Z-4.0186
G1 X18.0 Z-3.9024
G1 X18.3 Z-3.7621
G1 X18.6 Z-3.6145
G1 X18.9 Z-3.4651
G1 X19.2 Z-3.2913
G1 X19.5 Z-3.1032
G1 X19.8 Z-2.9104
G1 X21.3
G1 X21.55
G0 Z1.0
G0 X-0.75 Y15.3
G0 Z0.999
G1 F100.0 Z-0.5
G1 F800.0 X7.5
G1 X7.8 Z-0.5572
G1 X8.4 Z-1.3005
G1 X8.7 Z-1.6219
G1 X9.0 Z-1.9129
G1 X9.3 Z-2.2037
G1 X9.6 Z-2.4502
G1 X9.9 Z-2.6774
G1 X10.2 Z-2.9039
G1 X10.5 Z-3.1072
G1 X10.8 Z-3.2821
G1 X11.4 Z-3.6285
G1 X11.7 Z-3.7613
G1 X12.0 Z-3.8894
G1 X12.3 Z-4.0164
G1 X12.6 Z-4.1364
G1 X12.9 Z-4.2251
G1 X13.2 Z-4.3111
G1 X13.5 Z-4.3965
G1 X13.8 Z-4.4726
G1 X14.1 Z-4.523
G1 X14.4 Z-4.5702
G1 X14.7 Z-4.6168
G1 X15.0 Z-4.6436
G1 X15.3 Z-4.6158
G1 X15.6 Z-4.5845
G1 X15.9 Z-4.525
G1 X16.2 Z-4.4612
G1 X16.5 Z-4.3955
G1 X16.8 Z-4.3259
G1 X17.1 Z-4.2276
G1 X17.4 Z-4.1237
G1 X17.7 Z-4.018
G1 X18.0 Z-3.903
G1 X18.3 Z-3.7627
G1 X18.6 Z-3.6138
G1 X18.9 Z-3.4644
G1 X19.2 Z-3.292
G1 X19.5 Z-3.1032
G1 X19.8 Z-2.9104
G1 X21.3
G1 X21.55
G0 Z1.0
G0 X-0.75 Y16.5
G0 Z0.999
G1 F100.0 Z-0.5
G1 F800.0 X7.5
G1 X7.8 Z-0.5572
G1 X8.4 Z-1.3005
G1 X8.7 Z-1.6219
G1 X9.0 Z-1.9128
G1 X9.3 Z-2.2036
G1 X9.6 Z-2.4503
G1 X9.9 Z-2.6772
G1 X10.2 Z-2.9037
G1 X10.5 Z-3.1073
G1 X10.8 Z-3.2819
G1 X11.4 Z-3.6283
G1 X11.7 Z-3.7615
G1 X12.0 Z-3.8891
G1 X12.3 Z-4.0161
G1 X12.6 Z-4.1366
G1 X12.9 Z-4.2254
G1 X13.2 Z-4.3108
G1 X13.5 Z-4.3961
G1 X13.8 Z-4.4729
G1 X14.1 Z-4.5233
G1 X14.7 Z-4.6164
G1 X15.0 Z-4.6431
G1 X15.3 Z-4.6153
G1 X15.6 Z-4.585
G1 X15.9 Z-4.5255
G1 X16.2 Z-4.4607
G1 X16.5 Z-4.395
G1 X16.8 Z-4.3264
G1 X17.1 Z-4.2281
G1 X17.4 Z-4.1231
G1 X17.7 Z-4.0174
G1 X18.0 Z-3.9037
G1 X18.3 Z-3.7625
G1 X18.9 Z-3.4637
G1 X19.2 Z-3.2928
G1 X19.5 Z-3.1032
G1 X19.8 Z-2.9104
G1 X21.3
G1 X21.55
G0 Z1.0
G0 X-0.75 Y17.7
G0 Z0.999
G1 F100.0 Z-0.5
G1 F800.0 X7.5
G1 X7.8 Z-0.5572
G1 X8.4 Z-1.3005
G1 X8.7 Z-1.6219
G1 X9.0 Z-1.9127
G1 X9.3 Z-2.2035
G1 X9.6 Z-2.4503
G1 X9.9 Z-2.677
G1 X10.2 Z-2.9036
G1 X10.5 Z-3.1074
G1 X10.8 Z-3.2816
G1 X11.4 Z-3.628
G1 X11.7 Z-3.7617
G1 X12.0 Z-3.8888
G1 X12.3 Z-4.0158
G1 X12.6 Z-4.1369
G1 X12.9 Z-4.2251
G1 X13.5 Z-4.3958
G1 X13.8 Z-4.4732
G1 X14.1 Z-4.5229
G1 X14.7 Z-4.616
G1 X15.0 Z-4.6426
G1 X15.3 Z-4.6148
G1 X15.6 Z-4.5855
G1 X15.9 Z-4.5258
G1 X16.5 Z-4.3944
G1 X16.8 Z-4.327
G1 X17.1 Z-4.2282
G1 X17.7 Z-4.0168
G1 X18.0 Z-3.9043
G1 X18.3 Z-3.7618
G1 X18.9 Z-3.463
G1 X19.2 Z-3.2935
G1 X19.5 Z-3.1032
G1 X19.8 Z-2.9104
G1 X21.3
G1 X21.55
G0 Z1.0
G0 X-0.75 Y18.9
G0 Z0.999
G1 F100.0 Z-0.5
G1 F800.0 X7.5
G1 X7.8 Z-0.5572
G1 X8.4 Z-1.3005
G1 X8.7 Z-1.6218
G1 X9.3 Z-2.2034
G1 X9.6 Z-2.4503
G1 X10.2 Z-2.9034
G1 X10.5 Z-3.1076
G1 X10.8 Z-3.2814
G1 X11.4 Z-3.6278
G1 X11.7 Z-3.7616
G1 X12.3 Z-4.0155
G1 X12.6 Z-4.1372
G1 X12.9 Z-4.2248
G1 X13.5 Z-4.3955
G1 X13.8 Z-4.4735
G1 X14.1 Z-4.5225
G1 X14.7 Z-4.6156
G1 X15.0 Z-4.6421
G1 X15.3 Z-4.6143
G1 X15.6 Z-4.586
G1 X15.9 Z-4.5253
G1 X16.5 Z-4.3939
G1 X16.8 Z-4.3275
G1 X17.1 Z-4.2276
G1 X17.7 Z-4.0162
G1 X18.0 Z-3.9049
G1 X18.3 Z-3.7611
G1 X18.9 Z-3.4623
G1 X19.2 Z-3.2942
G1 X19.5 Z-3.1032
G1 X19.8 Z-2.9104
G1 X21.3
G1 X21.55
G0 Z1.0
G0 X-0.75 Y20.1
G0 Z0.999
G1 F100.0 Z-0.5
G1 F800.0 X7.5
G1 X7.8 Z-0.5572
G1 X8.4 Z-1.3005
G1 X8.7 Z-1.6217
G1 X9.3 Z-2.2033
G1 X9.6 Z-2.4502
G1 X10.2 Z-2.9033
G1 X10.5 Z-3.1077
G1 X10.8 Z-3.2812
G1 X11.4 Z-3.6276
G1 X11.7 Z-3.7613
G1 X12.3 Z-4.0152
G1 X12.6 Z-4.1374
G1 X12.9 Z-4.2244
G1 X13.5 Z-4.3951
G1 X13.8 Z-4.4738
G1 X14.1 Z-4.5221
G1 X14.7 Z-4.6153
G1 X15.0 Z-4.6416
G1 X15.6 Z-4.586
G1 X15.9 Z-4.5248
G1 X16.8 Z-4.3276
G1 X17.1 Z-4.227
G1 X17.7 Z-4.0156
G1 X18.0 Z-3.9055
G1 X18.3 Z-3.7604
G1 X18.9 Z-3.4616
G1 X19.2 Z-3.2949
G1 X19.5 Z-3.1032
G1 X19.8 Z-2.9104
G1 X21.3
G1 X21.55
G0 Z1.0
G0 X-0.75 Y21.3
G0 Z0.999
G1 F100.0 Z-0.5
G1 F800.0 X7.5
G1 X7.8 Z-0.5572
G1 X8.4 Z-1.3005
G1 X8.7 Z-1.6216
G1 X9.3 Z-2.2032
G1 X9.6 Z-2.45
G1 X10.2 Z-2.9031
G1 X10.5 Z-3.1078
G1 X11.4 Z-3.6274
G1 X11.7 Z-3.761
G1 X12.3 Z-4.015
G1 X12.6 Z-4.1377
G1 X12.9 Z-4.2241
G1 X13.5 Z-4.3948
G1 X13.8 Z-4.4741
G1 X14.1 Z-4.5217
G1 X14.7 Z-4.6149
G1 X15.0 Z-4.6411
G1 X15.6 Z-4.5855
G1 X15.9 Z-4.5242
G1 X16.8 Z-4.3271
G1 X17.1 Z-4.2264
G1 X17.7 Z-4.0149
G1 X18.0 Z-3.9062
G1 X18.3 Z-3.7597
G1 X18.9 Z-3.4609
G1 X19.2 Z-3.2956
G1 X19.5 Z-3.1032
G1 X19.8 Z-2.9104
G1 X21.3
G1 X21.55
G0 Z1.0
G0 X-0.75 Y22.5
G0 Z0.999
G1 F100.0 Z-0.5
G1 F800.0 X7.5
G1 X7.8 Z-0.5572
G1 X8.4 Z-1.3005
G1 X8.7 Z-1.6216
G1 X9.3 Z-2.2032
G1 X9.6 Z-2.4498
G1 X10.2 Z-2.9029
G1 X10.5 Z-3.1075
G1 X11.4 Z-3.6271
G1 X11.7 Z-3.7607
G1 X12.3 Z-4.0147
G1 X12.6 Z-4.138
G1 X12.9 Z-4.2238
G1 X13.5 Z-4.3945
G1 X13.8 Z-4.4745
G1 X14.1 Z-4.5213
G1 X14.7 Z-4.6145
G1 X15.0 Z-4.6406
G1 X15.6 Z-4.585
G1 X15.9 Z-4.5237
G1 X16.8 Z-4.3266
G1 X17.1 Z-4.2258
G1 X17.7 Z-4.0143
G1 X18.0 Z-3.9068
G1 X18.3 Z-3.759
G1 X18.9 Z-3.4602
G1 X19.2 Z-3.296
G1 X19.8 Z-2.9104
G1 X21.3
G1 X21.55
G0 Z1.0
G0 X-0.75 Y23.7
G0 Z0.999
G1 F100.0 Z-0.5
G1 F800.0 X7.5
G1 X7.8 Z-0.5572
G1 X8.4 Z-1.3005
G1 X8.7 Z-1.6215
G1 X9.3 Z-2.2031
G1 X9.6 Z-2.4498
G1 X10.2 Z-2.9029
G1 X10.5 Z-3.1074
G1 X11.4 Z-3.627
G1 X11.7 Z-3.7606
G1 X12.3 Z-4.0145
G1 X12.6 Z-4.1382
G1 X12.9 Z-4.2236
G1 X13.5 Z-4.3943
G1 X13.8 Z-4.4746
G1 X14.7 Z-4.6143
G1 X15.0 Z-4.6404
G1 X15.6 Z-4.5848
G1 X15.9 Z-4.5234
G1 X16.8 Z-4.3263
G1 X17.1 Z-4.2254
G1 X17.7 Z-4.014
G1 X18.0 Z-3.9074
G1 X18.3 Z-3.7586
G1 X18.9 Z-3.4598
G1 X19.2 Z-3.296
G1 X19.8 Z-2.9104
G1 X21.3
G1 X21.55
G0 Z1.0
G0 X-0.75 Y24.9
G0 Z0.999
G1 F100.0 Z-0.5
G1 F800.0 X7.5
G1 X7.8 Z-0.5572
G1 X8.4 Z-1.3005
G1 X8.7 Z-1.6215
G1 X9.3 Z-2.2031
G1 X9.6 Z-2.4498
G1 X10.2 Z-2.9029
G1 X10.5 Z-3.1074
G1 X11.4 Z-3.627
G1 X11.7 Z-3.7606
G1 X12.3 Z-4.0145
G1 X12.6 Z-4.1382
G1 X13.5 Z-4.3943
G1 X13.8 Z-4.4746
G1 X14.7 Z-4.6143
G1 X15.0 Z-4.6404
G1 X15.6 Z-4.5848
G1 X15.9 Z-4.5234
G1 X16.8 Z-4.3263
G1 X17.1 Z-4.2254
G1 X17.7 Z-4.014
G1 X18.0 Z-3.908
G1 X18.9 Z-3.4598
G1 X19.2 Z-3.296
G1 X19.8 Z-2.9104
G1 X21.3
G1 X21.55
G0 Z1.0
G0 X-0.75 Y26.1
G0 Z0.999
G1 F100.0 Z-0.5
G1 F800.0 X7.5
G1 X7.8 Z-0.5572
G1 X8.4 Z-1.3005
G1 X8.7 Z-1.6215
G1 X9.3 Z-2.2031
G1 X9.6 Z-2.4498
G1 X10.2 Z-2.9029
G1 X10.5 Z-3.1074
G1 X11.4 Z-3.627
G1 X11.7 Z-3.7606
G1 X12.3 Z-4.0145
G1 X12.6 Z-4.1382
G1 X13.5 Z-4.3943
G1 X13.8 Z-4.4746
G1 X14.7 Z-4.6143
G1 X15.0 Z-4.6404
G1 X15.6 Z-4.5848
G1 X15.9 Z-4.5234
G1 X16.8 Z-4.3263
G1 X17.1 Z-4.2254
G1 X17.7 Z-4.014
G1 X18.0 Z-3.908
G1 X18.9 Z-3.4598
G1 X19.2 Z-3.296
G1 X19.8 Z-2.9104
G1 X21.3
G1 X21.55
G0 Z1.0
G0 X-0.75 Y27.3
G0 Z0.999
G1 F100.0 Z-0.5
G1 F800.0 X7.5
G1 X7.8 Z-0.5572
G1 X8.4 Z-1.3005
G1 X8.7 Z-1.6215
G1 X9.3 Z-2.2031
G1 X9.6 Z-2.4498
G1 X10.2 Z-2.9029
G1 X10.5 Z-3.1074
G1 X11.4 Z-3.627
G1 X11.7 Z-3.7606
G1 X12.3 Z-4.0145
G1 X12.6 Z-4.1382
G1 X13.5 Z-4.3943
G1 X13.8 Z-4.4746
G1 X14.7 Z-4.6143
G1 X15.0 Z-4.6404
G1 X15.6 Z-4.5848
G1 X15.9 Z-4.5234
G1 X16.8 Z-4.3263
G1 X17.1 Z-4.2254
G1 X17.7 Z-4.014
G1 X18.0 Z-3.908
G1 X18.9 Z-3.4598
G1 X19.2 Z-3.296
G1 X19.8 Z-2.9104
G1 X21.3
G1 X21.55
G0 Z1.0
G0 X-0.75 Y28.5
G0 Z0.999
G1 F100.0 Z-0.5
G1 F800.0 X7.5
G1 X7.8 Z-0.5572
G1 X8.4 Z-1.3005
G1 X8.7 Z-1.6215
G1 X9.3 Z-2.2031
G1 X9.6 Z-2.4498
G1 X10.2 Z-2.9029
G1 X10.5 Z-3.1074
G1 X11.4 Z-3.627
G1 X11.7 Z-3.7606
G1 X12.3 Z-4.0145
G1 X12.6 Z-4.1382
G1 X13.5 Z-4.3943
G1 X13.8 Z-4.4746
G1 X14.7 Z-4.6143
G1 X15.0 Z-4.6404
G1 X15.6 Z-4.5848
G1 X15.9 Z-4.5234
G1 X16.8 Z-4.3263
G1 X17.1 Z-4.2254
G1 X17.7 Z-4.014
G1 X18.0 Z-3.908
G1 X18.9 Z-3.4598
G1 X19.2 Z-3.296
G1 X19.8 Z-2.9104
G1 X21.3
G1 X21.55
G0 Z1.0
G0 X-0.75 Y29.7
G0 Z0.999
G1 F100.0 Z-0.5
G1 F800.0 X7.5
G1 X7.8 Z-0.5572
G1 X8.4 Z-1.3005
G1 X8.7 Z-1.6215
G1 X9.3 Z-2.2031
G1 X9.6 Z-2.4498
G1 X10.2 Z-2.9029
G1 X10.5 Z-3.1074
G1 X11.4 Z-3.627
G1 X11.7 Z-3.7606
G1 X12.3 Z-4.0145
G1 X12.6 Z-4.1382
G1 X13.5 Z-4.3943
G1 X13.8 Z-4.4746
G1 X14.7 Z-4.6143
G1 X15.0 Z-4.6404
G1 X15.6 Z-4.5848
G1 X15.9 Z-4.5234
G1 X16.8 Z-4.3263
G1 X17.1 Z-4.2254
G1 X17.7 Z-4.014
G1 X18.0 Z-3.908
G1 X18.9 Z-3.4598
G1 X19.2 Z-3.296
G1 X19.8 Z-2.9104
G1 X21.3
G1 X21.55
G0 Z1.0
G0 X-0.75 Y30.9
G0 Z0.999
G1 F100.0 Z-0.5
G1 F800.0 X7.5
G1 X7.8 Z-0.5572
G1 X8.4 Z-1.3005
G1 X8.7 Z-1.6215
G1 X9.3 Z-2.2031
G1 X9.6 Z-2.4498
G1 X10.2 Z-2.9029
G1 X10.5 Z-3.1074
G1 X11.4 Z-3.627
G1 X11.7 Z-3.7606
G1 X12.3 Z-4.0145
G1 X12.6 Z-4.1382
G1 X13.5 Z-4.3943
G1 X13.8 Z-4.4746
G1 X14.7 Z-4.6143
G1 X15.0 Z-4.6404
G1 X15.6 Z-4.5848
G1 X15.9 Z-4.5234
G1 X16.8 Z-4.3263
G1 X17.1 Z-4.2254
G1 X17.7 Z-4.014
G1 X18.0 Z-3.908
G1 X18.9 Z-3.4598
G1 X19.2 Z-3.296
G1 X19.8 Z-2.9104
G1 X21.3
G1 X21.55
G0 Z1.0
G0 X-0.75 Y32.1
G0 Z0.999
G1 F100.0 Z-0.5
G1 F800.0 X7.5
G1 X7.8 Z-0.5572
G1 X8.4 Z-1.3005
G1 X8.7 Z-1.6215
G1 X9.3 Z-2.2031
G1 X9.6 Z-2.4498
G1 X10.2 Z-2.9029
G1 X10.5 Z-3.1074
G1 X11.4 Z-3.627
G1 X11.7 Z-3.7606
G1 X12.3 Z-4.0145
G1 X12.6 Z-4.1382
G1 X13.5 Z-4.3943
G1 X13.8 Z-4.4746
G1 X14.7 Z-4.6143
G1 X15.0 Z-4.6404
G1 X15.6 Z-4.5848
G1 X15.9 Z-4.5234
G1 X16.8 Z-4.3263
G1 X17.1 Z-4.2254
G1 X17.7 Z-4.014
G1 X18.0 Z-3.908
G1 X18.9 Z-3.4598
G1 X19.2 Z-3.296
G1 X19.8 Z-2.9104
G1 X21.3
G1 X21.55
G0 Z1.0
G0 X-0.75 Y33.3
G0 Z0.999
G1 F100.0 Z-0.5
G1 F800.0 X7.5
G1 X7.8 Z-0.5572
G1 X8.4 Z-1.3005
G1 X8.7 Z-1.6215
G1 X9.3 Z-2.2031
G1 X9.6 Z-2.4498
G1 X10.2 Z-2.9029
G1 X10.5 Z-3.1074
G1 X11.4 Z-3.627
G1 X11.7 Z-3.7606
G1 X12.3 Z-4.0145
G1 X12.6 Z-4.1382
G1 X13.5 Z-4.3943
G1 X13.8 Z-4.4746
G1 X14.7 Z-4.6143
G1 X15.0 Z-4.6404
G1 X15.6 Z-4.5848
G1 X15.9 Z-4.5234
G1 X16.8 Z-4.3263
G1 X17.1 Z-4.2254
G1 X17.7 Z-4.014
G1 X18.0 Z-3.908
G1 X18.9 Z-3.4598
G1 X19.2 Z-3.296
G1 X19.8 Z-2.9104
G1 X21.3
G1 X21.55
G0 Z1.0
G0 X-0.75 Y34.5
G0 Z0.999
G1 F100.0 Z-0.5
G1 F800.0 X7.5
G1 X7.8 Z-0.5572
G1 X8.4 Z-1.3005
G1 X8.7 Z-1.6215
G1 X9.3 Z-2.2031
G1 X9.6 Z-2.4498
G1 X10.2 Z-2.9029
G1 X10.5 Z-3.1074
G1 X11.4 Z-3.627
G1 X11.7 Z-3.7606
G1 X12.3 Z-4.0145
G1 X12.6 Z-4.1382
G1 X13.5 Z-4.3943
G1 X13.8 Z-4.4746
G1 X14.7 Z-4.6143
G1 X15.0 Z-4.6404
G1 X15.6 Z-4.5848
G1 X15.9 Z-4.5234
G1 X16.8 Z-4.3263
G1 X17.1 Z-4.2254
G1 X17.7 Z-4.014
G1 X18.0 Z-3.908
G1 X18.9 Z-3.4598
G1 X19.2 Z-3.296
G1 X19.8 Z-2.9104
G1 X21.3
G1 X21.55
G0 Z1.0
G0 X-0.75 Y35.7
G0 Z0.999
G1 F100.0 Z-0.5
G1 F800.0 X7.5
G1 X7.8 Z-0.5572
G1 X8.4 Z-1.3005
G1 X8.7 Z-1.6215
G1 X9.3 Z-2.2031
G1 X9.6 Z-2.4498
G1 X10.2 Z-2.9029
G1 X10.5 Z-3.1074
G1 X11.4 Z-3.627
G1 X11.7 Z-3.7606
G1 X12.3 Z-4.0145
G1 X12.6 Z-4.1382
G1 X13.5 Z-4.3943
G1 X13.8 Z-4.4746
G1 X14.7 Z-4.6143
G1 X15.0 Z-4.6404
G1 X15.6 Z-4.5848
G1 X15.9 Z-4.5234
G1 X16.8 Z-4.3263
G1 X17.1 Z-4.2254
G1 X17.7 Z-4.014
G1 X18.0 Z-3.908
G1 X18.9 Z-3.4598
G1 X19.2 Z-3.296
G1 X19.8 Z-2.9104
G1 X21.3
G1 X21.55
G0 Z1.0
G0 X-0.75 Y36.9
G0 Z0.999
G1 F100.0 Z-0.5
G1 F800.0 X7.5
G1 X7.8 Z-0.5572
G1 X8.4 Z-1.3005
G1 X8.7 Z-1.6215
G1 X9.3 Z-2.2031
G1 X9.6 Z-2.4498
G1 X10.2 Z-2.9029
G1 X10.5 Z-3.1074
G1 X11.4 Z-3.627
G1 X11.7 Z-3.7606
G1 X12.3 Z-4.0145
G1 X12.6 Z-4.1382
G1 X13.5 Z-4.3943
G1 X13.8 Z-4.4746
G1 X14.7 Z-4.6143
G1 X15.0 Z-4.6404
G1 X15.6 Z-4.5848
G1 X15.9 Z-4.5234
G1 X16.8 Z-4.3263
G1 X17.1 Z-4.2254
G1 X17.7 Z-4.014
G1 X18.0 Z-3.908
G1 X18.9 Z-3.4598
G1 X19.2 Z-3.296
G1 X19.8 Z-2.9104
G1 X21.3
G1 X21.55
G0 Z1.0
G0 X-0.75 Y38.1
G0 Z0.999
G1 F100.0 Z-0.5
G1 F800.0 X7.5
G1 X7.8 Z-0.5572
G1 X8.4 Z-1.3005
G1 X8.7 Z-1.6215
G1 X9.3 Z-2.2031
G1 X9.6 Z-2.4498
G1 X10.2 Z-2.9029
G1 X10.5 Z-3.1074
G1 X11.4 Z-3.627
G1 X11.7 Z-3.7606
G1 X12.3 Z-4.0145
G1 X12.6 Z-4.1382
G1 X13.5 Z-4.3943
G1 X13.8 Z-4.4746
G1 X14.7 Z-4.6143
G1 X15.0 Z-4.6404
G1 X15.6 Z-4.5848
G1 X15.9 Z-4.5234
G1 X16.8 Z-4.3263
G1 X17.1 Z-4.2254
G1 X17.7 Z-4.014
G1 X18.0 Z-3.908
G1 X18.9 Z-3.4598
G1 X19.2 Z-3.296
G1 X19.8 Z-2.9104
G1 X21.3
G1 X21.55
G0 Z1.0
G0 X-0.75 Y39.3
G0 Z0.999
G1 F100.0 Z-0.5
G1 F800.0 X7.5
G1 X7.8 Z-0.5572
G1 X8.4 Z-1.3005
G1 X8.7 Z-1.6215
G1 X9.3 Z-2.2031
G1 X9.6 Z-2.4498
G1 X10.2 Z-2.9029
G1 X10.5 Z-3.1074
G1 X11.4 Z-3.627
G1 X11.7 Z-3.7606
G1 X12.3 Z-4.0145
G1 X12.6 Z-4.1382
G1 X13.5 Z-4.3943
G1 X13.8 Z-4.4746
G1 X14.7 Z-4.6143
G1 X15.0 Z-4.6404
G1 X15.6 Z-4.5848
G1 X15.9 Z-4.5234
G1 X16.8 Z-4.3263
G1 X17.1 Z-4.2254
G1 X17.7 Z-4.014
G1 X18.0 Z-3.908
G1 X18.9 Z-3.4598
G1 X19.2 Z-3.296
G1 X19.8 Z-2.9104
G1 X21.3
G1 X21.55
G0 Z1.0
G0 X-0.75 Y40.5
G0 Z0.999
G1 F100.0 Z-0.5
G1 F800.0 X7.5
G1 X7.8 Z-0.5572
G1 X8.4 Z-1.3005
G1 X8.7 Z-1.6215
G1 X9.3 Z-2.2031
G1 X9.6 Z-2.4498
G1 X10.2 Z-2.9029
G1 X10.5 Z-3.1074
G1 X11.4 Z-3.627
G1 X11.7 Z-3.7606
G1 X12.3 Z-4.0145
G1 X12.6 Z-4.1382
G1 X13.5 Z-4.3943
G1 X13.8 Z-4.4746
G1 X14.7 Z-4.6143
G1 X15.0 Z-4.6404
G1 X15.6 Z-4.5848
G1 X15.9 Z-4.5234
G1 X16.8 Z-4.3263
G1 X17.1 Z-4.2254
G1 X17.7 Z-4.014
G1 X18.0 Z-3.908
G1 X18.9 Z-3.4598
G1 X19.2 Z-3.296
G1 X19.8 Z-2.9104
G1 X21.3
G1 X21.55
G0 Z1.0
G0 X-0.75 Y41.7
G0 Z0.999
G1 F100.0 Z-0.5
G1 F800.0 X7.5
G1 X7.8 Z-0.5572
G1 X8.4 Z-1.3005
G1 X8.7 Z-1.6215
G1 X9.3 Z-2.2031
G1 X9.6 Z-2.4498
G1 X10.2 Z-2.9029
G1 X10.5 Z-3.1074
G1 X11.4 Z-3.627
G1 X11.7 Z-3.7606
G1 X12.3 Z-4.0145
G1 X12.6 Z-4.1382
G1 X13.5 Z-4.3943
G1 X13.8 Z-4.4746
G1 X14.7 Z-4.6143
G1 X15.0 Z-4.6404
G1 X15.6 Z-4.5848
G1 X15.9 Z-4.5234
G1 X16.8 Z-4.3263
G1 X17.1 Z-4.2254
G1 X17.7 Z-4.014
G1 X18.0 Z-3.908
G1 X18.9 Z-3.4598
G1 X19.2 Z-3.296
G1 X19.8 Z-2.9104
G1 X21.3
G1 X21.55
G0 Z1.0
G0 X-0.75 Y42.9
G0 Z0.999
G1 F100.0 Z-0.5
G1 F800.0 X7.5
G1 X7.8 Z-0.5572
G1 X8.4 Z-1.3005
G1 X8.7 Z-1.6215
G1 X9.3 Z-2.2031
G1 X9.6 Z-2.4498
G1 X10.2 Z-2.9029
G1 X10.5 Z-3.1074
G1 X11.4 Z-3.627
G1 X11.7 Z-3.7606
G1 X12.3 Z-4.0145
G1 X12.6 Z-4.1382
G1 X13.5 Z-4.3943
G1 X13.8 Z-4.4746
G1 X14.7 Z-4.6143
G1 X15.0 Z-4.6404
G1 X15.6 Z-4.5848
G1 X15.9 Z-4.5234
G1 X16.8 Z-4.3263
G1 X17.1 Z-4.2254
G1 X17.7 Z-4.014
G1 X18.0 Z-3.908
G1 X18.9 Z-3.4598
G1 X19.2 Z-3.296
G1 X19.8 Z-2.9104
G1 X21.3
G1 X21.55
G0 Z1.0
G0 X-0.75 Y44.1
G0 Z0.999
G1 F100.0 Z-0.5
G1 F800.0 X7.5
G1 X7.8 Z-0.5572
G1 X8.4 Z-1.3005
G1 X8.7 Z-1.6215
G1 X9.3 Z-2.2031
G1 X9.6 Z-2.4498
G1 X10.2 Z-2.9029
G1 X10.5 Z-3.1074
G1 X11.4 Z-3.627
G1 X11.7 Z-3.7606
G1 X12.3 Z-4.0145
G1 X12.6 Z-4.1382
G1 X13.5 Z-4.3943
G1 X13.8 Z-4.4746
G1 X14.7 Z-4.6143
G1 X15.0 Z-4.6404
G1 X15.6 Z-4.5848
G1 X15.9 Z-4.5234
G1 X16.8 Z-4.3263
G1 X17.1 Z-4.2254
G1 X17.7 Z-4.014
G1 X18.0 Z-3.908
G1 X18.9 Z-3.4598
G1 X19.2 Z-3.296
G1 X19.8 Z-2.9104
G1 X21.3
G1 X21.55
G0 Z1.0
G0 X-0.75 Y45.3
G0 Z0.999
G1 F100.0 Z-0.5
G1 F800.0 X7.5
G1 X7.8 Z-0.5572
G1 X8.4 Z-1.3005
G1 X8.7 Z-1.6215
G1 X9.3 Z-2.2031
G1 X9.6 Z-2.4498
G1 X10.2 Z-2.9029
G1 X10.5 Z-3.1074
G1 X11.4 Z-3.627
G1 X11.7 Z-3.7606
G1 X12.3 Z-4.0145
G1 X12.6 Z-4.1382
G1 X13.5 Z-4.3943
G1 X13.8 Z-4.4746
G1 X14.7 Z-4.6143
G1 X15.0 Z-4.6404
G1 X15.6 Z-4.5848
G1 X15.9 Z-4.5234
G1 X16.8 Z-4.3263
G1 X17.1 Z-4.2254
G1 X17.7 Z-4.014
G1 X18.0 Z-3.908
G1 X18.9 Z-3.4598
G1 X19.2 Z-3.296
G1 X19.8 Z-2.9104
G1 X21.3
G1 X21.55
G0 Z1.0
G0 X-0.75 Y46.5
G0 Z0.999
G1 F100.0 Z-0.5
G1 F800.0 X7.5
G1 X7.8 Z-0.5572
G1 X8.4 Z-1.3005
G1 X8.7 Z-1.6215
G1 X9.3 Z-2.2031
G1 X9.6 Z-2.4498
G1 X10.2 Z-2.9029
G1 X10.5 Z-3.1074
G1 X11.4 Z-3.627
G1 X11.7 Z-3.7606
G1 X12.3 Z-4.0145
G1 X12.6 Z-4.1382
G1 X13.5 Z-4.3943
G1 X13.8 Z-4.4746
G1 X14.7 Z-4.6143
G1 X15.0 Z-4.6404
G1 X15.6 Z-4.5848
G1 X15.9 Z-4.5234
G1 X16.8 Z-4.3263
G1 X17.1 Z-4.2254
G1 X17.7 Z-4.014
G1 X18.0 Z-3.908
G1 X18.9 Z-3.4598
G1 X19.2 Z-3.296
G1 X19.8 Z-2.9104
G1 X21.3
G1 X21.55
G0 Z1.0
G0 X-0.75 Y47.7
G0 Z0.999
G1 F100.0 Z-0.5
G1 F800.0 X7.5
G1 X7.8 Z-0.5572
G1 X8.4 Z-1.3005
G1 X8.7 Z-1.6215
G1 X9.3 Z-2.2031
G1 X9.6 Z-2.4498
G1 X10.2 Z-2.9029
G1 X10.5 Z-3.1074
G1 X11.4 Z-3.627
G1 X11.7 Z-3.7606
G1 X12.3 Z-4.0145
G1 X12.6 Z-4.1382
G1 X13.5 Z-4.3943
G1 X13.8 Z-4.4746
G1 X14.7 Z-4.6143
G1 X15.0 Z-4.6404
G1 X15.6 Z-4.5848
G1 X15.9 Z-4.5234
G1 X16.8 Z-4.3263
G1 X17.1 Z-4.2254
G1 X17.7 Z-4.014
G1 X18.0 Z-3.908
G1 X18.9 Z-3.4598
G1 X19.2 Z-3.296
G1 X19.8 Z-2.9104
G1 X21.3
G1 X21.55
G0 Z1.0
G0 X-0.75 Y48.9
G0 Z0.999
G1 F100.0 Z-0.5
G1 F800.0 X7.5
G1 X7.8 Z-0.5572
G1 X8.4 Z-1.3005
G1 X8.7 Z-1.6215
G1 X9.3 Z-2.2031
G1 X9.6 Z-2.4498
G1 X10.2 Z-2.9029
G1 X10.5 Z-3.1074
G1 X11.4 Z-3.627
G1 X11.7 Z-3.7606
G1 X12.3 Z-4.0145
G1 X12.6 Z-4.1382
G1 X13.5 Z-4.3943
G1 X13.8 Z-4.4746
G1 X14.7 Z-4.6143
G1 X15.0 Z-4.6404
G1 X15.6 Z-4.5848
G1 X15.9 Z-4.5234
G1 X16.8 Z-4.3263
G1 X17.1 Z-4.2254
G1 X17.7 Z-4.014
G1 X18.0 Z-3.908
G1 X18.9 Z-3.4598
G1 X19.2 Z-3.296
G1 X19.8 Z-2.9104
G1 X21.3
G1 X21.55
G0 Z1.0
G0 X-0.75 Y50.1
G0 Z0.999
G1 F100.0 Z-0.5
G1 F800.0 X7.5
G1 X7.8 Z-0.5572
G1 X8.4 Z-1.3005
G1 X8.7 Z-1.6215
G1 X9.3 Z-2.2031
G1 X9.6 Z-2.4498
G1 X10.2 Z-2.9029
G1 X10.5 Z-3.1074
G1 X11.4 Z-3.627
G1 X11.7 Z-3.7606
G1 X12.3 Z-4.0145
G1 X12.6 Z-4.1382
G1 X13.5 Z-4.3943
G1 X13.8 Z-4.4746
G1 X14.7 Z-4.6143
G1 X15.0 Z-4.6404
G1 X15.6 Z-4.5848
G1 X15.9 Z-4.5234
G1 X16.8 Z-4.3263
G1 X17.1 Z-4.2254
G1 X17.7 Z-4.014
G1 X18.0 Z-3.908
G1 X18.9 Z-3.4598
G1 X19.2 Z-3.296
G1 X19.8 Z-2.9104
G1 X21.3
G1 X21.55
G0 Z1.0
G0 X-0.75 Y51.3
G0 Z0.999
G1 F100.0 Z-0.5
G1 F800.0 X7.5
G1 X7.8 Z-0.5572
G1 X8.4 Z-1.3005
G1 X8.7 Z-1.6215
G1 X9.3 Z-2.2031
G1 X9.6 Z-2.4498
G1 X10.2 Z-2.9029
G1 X10.5 Z-3.1074
G1 X11.4 Z-3.627
G1 X11.7 Z-3.7606
G1 X12.3 Z-4.0145
G1 X12.6 Z-4.1382
G1 X13.5 Z-4.3943
G1 X13.8 Z-4.4746
G1 X14.7 Z-4.6143
G1 X15.0 Z-4.6404
G1 X15.6 Z-4.5848
G1 X15.9 Z-4.5234
G1 X16.8 Z-4.3263
G1 X17.1 Z-4.2254
G1 X17.7 Z-4.014
G1 X18.0 Z-3.908
G1 X18.9 Z-3.4598
G1 X19.2 Z-3.296
G1 X19.8 Z-2.9104
G1 X21.3
G1 X21.55
G0 Z1.0
G0 X-0.75 Y52.5
G0 Z0.999
G1 F100.0 Z-0.5
G1 F800.0 X7.5
G1 X7.8 Z-0.5572
G1 X8.4 Z-1.3005
G1 X8.7 Z-1.6215
G1 X9.3 Z-2.2031
G1 X9.6 Z-2.4498
G1 X10.2 Z-2.9029
G1 X10.5 Z-3.1074
G1 X11.4 Z-3.627
G1 X11.7 Z-3.7606
G1 X12.3 Z-4.0145
G1 X12.6 Z-4.1382
G1 X13.5 Z-4.3943
G1 X13.8 Z-4.4746
G1 X14.7 Z-4.6143
G1 X15.0 Z-4.6404
G1 X15.6 Z-4.5848
G1 X15.9 Z-4.5234
G1 X16.8 Z-4.3263
G1 X17.1 Z-4.2254
G1 X17.7 Z-4.014
G1 X18.0 Z-3.908
G1 X18.9 Z-3.4598
G1 X19.2 Z-3.296
G1 X19.8 Z-2.9104
G1 X21.3
G1 X21.55
G0 Z1.0
G0 X-0.75 Y53.7
G0 Z0.999
G1 F100.0 Z-0.5
G1 F800.0 X7.5
G1 X7.8 Z-0.5572
G1 X8.4 Z-1.3005
G1 X8.7 Z-1.6215
G1 X9.3 Z-2.2031
G1 X9.6 Z-2.4498
G1 X10.2 Z-2.9029
G1 X10.5 Z-3.1074
G1 X11.4 Z-3.627
G1 X11.7 Z-3.7606
G1 X12.3 Z-4.0145
G1 X12.6 Z-4.1382
G1 X13.5 Z-4.3943
G1 X13.8 Z-4.4746
G1 X14.7 Z-4.6143
G1 X15.0 Z-4.6404
G1 X15.6 Z-4.5848
G1 X15.9 Z-4.5234
G1 X16.8 Z-4.3263
G1 X17.1 Z-4.2254
G1 X17.7 Z-4.014
G1 X18.0 Z-3.908
G1 X18.9 Z-3.4598
G1 X19.2 Z-3.296
G1 X19.8 Z-2.9104
G1 X21.3
G1 X21.55
G0 Z1.0
G0 X-0.75 Y54.9
G0 Z0.999
G1 F100.0 Z-0.5
G1 F800.0 X7.5
G1 X7.8 Z-0.5572
G1 X8.4 Z-1.3005
G1 X8.7 Z-1.6215
G1 X9.3 Z-2.2031
G1 X9.6 Z-2.4498
G1 X10.2 Z-2.9029
G1 X10.5 Z-3.1074
G1 X11.4 Z-3.627
G1 X11.7 Z-3.7606
G1 X12.3 Z-4.0145
G1 X12.6 Z-4.1382
G1 X13.5 Z-4.3943
G1 X13.8 Z-4.4746
G1 X14.7 Z-4.6143
G1 X15.0 Z-4.6404
G1 X15.6 Z-4.5848
G1 X15.9 Z-4.5234
G1 X16.8 Z-4.3263
G1 X17.1 Z-4.2254
G1 X17.7 Z-4.014
G1 X18.0 Z-3.908
G1 X18.9 Z-3.4598
G1 X19.2 Z-3.296
G1 X19.8 Z-2.9104
G1 X21.3
G1 X21.55
G0 Z1.0
G0 X-0.75 Y56.1
G0 Z0.999
G1 F100.0 Z-0.5
G1 F800.0 X7.5
G1 X7.8 Z-0.5572
G1 X8.4 Z-1.3005
G1 X8.7 Z-1.6215
G1 X9.3 Z-2.2031
G1 X9.6 Z-2.4498
G1 X10.2 Z-2.9029
G1 X10.5 Z-3.1074
G1 X11.4 Z-3.627
G1 X11.7 Z-3.7606
G1 X12.3 Z-4.0145
G1 X12.6 Z-4.1382
G1 X13.5 Z-4.3943
G1 X13.8 Z-4.4746
G1 X14.7 Z-4.6143
G1 X15.0 Z-4.6404
G1 X15.6 Z-4.5848
G1 X15.9 Z-4.5234
G1 X16.8 Z-4.3263
G1 X17.1 Z-4.2254
G1 X17.7 Z-4.014
G1 X18.0 Z-3.908
G1 X18.9 Z-3.4598
G1 X19.2 Z-3.296
G1 X19.8 Z-2.9104
G1 X21.3
G1 X21.55
G0 Z1.0
G0 X-0.75 Y57.3
G0 Z0.999
G1 F100.0 Z-0.5
G1 F800.0 X7.5
G1 X7.8 Z-0.5572
G1 X8.4 Z-1.3005
G1 X8.7 Z-1.6215
G1 X9.3 Z-2.2031
G1 X9.6 Z-2.4498
G1 X10.2 Z-2.9029
G1 X10.5 Z-3.1074
G1 X11.4 Z-3.627
G1 X11.7 Z-3.7606
G1 X12.3 Z-4.0145
G1 X12.6 Z-4.1382
G1 X13.5 Z-4.3943
G1 X13.8 Z-4.4746
G1 X14.7 Z-4.6143
G1 X15.0 Z-4.6404
G1 X15.6 Z-4.5848
G1 X15.9 Z-4.5234
G1 X16.8 Z-4.3263
G1 X17.1 Z-4.2254
G1 X17.7 Z-4.014
G1 X18.0 Z-3.908
G1 X18.9 Z-3.4598
G1 X19.2 Z-3.296
G1 X19.8 Z-2.9104
G1 X21.3
G1 X21.55
G0 Z1.0
G0 X-0.75 Y58.5
G0 Z0.999
G1 F100.0 Z-0.5
G1 F800.0 X7.5
G1 X7.8 Z-0.5572
G1 X8.4 Z-1.3005
G1 X8.7 Z-1.6215
G1 X9.3 Z-2.2031
G1 X9.6 Z-2.4498
G1 X10.2 Z-2.9029
G1 X10.5 Z-3.1074
G1 X11.4 Z-3.627
G1 X11.7 Z-3.7606
G1 X12.3 Z-4.0145
G1 X12.6 Z-4.1382
G1 X13.5 Z-4.3943
G1 X13.8 Z-4.4746
G1 X14.7 Z-4.6143
G1 X15.0 Z-4.6404
G1 X15.6 Z-4.5848
G1 X15.9 Z-4.5234
G1 X16.8 Z-4.3263
G1 X17.1 Z-4.2254
G1 X17.7 Z-4.014
G1 X18.0 Z-3.908
G1 X18.9 Z-3.4598
G1 X19.2 Z-3.296
G1 X19.8 Z-2.9104
G1 X21.3
G1 X21.55
G0 Z1.0
G0 X-0.75 Y59.7
G0 Z0.999
G1 F100.0 Z-0.5
G1 F800.0 X7.5
G1 X7.8 Z-0.5572
G1 X8.4 Z-1.3005
G1 X8.7 Z-1.6215
G1 X9.3 Z-2.2031
G1 X9.6 Z-2.4498
G1 X10.2 Z-2.9029
G1 X10.5 Z-3.1074
G1 X11.4 Z-3.627
G1 X11.7 Z-3.7606
G1 X12.3 Z-4.0145
G1 X12.6 Z-4.1382
G1 X13.5 Z-4.3943
G1 X13.8 Z-4.4746
G1 X14.7 Z-4.6143
G1 X15.0 Z-4.6404
G1 X15.6 Z-4.5848
G1 X15.9 Z-4.5234
G1 X16.8 Z-4.3263
G1 X17.1 Z-4.2254
G1 X17.7 Z-4.014
G1 X18.0 Z-3.908
G1 X18.9 Z-3.4598
G1 X19.2 Z-3.296
G1 X19.8 Z-2.9104
G1 X21.3
G1 X21.55
G0 Z1.0
G0 X-0.75 Y60.9
G0 Z0.999
G1 F100.0 Z-0.5
G1 F800.0 X7.5
G1 X7.8 Z-0.5572
G1 X8.4 Z-1.3005
G1 X8.7 Z-1.6215
G1 X9.3 Z-2.2031
G1 X9.6 Z-2.4498
G1 X10.2 Z-2.9029
G1 X10.5 Z-3.1074
G1 X11.4 Z-3.627
G1 X11.7 Z-3.7606
G1 X12.3 Z-4.0145
G1 X12.6 Z-4.1382
G1 X13.5 Z-4.3943
G1 X13.8 Z-4.4746
G1 X14.7 Z-4.6143
G1 X15.0 Z-4.6404
G1 X15.6 Z-4.5848
G1 X15.9 Z-4.5234
G1 X16.8 Z-4.3263
G1 X17.1 Z-4.2254
G1 X17.7 Z-4.014
G1 X18.0 Z-3.908
G1 X18.9 Z-3.4598
G1 X19.2 Z-3.296
G1 X19.8 Z-2.9104
G1 X21.3
G1 X21.55
G0 Z1.0
G0 X-0.75 Y62.1
G0 Z0.999
G1 F100.0 Z-0.5
G1 F800.0 X7.5
G1 X7.8 Z-0.5572
G1 X8.4 Z-1.3005
G1 X8.7 Z-1.6215
G1 X9.3 Z-2.2031
G1 X9.6 Z-2.4498
G1 X10.2 Z-2.9029
G1 X10.5 Z-3.1074
G1 X11.4 Z-3.627
G1 X11.7 Z-3.7606
G1 X12.3 Z-4.0145
G1 X12.6 Z-4.1382
G1 X13.5 Z-4.3943
G1 X13.8 Z-4.4746
G1 X14.7 Z-4.6143
G1 X15.0 Z-4.6404
G1 X15.6 Z-4.5848
G1 X15.9 Z-4.5234
G1 X16.8 Z-4.3263
G1 X17.1 Z-4.2254
G1 X17.7 Z-4.014
G1 X18.0 Z-3.908
G1 X18.9 Z-3.4598
G1 X19.2 Z-3.296
G1 X19.8 Z-2.9104
G1 X21.3
G1 X21.55
G0 Z1.0
G0 X-0.75 Y63.3
G0 Z0.999
G1 F100.0 Z-0.5
G1 F800.0 X7.5
G1 X7.8 Z-0.5572
G1 X8.4 Z-1.3005
G1 X8.7 Z-1.6215
G1 X9.3 Z-2.2031
G1 X9.6 Z-2.4498
G1 X10.2 Z-2.9029
G1 X10.5 Z-3.1074
G1 X11.4 Z-3.627
G1 X11.7 Z-3.7606
G1 X12.3 Z-4.0145
G1 X12.6 Z-4.1382
G1 X13.5 Z-4.3943
G1 X13.8 Z-4.4746
G1 X14.7 Z-4.6143
G1 X15.0 Z-4.6404
G1 X15.6 Z-4.5848
G1 X15.9 Z-4.5234
G1 X16.8 Z-4.3263
G1 X17.1 Z-4.2254
G1 X17.7 Z-4.014
G1 X18.0 Z-3.908
G1 X18.9 Z-3.4598
G1 X19.2 Z-3.296
G1 X19.8 Z-2.9104
G1 X21.3
G1 X21.55
G0 Z1.0
G0 X-0.75 Y64.5
G0 Z0.999
G1 F100.0 Z-0.5
G1 F800.0 X7.5
G1 X7.8 Z-0.5572
G1 X8.4 Z-1.3005
G1 X8.7 Z-1.6215
G1 X9.3 Z-2.2031
G1 X9.6 Z-2.4498
G1 X10.2 Z-2.9029
G1 X10.5 Z-3.1074
G1 X11.4 Z-3.627
G1 X11.7 Z-3.7606
G1 X12.3 Z-4.0145
G1 X12.6 Z-4.1382
G1 X13.5 Z-4.3943
G1 X13.8 Z-4.4746
G1 X14.7 Z-4.6143
G1 X15.0 Z-4.6404
G1 X15.6 Z-4.5848
G1 X15.9 Z-4.5234
G1 X16.8 Z-4.3263
G1 X17.1 Z-4.2254
G1 X17.7 Z-4.014
G1 X18.0 Z-3.908
G1 X18.9 Z-3.4598
G1 X19.2 Z-3.296
G1 X19.8 Z-2.9104
G1 X21.3
G1 X21.55
G0 Z1.0
G0 X-0.75 Y65.7
G0 Z0.999
G1 F100.0 Z-0.5
G1 F800.0 X7.5
G1 X7.8 Z-0.5572
G1 X8.4 Z-1.3005
G1 X8.7 Z-1.6215
G1 X9.3 Z-2.2031
G1 X9.6 Z-2.4498
G1 X10.2 Z-2.9029
G1 X10.5 Z-3.1074
G1 X11.4 Z-3.627
G1 X11.7 Z-3.7606
G1 X12.3 Z-4.0145
G1 X12.6 Z-4.1382
G1 X13.5 Z-4.3943
G1 X13.8 Z-4.4746
G1 X14.7 Z-4.6143
G1 X15.0 Z-4.6404
G1 X15.6 Z-4.5848
G1 X15.9 Z-4.5234
G1 X16.8 Z-4.3263
G1 X17.1 Z-4.2254
G1 X17.7 Z-4.014
G1 X18.0 Z-3.908
G1 X18.9 Z-3.4598
G1 X19.2 Z-3.296
G1 X19.8 Z-2.9104
G1 X21.3
G1 X21.55
G0 Z1.0
G0 X-0.75 Y66.9
G0 Z0.999
G1 F100.0 Z-0.5
G1 F800.0 X7.5
G1 X7.8 Z-0.5572
G1 X8.4 Z-1.3005
G1 X8.7 Z-1.6215
G1 X9.3 Z-2.2031
G1 X9.6 Z-2.4498
G1 X10.2 Z-2.9029
G1 X10.5 Z-3.1074
G1 X11.4 Z-3.627
G1 X11.7 Z-3.7606
G1 X12.3 Z-4.0145
G1 X12.6 Z-4.1382
G1 X13.5 Z-4.3943
G1 X13.8 Z-4.4746
G1 X14.7 Z-4.6143
G1 X15.0 Z-4.6404
G1 X15.6 Z-4.5848
G1 X15.9 Z-4.5234
G1 X16.8 Z-4.3263
G1 X17.1 Z-4.2254
G1 X17.7 Z-4.014
G1 X18.0 Z-3.908
G1 X18.9 Z-3.4598
G1 X19.2 Z-3.296
G1 X19.8 Z-2.9104
G1 X21.3
G1 X21.55
G0 Z1.0
G0 X-0.75 Y68.1
G0 Z0.999
G1 F100.0 Z-0.5
G1 F800.0 X7.5
G1 X7.8 Z-0.5572
G1 X8.4 Z-1.3005
G1 X8.7 Z-1.6215
G1 X9.3 Z-2.2031
G1 X9.6 Z-2.4498
G1 X10.2 Z-2.9029
G1 X10.5 Z-3.1074
G1 X11.4 Z-3.627
G1 X11.7 Z-3.7606
G1 X12.3 Z-4.0145
G1 X12.6 Z-4.1382
G1 X13.5 Z-4.3943
G1 X13.8 Z-4.4746
G1 X14.7 Z-4.6143
G1 X15.0 Z-4.6404
G1 X15.6 Z-4.5848
G1 X15.9 Z-4.5234
G1 X16.8 Z-4.3263
G1 X17.1 Z-4.2254
G1 X17.7 Z-4.014
G1 X18.0 Z-3.908
G1 X18.9 Z-3.4598
G1 X19.2 Z-3.296
G1 X19.8 Z-2.9104
G1 X21.3
G1 X21.55
G0 Z1.0
G0 X-0.75 Y69.3
G0 Z0.999
G1 F100.0 Z-0.5
G1 F800.0 X7.5
G1 X7.8 Z-0.5572
G1 X8.4 Z-1.3005
G1 X8.7 Z-1.6215
G1 X9.3 Z-2.2031
G1 X9.6 Z-2.4498
G1 X10.2 Z-2.9029
G1 X10.5 Z-3.1074
G1 X11.4 Z-3.627
G1 X11.7 Z-3.7606
G1 X12.3 Z-4.0145
G1 X12.6 Z-4.1382
G1 X13.5 Z-4.3943
G1 X13.8 Z-4.4746
G1 X14.7 Z-4.6143
G1 X15.0 Z-4.6404
G1 X15.6 Z-4.5848
G1 X15.9 Z-4.5234
G1 X16.8 Z-4.3263
G1 X17.1 Z-4.2254
G1 X17.7 Z-4.014
G1 X18.0 Z-3.908
G1 X18.9 Z-3.4598
G1 X19.2 Z-3.296
G1 X19.8 Z-2.9104
G1 X21.3
G1 X21.55
G0 Z1.0
G0 X-0.75 Y70.5
G0 Z0.999
G1 F100.0 Z-0.5
G1 F800.0 X7.5
G1 X7.8 Z-0.5572
G1 X8.4 Z-1.3005
G1 X8.7 Z-1.6215
G1 X9.3 Z-2.2031
G1 X9.6 Z-2.4498
G1 X10.2 Z-2.9029
G1 X10.5 Z-3.1074
G1 X11.4 Z-3.627
G1 X11.7 Z-3.7606
G1 X12.3 Z-4.0145
G1 X12.6 Z-4.1382
G1 X13.5 Z-4.3943
G1 X13.8 Z-4.4746
G1 X14.7 Z-4.6143
G1 X15.0 Z-4.6404
G1 X15.6 Z-4.5848
G1 X15.9 Z-4.5234
G1 X16.8 Z-4.3263
G1 X17.1 Z-4.2254
G1 X17.7 Z-4.014
G1 X18.0 Z-3.908
G1 X18.9 Z-3.4598
G1 X19.2 Z-3.296
G1 X19.8 Z-2.9104
G1 X21.3
G1 X21.55
G0 Z1.0
G0 X-0.75 Y71.7
G0 Z0.999
G1 F100.0 Z-0.5
G1 F800.0 X7.5
G1 X7.8 Z-0.5572
G1 X8.4 Z-1.3005
G1 X8.7 Z-1.6215
G1 X9.3 Z-2.2031
G1 X9.6 Z-2.4498
G1 X10.2 Z-2.9029
G1 X10.5 Z-3.1074
G1 X11.4 Z-3.627
G1 X11.7 Z-3.7606
G1 X12.3 Z-4.0145
G1 X12.6 Z-4.1382
G1 X13.5 Z-4.3943
G1 X13.8 Z-4.4746
G1 X14.7 Z-4.6143
G1 X15.0 Z-4.6404
G1 X15.6 Z-4.5848
G1 X15.9 Z-4.5234
G1 X16.8 Z-4.3263
G1 X17.1 Z-4.2254
G1 X17.7 Z-4.014
G1 X18.0 Z-3.908
G1 X18.9 Z-3.4598
G1 X19.2 Z-3.296
G1 X19.8 Z-2.9104
G1 X21.3
G1 X21.55
G0 Z1.0
G0 X-0.75 Y72.9
G0 Z0.999
G1 F100.0 Z-0.5
G1 F800.0 X7.5
G1 X7.8 Z-0.5572
G1 X8.4 Z-1.3005
G1 X8.7 Z-1.6215
G1 X9.3 Z-2.2031
G1 X9.6 Z-2.4498
G1 X10.2 Z-2.9029
G1 X10.5 Z-3.1074
G1 X11.4 Z-3.627
G1 X11.7 Z-3.7606
G1 X12.3 Z-4.0145
G1 X12.6 Z-4.1382
G1 X13.5 Z-4.3943
G1 X13.8 Z-4.4746
G1 X14.7 Z-4.6143
G1 X15.0 Z-4.6404
G1 X15.6 Z-4.5848
G1 X15.9 Z-4.5234
G1 X16.8 Z-4.3263
G1 X17.1 Z-4.2254
G1 X17.7 Z-4.014
G1 X18.0 Z-3.908
G1 X18.9 Z-3.4598
G1 X19.2 Z-3.296
G1 X19.8 Z-2.9104
G1 X21.3
G1 X21.55
G0 Z1.0
G0 X-0.75 Y74.1
G0 Z0.999
G1 F100.0 Z-0.5
G1 F800.0 X7.5
G1 X7.8 Z-0.5572
G1 X8.4 Z-1.3005
G1 X8.7 Z-1.6215
G1 X9.3 Z-2.2031
G1 X9.6 Z-2.4498
G1 X10.2 Z-2.9029
G1 X10.5 Z-3.1074
G1 X11.4 Z-3.627
G1 X11.7 Z-3.7606
G1 X12.3 Z-4.0145
G1 X12.6 Z-4.1382
G1 X13.5 Z-4.3943
G1 X13.8 Z-4.4746
G1 X14.7 Z-4.6143
G1 X15.0 Z-4.6404
G1 X15.6 Z-4.5848
G1 X15.9 Z-4.5234
G1 X16.8 Z-4.3263
G1 X17.1 Z-4.2254
G1 X17.7 Z-4.014
G1 X18.0 Z-3.908
G1 X18.9 Z-3.4598
G1 X19.2 Z-3.296
G1 X19.8 Z-2.9104
G1 X21.3
G1 X21.55
G0 Z1.0
G0 X-0.75 Y75.3
G0 Z0.999
G1 F100.0 Z-0.5
G1 F800.0 X7.5
G1 X7.8 Z-0.5572
G1 X8.4 Z-1.3005
G1 X8.7 Z-1.6215
G1 X9.3 Z-2.2031
G1 X9.6 Z-2.4498
G1 X10.2 Z-2.9029
G1 X10.5 Z-3.1074
G1 X11.4 Z-3.627
G1 X11.7 Z-3.7606
G1 X12.3 Z-4.0145
G1 X12.6 Z-4.1382
G1 X13.5 Z-4.3943
G1 X13.8 Z-4.4746
G1 X14.7 Z-4.6143
G1 X15.0 Z-4.6404
G1 X15.6 Z-4.5848
G1 X15.9 Z-4.5234
G1 X16.8 Z-4.3263
G1 X17.1 Z-4.2254
G1 X17.7 Z-4.014
G1 X18.0 Z-3.908
G1 X18.9 Z-3.4598
G1 X19.2 Z-3.296
G1 X19.8 Z-2.9104
G1 X21.3
G1 X21.55
G0 Z1.0
G0 X-0.75 Y76.5
G0 Z0.999
G1 F100.0 Z-0.5
G1 F800.0 X7.5
G1 X7.8 Z-0.5572
G1 X8.4 Z-1.3005
G1 X8.7 Z-1.6215
G1 X9.3 Z-2.2031
G1 X9.6 Z-2.4498
G1 X10.2 Z-2.9029
G1 X10.5 Z-3.1074
G1 X11.4 Z-3.627
G1 X11.7 Z-3.7606
G1 X12.3 Z-4.0145
G1 X12.6 Z-4.1382
G1 X13.5 Z-4.3943
G1 X13.8 Z-4.4746
G1 X14.7 Z-4.6143
G1 X15.0 Z-4.6404
G1 X15.6 Z-4.5848
G1 X15.9 Z-4.5234
G1 X16.8 Z-4.3263
G1 X17.1 Z-4.2254
G1 X17.7 Z-4.014
G1 X18.0 Z-3.908
G1 X18.9 Z-3.4598
G1 X19.2 Z-3.296
G1 X19.8 Z-2.9104
G1 X21.3
G1 X21.55
G0 Z1.0
G0 X-0.75 Y77.7
G0 Z0.999
G1 F100.0 Z-0.5
G1 F800.0 X7.5
G1 X7.8 Z-0.5572
G1 X8.4 Z-1.3005
G1 X8.7 Z-1.6215
G1 X9.3 Z-2.2031
G1 X9.6 Z-2.4498
G1 X10.2 Z-2.9029
G1 X10.5 Z-3.1074
G1 X11.4 Z-3.627
G1 X11.7 Z-3.7606
G1 X12.3 Z-4.0145
G1 X12.6 Z-4.1382
G1 X13.5 Z-4.3943
G1 X13.8 Z-4.4746
G1 X14.7 Z-4.6143
G1 X15.0 Z-4.6404
G1 X15.6 Z-4.5848
G1 X15.9 Z-4.5234
G1 X16.8 Z-4.3263
G1 X17.1 Z-4.2254
G1 X17.7 Z-4.014
G1 X18.0 Z-3.908
G1 X18.9 Z-3.4598
G1 X19.2 Z-3.296
G1 X19.8 Z-2.9104
G1 X21.3
G1 X21.55
G0 Z1.0
G0 X-0.75 Y78.9
G0 Z0.999
G1 F100.0 Z-0.5
G1 F800.0 X7.5
G1 X7.8 Z-0.5572
G1 X8.4 Z-1.3005
G1 X8.7 Z-1.6215
G1 X9.3 Z-2.2031
G1 X9.6 Z-2.4498
G1 X10.2 Z-2.9029
G1 X10.5 Z-3.1074
G1 X11.4 Z-3.627
G1 X11.7 Z-3.7606
G1 X12.3 Z-4.0145
G1 X12.6 Z-4.1382
G1 X13.5 Z-4.3943
G1 X13.8 Z-4.4746
G1 X14.7 Z-4.6143
G1 X15.0 Z-4.6404
G1 X15.6 Z-4.5848
G1 X15.9 Z-4.5234
G1 X16.8 Z-4.3263
G1 X17.1 Z-4.2254
G1 X17.7 Z-4.014
G1 X18.0 Z-3.908
G1 X18.9 Z-3.4598
G1 X19.2 Z-3.296
G1 X19.8 Z-2.9104
G1 X21.3
G1 X21.55
G0 Z1.0
G0 X-0.75 Y80.1
G0 Z0.999
G1 F100.0 Z-0.5
G1 F800.0 X7.5
G1 X7.8 Z-0.5572
G1 X8.4 Z-1.3005
G1 X8.7 Z-1.6215
G1 X9.3 Z-2.2031
G1 X9.6 Z-2.4498
G1 X10.2 Z-2.9029
G1 X10.5 Z-3.1074
G1 X11.4 Z-3.627
G1 X11.7 Z-3.7606
G1 X12.3 Z-4.0145
G1 X12.6 Z-4.1382
G1 X13.5 Z-4.3943
G1 X13.8 Z-4.4746
G1 X14.7 Z-4.6143
G1 X15.0 Z-4.6404
G1 X15.6 Z-4.5848
G1 X15.9 Z-4.5234
G1 X16.8 Z-4.3263
G1 X17.1 Z-4.2254
G1 X17.7 Z-4.014
G1 X18.0 Z-3.908
G1 X18.9 Z-3.4598
G1 X19.2 Z-3.296
G1 X19.8 Z-2.9104
G1 X21.3
G1 X21.55
G0 Z1.0
G0 X-0.75 Y81.3
G0 Z0.999
G1 F100.0 Z-0.5
G1 F800.0 X7.5
G1 X7.8 Z-0.5572
G1 X8.4 Z-1.3005
G1 X8.7 Z-1.6215
G1 X9.3 Z-2.2031
G1 X9.6 Z-2.4498
G1 X10.2 Z-2.9029
G1 X10.5 Z-3.1074
G1 X11.4 Z-3.627
G1 X11.7 Z-3.7606
G1 X12.3 Z-4.0145
G1 X12.6 Z-4.1382
G1 X13.5 Z-4.3943
G1 X13.8 Z-4.4746
G1 X14.7 Z-4.6143
G1 X15.0 Z-4.6404
G1 X15.6 Z-4.5848
G1 X15.9 Z-4.5234
G1 X16.8 Z-4.3263
G1 X17.1 Z-4.2254
G1 X17.7 Z-4.014
G1 X18.0 Z-3.908
G1 X18.9 Z-3.4598
G1 X19.2 Z-3.296
G1 X19.8 Z-2.9104
G1 X21.3
G1 X21.55
G0 Z1.0
G0 X-0.75 Y82.5
G0 Z0.999
G1 F100.0 Z-0.5
G1 F800.0 X7.5
G1 X7.8 Z-0.5572
G1 X8.4 Z-1.3005
G1 X8.7 Z-1.6215
G1 X9.3 Z-2.2031
G1 X9.6 Z-2.4498
G1 X10.2 Z-2.9029
G1 X10.5 Z-3.1074
G1 X11.4 Z-3.627
G1 X11.7 Z-3.7606
G1 X12.3 Z-4.0145
G1 X12.6 Z-4.1382
G1 X13.5 Z-4.3943
G1 X13.8 Z-4.4746
G1 X14.7 Z-4.6143
G1 X15.0 Z-4.6404
G1 X15.6 Z-4.5848
G1 X15.9 Z-4.5234
G1 X16.8 Z-4.3263
G1 X17.1 Z-4.2254
G1 X17.7 Z-4.014
G1 X18.0 Z-3.908
G1 X18.9 Z-3.4598
G1 X19.2 Z-3.296
G1 X19.8 Z-2.9104
G1 X21.3
G1 X21.55
G0 Z1.0
G0 X-0.75 Y83.7
G0 Z0.999
G1 F100.0 Z-0.5
G1 F800.0 X7.5
G1 X7.8 Z-0.5572
G1 X8.4 Z-1.3005
G1 X8.7 Z-1.6215
G1 X9.3 Z-2.2031
G1 X9.6 Z-2.4498
G1 X10.2 Z-2.9029
G1 X10.5 Z-3.1074
G1 X11.4 Z-3.627
G1 X11.7 Z-3.7606
G1 X12.3 Z-4.0145
G1 X12.6 Z-4.1382
G1 X13.5 Z-4.3943
G1 X13.8 Z-4.4746
G1 X14.7 Z-4.6143
G1 X15.0 Z-4.6404
G1 X15.6 Z-4.5848
G1 X15.9 Z-4.5234
G1 X16.8 Z-4.3263
G1 X17.1 Z-4.2254
G1 X17.7 Z-4.014
G1 X18.0 Z-3.908
G1 X18.9 Z-3.4598
G1 X19.2 Z-3.296
G1 X19.8 Z-2.9104
G1 X21.3
G1 X21.55
G0 Z1.0
G0 X-0.75 Y84.9
G0 Z0.999
G1 F100.0 Z-0.5
G1 F800.0 X7.5
G1 X7.8 Z-0.5572
G1 X8.4 Z-1.3005
G1 X8.7 Z-1.6215
G1 X9.3 Z-2.2031
G1 X9.6 Z-2.4498
G1 X10.2 Z-2.9029
G1 X10.5 Z-3.1074
G1 X11.4 Z-3.627
G1 X11.7 Z-3.7606
G1 X12.3 Z-4.0145
G1 X12.6 Z-4.1382
G1 X13.5 Z-4.3943
G1 X13.8 Z-4.4746
G1 X14.7 Z-4.6143
G1 X15.0 Z-4.6404
G1 X15.6 Z-4.5848
G1 X15.9 Z-4.5234
G1 X16.8 Z-4.3263
G1 X17.1 Z-4.2254
G1 X17.7 Z-4.014
G1 X18.0 Z-3.908
G1 X18.9 Z-3.4598
G1 X19.2 Z-3.296
G1 X19.8 Z-2.9104
G1 X21.3
G1 X21.55
G0 Z1.0
G0 X-0.75 Y86.1
G0 Z0.999
G1 F100.0 Z-0.5
G1 F800.0 X7.5
G1 X7.8 Z-0.5572
G1 X8.4 Z-1.3005
G1 X8.7 Z-1.6215
G1 X9.3 Z-2.2031
G1 X9.6 Z-2.4498
G1 X10.2 Z-2.9029
G1 X10.5 Z-3.1074
G1 X11.4 Z-3.627
G1 X11.7 Z-3.7606
G1 X12.3 Z-4.0145
G1 X12.6 Z-4.1382
G1 X13.5 Z-4.3943
G1 X13.8 Z-4.4746
G1 X14.7 Z-4.6143
G1 X15.0 Z-4.6404
G1 X15.6 Z-4.5848
G1 X15.9 Z-4.5234
G1 X16.8 Z-4.3263
G1 X17.1 Z-4.2254
G1 X17.7 Z-4.014
G1 X18.0 Z-3.908
G1 X18.9 Z-3.4598
G1 X19.2 Z-3.296
G1 X19.8 Z-2.9104
G1 X21.3
G1 X21.55
G0 Z1.0
G0 X-0.75 Y87.3
G0 Z0.999
G1 F100.0 Z-0.5
G1 F800.0 X7.5
G1 X7.8 Z-0.5572
G1 X8.4 Z-1.3005
G1 X8.7 Z-1.6215
G1 X9.3 Z-2.2031
G1 X9.6 Z-2.4498
G1 X10.2 Z-2.9029
G1 X10.5 Z-3.1074
G1 X11.4 Z-3.627
G1 X11.7 Z-3.7606
G1 X12.3 Z-4.0145
G1 X12.6 Z-4.1382
G1 X13.5 Z-4.3943
G1 X13.8 Z-4.4746
G1 X14.7 Z-4.6143
G1 X15.0 Z-4.6404
G1 X15.6 Z-4.5848
G1 X15.9 Z-4.5234
G1 X16.8 Z-4.3263
G1 X17.1 Z-4.2254
G1 X17.7 Z-4.014
G1 X18.0 Z-3.908
G1 X18.9 Z-3.4598
G1 X19.2 Z-3.296
G1 X19.8 Z-2.9104
G1 X21.3
G1 X21.55
G0 Z1.0
G0 X-0.75 Y88.5
G0 Z0.999
G1 F100.0 Z-0.5
G1 F800.0 X7.5
G1 X7.8 Z-0.5572
G1 X8.4 Z-1.3005
G1 X8.7 Z-1.6215
G1 X9.3 Z-2.2031
G1 X9.6 Z-2.4498
G1 X10.2 Z-2.9029
G1 X10.5 Z-3.1074
G1 X11.4 Z-3.627
G1 X11.7 Z-3.7606
G1 X12.3 Z-4.0145
G1 X12.6 Z-4.1382
G1 X13.5 Z-4.3943
G1 X13.8 Z-4.4746
G1 X14.7 Z-4.6143
G1 X15.0 Z-4.6404
G1 X15.6 Z-4.5848
G1 X15.9 Z-4.5234
G1 X16.8 Z-4.3263
G1 X17.1 Z-4.2254
G1 X17.7 Z-4.014
G1 X18.0 Z-3.908
G1 X18.9 Z-3.4598
G1 X19.2 Z-3.296
G1 X19.8 Z-2.9104
G1 X21.3
G1 X21.55
G0 Z1.0
G0 X-0.75 Y89.7
G0 Z0.999
G1 F100.0 Z-0.5
G1 F800.0 X7.5
G1 X7.8 Z-0.5572
G1 X8.4 Z-1.3005
G1 X8.7 Z-1.6215
G1 X9.3 Z-2.2031
G1 X9.6 Z-2.4498
G1 X10.2 Z-2.9029
G1 X10.5 Z-3.1074
G1 X11.4 Z-3.627
G1 X11.7 Z-3.7606
G1 X12.3 Z-4.0145
G1 X12.6 Z-4.1382
G1 X13.5 Z-4.3943
G1 X13.8 Z-4.4746
G1 X14.7 Z-4.6143
G1 X15.0 Z-4.6404
G1 X15.6 Z-4.5848
G1 X15.9 Z-4.5234
G1 X16.8 Z-4.3263
G1 X17.1 Z-4.2254
G1 X17.7 Z-4.014
G1 X18.0 Z-3.908
G1 X18.9 Z-3.4598
G1 X19.2 Z-3.296
G1 X19.8 Z-2.9104
G1 X21.3
G1 X21.55
G0 Z1.0
G0 X-0.75 Y90.9
G0 Z0.999
G1 F100.0 Z-0.5
G1 F800.0 X7.5
G1 X7.8 Z-0.5572
G1 X8.4 Z-1.3005
G1 X8.7 Z-1.6215
G1 X9.3 Z-2.2031
G1 X9.6 Z-2.4498
G1 X10.2 Z-2.9029
G1 X10.5 Z-3.1074
G1 X11.4 Z-3.627
G1 X11.7 Z-3.7606
G1 X12.3 Z-4.0145
G1 X12.6 Z-4.1382
G1 X13.5 Z-4.3943
G1 X13.8 Z-4.4746
G1 X14.7 Z-4.6143
G1 X15.0 Z-4.6404
G1 X15.6 Z-4.5848
G1 X15.9 Z-4.5234
G1 X16.8 Z-4.3263
G1 X17.1 Z-4.2254
G1 X17.7 Z-4.014
G1 X18.0 Z-3.908
G1 X18.9 Z-3.4598
G1 X19.2 Z-3.296
G1 X19.8 Z-2.9104
G1 X21.3
G1 X21.55
G0 Z1.0
G0 X-0.75 Y92.1
G0 Z0.999
G1 F100.0 Z-0.5
G1 F800.0 X7.5
G1 X7.8 Z-0.5572
G1 X8.4 Z-1.3005
G1 X8.7 Z-1.6215
G1 X9.3 Z-2.2031
G1 X9.6 Z-2.4498
G1 X10.2 Z-2.9029
G1 X10.5 Z-3.1074
G1 X11.4 Z-3.627
G1 X11.7 Z-3.7606
G1 X12.3 Z-4.0145
G1 X12.6 Z-4.1382
G1 X13.5 Z-4.3943
G1 X13.8 Z-4.4746
G1 X14.7 Z-4.6143
G1 X15.0 Z-4.6404
G1 X15.6 Z-4.5848
G1 X15.9 Z-4.5234
G1 X16.8 Z-4.3263
G1 X17.1 Z-4.2254
G1 X17.7 Z-4.014
G1 X18.0 Z-3.908
G1 X18.9 Z-3.4598
G1 X19.2 Z-3.296
G1 X19.8 Z-2.9104
G1 X21.3
G1 X21.55
G0 Z1.0
G0 X-0.75 Y93.3
G0 Z0.999
G1 F100.0 Z-0.5
G1 F800.0 X7.5
G1 X7.8 Z-0.5572
G1 X8.4 Z-1.3005
G1 X8.7 Z-1.6215
G1 X9.3 Z-2.2031
G1 X9.6 Z-2.4498
G1 X10.2 Z-2.9029
G1 X10.5 Z-3.1074
G1 X11.4 Z-3.627
G1 X11.7 Z-3.7606
G1 X12.3 Z-4.0145
G1 X12.6 Z-4.1382
G1 X13.5 Z-4.3943
G1 X13.8 Z-4.4746
G1 X14.7 Z-4.6143
G1 X15.0 Z-4.6404
G1 X15.6 Z-4.5848
G1 X15.9 Z-4.5234
G1 X16.8 Z-4.3263
G1 X17.1 Z-4.2254
G1 X17.7 Z-4.014
G1 X18.0 Z-3.908
G1 X18.9 Z-3.4598
G1 X19.2 Z-3.296
G1 X19.8 Z-2.9104
G1 X21.3
G1 X21.55
G0 Z1.0
G0 X-0.75 Y94.5
G0 Z0.999
G1 F100.0 Z-0.5
G1 F800.0 X7.5
G1 X7.8 Z-0.5572
G1 X8.4 Z-1.3005
G1 X8.7 Z-1.6215
G1 X9.3 Z-2.2031
G1 X9.6 Z-2.4498
G1 X10.2 Z-2.9029
G1 X10.5 Z-3.1074
G1 X11.4 Z-3.627
G1 X11.7 Z-3.7606
G1 X12.3 Z-4.0145
G1 X12.6 Z-4.1382
G1 X13.5 Z-4.3943
G1 X13.8 Z-4.4746
G1 X14.7 Z-4.6143
G1 X15.0 Z-4.6404
G1 X15.6 Z-4.5848
G1 X15.9 Z-4.5234
G1 X16.8 Z-4.3263
G1 X17.1 Z-4.2254
G1 X17.7 Z-4.014
G1 X18.0 Z-3.908
G1 X18.9 Z-3.4598
G1 X19.2 Z-3.296
G1 X19.8 Z-2.9104
G1 X21.3
G1 X21.55
G0 Z1.0
G0 X-0.75 Y95.7
G0 Z0.999
G1 F100.0 Z-0.5
G1 F800.0 X7.5
G1 X7.8 Z-0.5572
G1 X8.4 Z-1.3005
G1 X8.7 Z-1.6215
G1 X9.3 Z-2.2031
G1 X9.6 Z-2.4498
G1 X10.2 Z-2.9029
G1 X10.5 Z-3.1074
G1 X11.4 Z-3.627
G1 X11.7 Z-3.7606
G1 X12.3 Z-4.0145
G1 X12.6 Z-4.1382
G1 X13.5 Z-4.3943
G1 X13.8 Z-4.4746
G1 X14.7 Z-4.6143
G1 X15.0 Z-4.6404
G1 X15.6 Z-4.5848
G1 X15.9 Z-4.5234
G1 X16.8 Z-4.3263
G1 X17.1 Z-4.2254
G1 X17.7 Z-4.014
G1 X18.0 Z-3.9077
G1 X18.3 Z-3.7586
G1 X18.9 Z-3.4598
G1 X19.2 Z-3.296
G1 X19.8 Z-2.9104
G1 X21.3
G1 X21.55
G0 Z1.0
G0 X-0.75 Y96.9
G0 Z0.999
G1 F100.0 Z-0.5
G1 F800.0 X7.5
G1 X7.8 Z-0.5572
G1 X8.4 Z-1.3005
G1 X8.7 Z-1.6215
G1 X9.3 Z-2.2031
G1 X9.6 Z-2.4498
G1 X10.2 Z-2.9029
G1 X10.5 Z-3.1074
G1 X11.4 Z-3.627
G1 X11.7 Z-3.7606
G1 X12.3 Z-4.0145
G1 X12.6 Z-4.1381
G1 X12.9 Z-4.2236
G1 X13.5 Z-4.3943
G1 X13.8 Z-4.4746
G1 X14.7 Z-4.6143
G1 X15.0 Z-4.6405
G1 X15.3 Z-4.6126
G1 X15.6 Z-4.5848
G1 X15.9 Z-4.5234
G1 X16.8 Z-4.3263
G1 X17.1 Z-4.2254
G1 X17.7 Z-4.014
G1 X18.0 Z-3.9071
G1 X18.3 Z-3.7586
G1 X18.6 Z-3.6092
G1 X18.9 Z-3.46
G1 X19.2 Z-3.296
G1 X19.8 Z-2.9104
G1 X21.3
G1 X21.55
G0 Z1.0
G0 X-0.75 Y98.1
G0 Z0.999
G1 F100.0 Z-0.5
G1 F800.0 X7.5
G1 X7.8 Z-0.5572
G1 X8.4 Z-1.3005
G1 X8.7 Z-1.6216
G1 X9.3 Z-2.2032
G1 X9.6 Z-2.4499
G1 X10.2 Z-2.903
G1 X10.5 Z-3.1076
G1 X11.4 Z-3.6273
G1 X11.7 Z-3.7609
G1 X12.3 Z-4.0148
G1 X12.6 Z-4.1378
G1 X12.9 Z-4.2239
G1 X13.5 Z-4.3946
G1 X13.8 Z-4.4743
G1 X14.1 Z-4.5215
G1 X14.7 Z-4.6147
G1 X15.0 Z-4.6409
G1 X15.6 Z-4.5853
G1 X15.9 Z-4.5239
G1 X16.8 Z-4.3268
G1 X17.1 Z-4.2261
G1 X17.7 Z-4.0146
G1 X18.0 Z-3.9065
G1 X18.3 Z-3.7593
G1 X18.9 Z-3.4605
G1 X19.2 Z-3.296
G1 X19.8 Z-2.9104
G1 X21.3
G1 X21.55
G0 Z1.0
G0 X-0.75 Y99.3
G0 Z0.999
G1 F100.0 Z-0.5
G1 F800.0 X7.5
G1 X7.8 Z-0.5572
G1 X8.4 Z-1.3005
G1 X8.7 Z-1.6217
G1 X9.3 Z-2.2033
G1 X9.6 Z-2.4501
G1 X10.2 Z-2.9032
G1 X10.5 Z-3.1078
G1 X10.8 Z-3.2811
G1 X11.4 Z-3.6275
G1 X11.7 Z-3.7611
G1 X12.3 Z-4.0151
G1 X12.6 Z-4.1376
G1 X12.9 Z-4.2243
G1 X13.5 Z-4.395
G1 X13.8 Z-4.474
G1 X14.1 Z-4.5219
G1 X14.7 Z-4.6151
G1 X15.0 Z-4.6414
G1 X15.6 Z-4.5858
G1 X15.9 Z-4.5245
G1 X16.8 Z-4.3274
G1 X17.1 Z-4.2267
G1 X17.7 Z-4.0153
G1 X18.0 Z-3.9059
G1 X18.3 Z-3.76
G1 X18.9 Z-3.4612
G1 X19.2 Z-3.2953
G1 X19.5 Z-3.1032
G1 X19.8 Z-2.9104
G1 X21.3
G1 X21.55
G0 Z1.0
G0 X-0.75 Y100.5
G0 Z0.999
G1 F100.0 Z-0.5
G1 F800.0 X7.5
G1 X7.8 Z-0.5572
G1 X8.4 Z-1.3005
G1 X8.7 Z-1.6218
G1 X9.3 Z-2.2034
G1 X9.6 Z-2.4502
G1 X10.2 Z-2.9033
G1 X10.5 Z-3.1077
G1 X10.8 Z-3.2813
G1 X11.4 Z-3.6277
G1 X11.7 Z-3.7614
G1 X12.3 Z-4.0154
G1 X12.6 Z-4.1373
G1 X12.9 Z-4.2246
G1 X13.5 Z-4.3953
G1 X13.8 Z-4.4737
G1 X14.1 Z-4.5223
G1 X14.7 Z-4.6154
G1 X15.0 Z-4.6419
G1 X15.3 Z-4.6141
G1 X15.6 Z-4.5862
G1 X15.9 Z-4.525
G1 X16.5 Z-4.3936
G1 X16.8 Z-4.3278
G1 X17.1 Z-4.2273
G1 X17.7 Z-4.0159
G1 X18.0 Z-3.9052
G1 X18.3 Z-3.7607
G1 X18.9 Z-3.4619
G1 X19.2 Z-3.2946
G1 X19.5 Z-3.1032
G1 X19.8 Z-2.9104
G1 X21.3
G1 X21.55
G0 Z1.0
G0 X-0.75 Y101.7
G0 Z0.999
G1 F100.0 Z-0.5
G1 F800.0 X7.5
G1 X7.8 Z-0.5572
G1 X8.4 Z-1.3005
G1 X8.7 Z-1.6219
G1 X9.3 Z-2.2034
G1 X9.6 Z-2.4504
G1 X9.9 Z-2.677
G1 X10.2 Z-2.9035
G1 X10.5 Z-3.1075
G1 X10.8 Z-3.2815
G1 X11.4 Z-3.6279
G1 X11.7 Z-3.7617
G1 X12.3 Z-4.0157
G1 X12.6 Z-4.137
G1 X12.9 Z-4.2249
G1 X13.5 Z-4.3956
G1 X13.8 Z-4.4733
G1 X14.1 Z-4.5227
G1 X14.7 Z-4.6158
G1 X15.0 Z-4.6423
G1 X15.3 Z-4.6145
G1 X15.6 Z-4.5857
G1 X15.9 Z-4.5256
G1 X16.5 Z-4.3942
G1 X16.8 Z-4.3272
G1 X17.1 Z-4.2279
G1 X17.7 Z-4.0165
G1 X18.0 Z-3.9046
G1 X18.3 Z-3.7614
G1 X18.9 Z-3.4626
G1 X19.2 Z-3.2938
G1 X19.5 Z-3.1032
G1 X19.8 Z-2.9104
G1 X21.3
G1 X21.55
G0 Z1.0
G0 X-0.75 Y102.9
G0 Z0.999
G1 F100.0 Z-0.5
G1 F800.0 X7.5
G1 X7.8 Z-0.5572
G1 X8.4 Z-1.3005
G1 X8.7 Z-1.6219
G1 X9.0 Z-1.9127
G1 X9.3 Z-2.2035
G1 X9.6 Z-2.4503
G1 X9.9 Z-2.6771
G1 X10.2 Z-2.9037
G1 X10.5 Z-3.1074
G1 X10.8 Z-3.2818
G1 X11.4 Z-3.6282
G1 X11.7 Z-3.7616
G1 X12.0 Z-3.889
G1 X12.3 Z-4.0159
G1 X12.6 Z-4.1368
G1 X12.9 Z-4.2253
G1 X13.5 Z-4.396
G1 X13.8 Z-4.473
G1 X14.1 Z-4.5231
G1 X14.7 Z-4.6162
G1 X15.0 Z-4.6428
G1 X15.3 Z-4.615
G1 X15.6 Z-4.5852
G1 X15.9 Z-4.5257
G1 X16.2 Z-4.4604
G1 X16.5 Z-4.3947
G1 X16.8 Z-4.3267
G1 X17.1 Z-4.2284
G1 X17.4 Z-4.1228
G1 X17.7 Z-4.0171
G1 X18.0 Z-3.904
G1 X18.3 Z-3.7621
G1 X18.9 Z-3.4633
G1 X19.2 Z-3.2931
G1 X19.5 Z-3.1032
G1 X19.8 Z-2.9104
G1 X21.3
G1 X21.55
G0 Z1.0
G0 X-0.75 Y104.1
G0 Z0.999
G1 F100.0 Z-0.5
G1 F800.0 X7.5
G1 X7.8 Z-0.5572
G1 X8.4 Z-1.3005
G1 X8.7 Z-1.6219
G1 X9.0 Z-1.9128
G1 X9.3 Z-2.2036
G1 X9.6 Z-2.4502
G1 X9.9 Z-2.6773
G1 X10.2 Z-2.9038
G1 X10.5 Z-3.1072
G1 X10.8 Z-3.282
G1 X11.4 Z-3.6284
G1 X11.7 Z-3.7614
G1 X12.0 Z-3.8892
G1 X12.3 Z-4.0162
G1 X12.6 Z-4.1365
G1 X12.9 Z-4.2252
G1 X13.2 Z-4.311
G1 X13.5 Z-4.3963
G1 X13.8 Z-4.4727
G1 X14.1 Z-4.5232
G1 X14.4 Z-4.57
G1 X14.7 Z-4.6166
G1 X15.0 Z-4.6433
G1 X15.3 Z-4.6155
G1 X15.6 Z-4.5848
G1 X15.9 Z-4.5252
G1 X16.2 Z-4.461
G1 X16.5 Z-4.3953
G1 X16.8 Z-4.3261
G1 X17.1 Z-4.2278
G1 X17.4 Z-4.1234
G1 X17.7 Z-4.0177
G1 X18.0 Z-3.9033
G1 X18.3 Z-3.7628
G1 X18.9 Z-3.464
G1 X19.2 Z-3.2924
G1 X19.5 Z-3.1032
G1 X19.8 Z-2.9104
G1 X21.3
G1 X21.55
G0 Z1.0
G0 X-0.75 Y105.3
G0 Z0.999
G1 F100.0 Z-0.5
G1 F800.0 X7.5
G1 X7.8 Z-0.5572
G1 X8.4 Z-1.3005
G1 X8.7 Z-1.6219
G1 X9.0 Z-1.9129
G1 X9.3 Z-2.2037
G1 X9.6 Z-2.4502
G1 X9.9 Z-2.6774
G1 X10.2 Z-2.904
G1 X10.5 Z-3.1071
G1 X10.8 Z-3.2822
G1 X11.4 Z-3.6286
G1 X11.7 Z-3.7612
G1 X12.0 Z-3.8895
G1 X12.3 Z-4.0165
G1 X12.6 Z-4.1363
G1 X12.9 Z-4.225
G1 X13.2 Z-4.3113
G1 X13.5 Z-4.3966
G1 X13.8 Z-4.4724
G1 X14.1 Z-4.5229
G1 X14.4 Z-4.5704
G1 X14.7 Z-4.617
G1 X15.0 Z-4.6438
G1 X15.3 Z-4.616
G1 X15.6 Z-4.5843
G1 X15.9 Z-4.5248
G1 X16.2 Z-4.4615
G1 X16.5 Z-4.3958
G1 X16.8 Z-4.3256
G1 X17.1 Z-4.2273
G1 X17.4 Z-4.1241
G1 X17.7 Z-4.0183
G1 X18.0 Z-3.9027
G1 X18.3 Z-3.7624
G1 X18.6 Z-3.6141
G1 X18.9 Z-3.4647
G1 X19.2 Z-3.2917
G1 X19.5 Z-3.1032
G1 X19.8 Z-2.9104
G1 X21.3
G1 X21.55
G0 Z1.0
G0 X-0.75 Y106.5
G0 Z0.999
G1 F100.0 Z-0.5
G1 F800.0 X7.5
G1 X7.8 Z-0.5572
G1 X8.4 Z-1.3005
G1 X8.7 Z-1.6219
G1 X9.0 Z-1.913
G1 X9.3 Z-2.2038
G1 X9.6 Z-2.4501
G1 X9.9 Z-2.6776
G1 X10.2 Z-2.9042
G1 X10.5 Z-3.1069
G1 X10.8 Z-3.2824
G1 X11.1 Z-3.4556
G1 X11.4 Z-3.6288
G1 X11.7 Z-3.761
G1 X12.0 Z-3.8898
G1 X12.3 Z-4.0168
G1 X12.6 Z-4.136
G1 X12.9 Z-4.2247
G1 X13.2 Z-4.3116
G1 X13.5 Z-4.397
G1 X13.8 Z-4.4721
G1 X14.1 Z-4.5225
G1 X14.4 Z-4.5708
G1 X14.7 Z-4.6174
G1 X15.0 Z-4.6443
G1 X15.3 Z-4.6165
G1 X15.6 Z-4.5838
G1 X15.9 Z-4.5243
G1 X16.2 Z-4.4621
G1 X16.5 Z-4.3964
G1 X16.8 Z-4.325
G1 X17.1 Z-4.2267
G1 X17.4 Z-4.1247
G1 X17.7 Z-4.019
G1 X18.0 Z-3.9021
G1 X18.3 Z-3.7618
G1 X18.6 Z-3.6148
G1 X18.9 Z-3.4654
G1 X19.2 Z-3.291
G1 X19.5 Z-3.1032
G1 X19.8 Z-2.9104
G1 X21.3
G1 X21.55
G0 Z1.0
G0 X-0.75 Y107.7
G0 Z0.999
G1 F100.0 Z-0.5
G1 F800.0 X7.5
G1 X7.8 Z-0.5572
G1 X8.4 Z-1.3005
G1 X8.7 Z-1.6219
G1 X9.0 Z-1.9131
G1 X9.3 Z-2.2039
G1 X9.6 Z-2.45
G1 X9.9 Z-2.6778
G1 X10.2 Z-2.9043
G1 X10.5 Z-3.1068
G1 X10.8 Z-3.2822
G1 X11.1 Z-3.4559
G1 X11.4 Z-3.6291
G1 X11.7 Z-3.7608
G1 X12.0 Z-3.8901
G1 X12.3 Z-4.0171
G1 X12.6 Z-4.1357
G1 X12.9 Z-4.2244
G1 X13.2 Z-4.312
G1 X13.5 Z-4.3973
G1 X13.8 Z-4.4718
G1 X14.1 Z-4.5222
G1 X14.4 Z-4.5712
G1 X14.7 Z-4.6177
G1 X15.0 Z-4.6448
G1 X15.3 Z-4.617
G1 X15.6 Z-4.5833
G1 X15.9 Z-4.5238
G1 X16.2 Z-4.4626
G1 X16.5 Z-4.3969
G1 X16.8 Z-4.3245
G1 X17.1 Z-4.2262
G1 X17.4 Z-4.1253
G1 X17.7 Z-4.0196
G1 X18.0 Z-3.9015
G1 X18.3 Z-3.7612
G1 X18.6 Z-3.6155
G1 X18.9 Z-3.4661
G1 X19.2 Z-3.2902
G1 X19.5 Z-3.1028
G1 X19.8 Z-2.9104
G1 X21.3
G1 X21.55
G0 Z1.0
G0 X-0.75 Y108.9
G0 Z0.999
G1 F100.0 Z-0.5
G1 F800.0 X7.5
G1 X7.8 Z-0.5572
G1 X8.4 Z-1.3005
G1 X8.7 Z-1.6219
G1 X9.0 Z-1.9132
G1 X9.3 Z-2.204
G1 X9.6 Z-2.4499
G1 X9.9 Z-2.6779
G1 X10.2 Z-2.9045
G1 X10.5 Z-3.1066
G1 X10.8 Z-3.2821
G1 X11.1 Z-3.4561
G1 X11.4 Z-3.6293
G1 X11.7 Z-3.7606
G1 X12.0 Z-3.8904
G1 X12.3 Z-4.0174
G1 X12.6 Z-4.1355
G1 X12.9 Z-4.2242
G1 X13.2 Z-4.3123
G1 X13.5 Z-4.3976
G1 X13.8 Z-4.4714
G1 X14.1 Z-4.5219
G1 X14.4 Z-4.5716
G1 X14.7 Z-4.6181
G1 X15.0 Z-4.6453
G1 X15.3 Z-4.6175
G1 X15.6 Z-4.5828
G1 X15.9 Z-4.5233
G1 X16.2 Z-4.4632
G1 X16.5 Z-4.3975
G1 X16.8 Z-4.3239
G1 X17.1 Z-4.2256
G1 X17.4 Z-4.1259
G1 X17.7 Z-4.0202
G1 X18.0 Z-3.9008
G1 X18.3 Z-3.7605
G1 X18.6 Z-3.6162
G1 X18.9 Z-3.4668
G1 X19.2 Z-3.2895
G1 X19.5 Z-3.1021
G1 X19.8 Z-2.9104
G1 X21.3
G1 X21.55
G0 Z1.0
G0 X-0.75 Y110.1
G0 Z0.999
G1 F100.0 Z-0.5
G1 F800.0 X7.5
G1 X7.8 Z-0.5572
G1 X8.4 Z-1.3005
G1 X8.7 Z-1.6219
G1 X9.0 Z-1.9132
G1 X9.3 Z-2.204
G1 X9.6 Z-2.4499
G1 X9.9 Z-2.6779
G1 X10.2 Z-2.9046
G1 X10.5 Z-3.1065
G1 X10.8 Z-3.2819
G1 X11.1 Z-3.4563
G1 X11.4 Z-3.6295
G1 X11.7 Z-3.7604
G1 X12.0 Z-3.8902
G1 X12.3 Z-4.0176
G1 X12.6 Z-4.1352
G1 X13.2 Z-4.3126
G1 X13.5 Z-4.398
G1 X13.8 Z-4.4711
G1 X14.1 Z-4.5216
G1 X14.4 Z-4.5719
G1 X14.7 Z-4.6185
G1 X15.0 Z-4.6455
G1 X15.3 Z-4.618
G1 X15.6 Z-4.5823
G1 X16.2 Z-4.4633
G1 X16.5 Z-4.398
G1 X16.8 Z-4.3234
G1 X17.1 Z-4.2251
G1 X17.4 Z-4.1265
G1 X17.7 Z-4.0208
G1 X18.0 Z-3.9002
G1 X18.3 Z-3.7599
G1 X18.6 Z-3.6169
G1 X18.9 Z-3.4675
G1 X19.2 Z-3.2888
G1 X19.5 Z-3.1014
G1 X19.8 Z-2.9104
G1 X21.3
G1 X21.55
G0 Z1.0
G0 X-0.75 Y111.3
G0 Z0.999
G1 F100.0 Z-0.5
G1 F800.0 X7.5
G1 X7.8 Z-0.5572
G1 X8.4 Z-1.3005
G1 X8.7 Z-1.6219
G1 X9.0 Z-1.9133
G1 X9.3 Z-2.2041
G1 X9.6 Z-2.4498
G1 X9.9 Z-2.6778
G1 X10.2 Z-2.9048
G1 X10.5 Z-3.1063
G1 X10.8 Z-3.2818
G1 X11.1 Z-3.4565
G1 X11.4 Z-3.6297
G1 X11.7 Z-3.7602
G1 X12.0 Z-3.89
G1 X12.3 Z-4.0179
G1 X12.6 Z-4.1349
G1 X13.2 Z-4.3123
G1 X13.5 Z-4.3983
G1 X13.8 Z-4.4708
G1 X14.4 Z-4.5717
G1 X14.7 Z-4.6189
G1 X15.0 Z-4.645
G1 X15.3 Z-4.6185
G1 X15.6 Z-4.5818
G1 X16.2 Z-4.4628
G1 X16.5 Z-4.3986
G1 X16.8 Z-4.3228
G1 X17.4 Z-4.1262
G1 X17.7 Z-4.0214
G1 X18.0 Z-3.8996
G1 X18.3 Z-3.7593
G1 X18.6 Z-3.6176
G1 X18.9 Z-3.4682
G1 X19.2 Z-3.2881
G1 X19.5 Z-3.1007
G1 X19.8 Z-2.9104
G1 X21.3
G1 X21.55
G0 Z1.0
G0 X-0.75 Y112.5
G0 Z0.999
G1 F100.0 Z-0.5
G1 F800.0 X7.5
G1 X7.8 Z-0.5572
G1 X8.4 Z-1.3005
G1 X8.7 Z-1.6219
G1 X9.0 Z-1.9133
G1 X9.3 Z-2.2042
G1 X9.6 Z-2.4497
G1 X9.9 Z-2.6778
G1 X10.2 Z-2.905
G1 X10.5 Z-3.1062
G1 X10.8 Z-3.2816
G1 X11.1 Z-3.4568
G1 X11.4 Z-3.63
G1 X11.7 Z-3.76
G1 X12.0 Z-3.8897
G1 X12.3 Z-4.0182
G1 X12.6 Z-4.1347
G1 X13.2 Z-4.3121
G1 X13.5 Z-4.3986
G1 X13.8 Z-4.4705
G1 X14.4 Z-4.5714
G1 X14.7 Z-4.6193
G1 X15.0 Z-4.6446
G1 X15.3 Z-4.6189
G1 X15.6 Z-4.5814
G1 X16.2 Z-4.4623
G1 X16.5 Z-4.3991
G1 X16.8 Z-4.3223
G1 X17.4 Z-4.1257
G1 X17.7 Z-4.022
G1 X18.0 Z-3.899
G1 X18.3 Z-3.7586
G1 X18.6 Z-3.6183
G1 X18.9 Z-3.4689
G1 X19.2 Z-3.2873
G1 X19.5 Z-3.1
G1 X19.8 Z-2.9104
G1 X21.3
G1 X21.55
G0 Z1.0
G0 X-0.75 Y113.7
G0 Z0.999
G1 F100.0 Z-0.5
G1 F800.0 X7.5
G1 X7.8 Z-0.5572
G1 X8.4 Z-1.3005
G1 X8.7 Z-1.6219
G1 X9.0 Z-1.9133
G1 X9.3 Z-2.2043
G1 X9.6 Z-2.4496
G1 X9.9 Z-2.6777
G1 X10.2 Z-2.9051
G1 X10.5 Z-3.106
G1 X11.1 Z-3.4569
G1 X11.4 Z-3.6299
G1 X12.0 Z-3.8895
G1 X12.3 Z-4.0185
G1 X12.6 Z-4.1344
G1 X13.2 Z-4.3118
G1 X13.5 Z-4.399
G1 X13.8 Z-4.4702
G1 X14.4 Z-4.5711
G1 X14.7 Z-4.6197
G1 X15.0 Z-4.6442
G1 X15.3 Z-4.6194
G1 X15.6 Z-4.5809
G1 X16.2 Z-4.4619
G1 X16.5 Z-4.3997
G1 X16.8 Z-4.3217
G1 X17.4 Z-4.1251
G1 X17.7 Z-4.0227
G1 X18.0 Z-3.8983
G1 X18.6 Z-3.6177
G1 X18.9 Z-3.4696
G1 X19.2 Z-3.2866
G1 X19.5 Z-3.0992
G1 X19.8 Z-2.9104
G1 X21.3
G1 X21.55
G0 Z1.0
G0 X-0.75 Y114.9
G0 Z0.999
G1 F100.0 Z-0.5
G1 F800.0 X7.5
G1 X7.8 Z-0.5572
G1 X8.4 Z-1.3005
G1 X8.7 Z-1.6219
G1 X9.0 Z-1.9133
G1 X9.3 Z-2.2044
G1 X9.6 Z-2.4496
G1 X9.9 Z-2.6776
G1 X10.2 Z-2.9053
G1 X10.5 Z-3.1059
G1 X11.1 Z-3.4568
G1 X11.4 Z-3.6297
G1 X12.0 Z-3.8893
G1 X12.3 Z-4.0188
G1 X12.6 Z-4.1341
G1 X13.2 Z-4.3115
G1 X13.5 Z-4.3993
G1 X13.8 Z-4.4698
G1 X14.4 Z-4.5708
G1 X14.7 Z-4.62
G1 X15.0 Z-4.6438
G1 X15.3 Z-4.6199
G1 X15.6 Z-4.5804
G1 X16.2 Z-4.4614
G1 X16.5 Z-4.4002
G1 X16.8 Z-4.3212
G1 X17.4 Z-4.1246
G1 X17.7 Z-4.0233
G1 X18.0 Z-3.8977
G1 X18.6 Z-3.6171
G1 X18.9 Z-3.4703
G1 X19.2 Z-3.2859
G1 X19.5 Z-3.0985
G1 X19.8 Z-2.9104
G1 X21.3
G1 X21.55
G0 Z1.0
G0 X-0.75 Y116.1
G0 Z0.999
G1 F100.0 Z-0.5
G1 F800.0 X7.5
G1 X7.8 Z-0.5572
G1 X8.4 Z-1.3005
G1 X8.7 Z-1.6219
G1 X9.0 Z-1.9133
G1 X9.3 Z-2.2045
G1 X9.6 Z-2.4495
G1 X9.9 Z-2.6775
G1 X10.2 Z-2.9055
G1 X10.5 Z-3.1058
G1 X11.1 Z-3.4566
G1 X11.4 Z-3.6295
G1 X12.3 Z-4.0189
G1 X12.6 Z-4.1339
G1 X13.2 Z-4.3113
G1 X13.5 Z-4.3996
G1 X13.8 Z-4.4695
G1 X14.4 Z-4.5705
G1 X14.7 Z-4.6204
G1 X15.0 Z-4.6433
G1 X15.3 Z-4.6204
G1 X15.6 Z-4.5799
G1 X16.2 Z-4.4609
G1 X16.5 Z-4.4008
G1 X16.8 Z-4.3206
G1 X17.4 Z-4.124
G1 X17.7 Z-4.0239
G1 X18.0 Z-3.8971
G1 X18.6 Z-3.6164
G1 X18.9 Z-3.471
G1 X19.2 Z-3.2852
G1 X19.8 Z-2.9104
G1 X20.1 Z-2.9097
G1 X21.3
G1 X21.55 Z-2.9104
G0 Z1.0
G0 X-0.75 Y117.3
G0 Z0.999
G1 F100.0 Z-0.5
G1 F800.0 X7.5
G1 X7.8 Z-0.5572
G1 X8.4 Z-1.3005
G1 X8.7 Z-1.6219
G1 X9.0 Z-1.9133
G1 X9.3 Z-2.2045
G1 X9.6 Z-2.4494
G1 X10.2 Z-2.9055
G1 X10.5 Z-3.1056
G1 X11.1 Z-3.4565
G1 X11.4 Z-3.6293
G1 X12.3 Z-4.0187
G1 X12.6 Z-4.1336
G1 X13.5 Z-4.3997
G1 X13.8 Z-4.4692
G1 X14.7 Z-4.6206
G1 X15.0 Z-4.6429
G1 X15.3 Z-4.6204
G1 X15.6 Z-4.5794
G1 X16.5 Z-4.4009
G1 X16.8 Z-4.3201
G1 X17.4 Z-4.1235
G1 X17.7 Z-4.0245
G1 X18.0 Z-3.8964
G1 X18.6 Z-3.6158
G1 X18.9 Z-3.4717
G1 X19.2 Z-3.2845
G1 X19.8 Z-2.9097
G1 X20.1 Z-2.909
G1 X21.3
G1 X21.55 Z-2.9097
G0 Z1.0
G0 X-0.75 Y118.5
G0 Z0.999
G1 F100.0 Z-0.5
G1 F800.0 X7.5
G1 X7.8 Z-0.5572
G1 X8.4 Z-1.3005
G1 X8.7 Z-1.6219
G1 X9.0 Z-1.9133
G1 X9.3 Z-2.2046
G1 X9.6 Z-2.4493
G1 X10.2 Z-2.9054
G1 X10.5 Z-3.1055
G1 X11.1 Z-3.4563
G1 X11.4 Z-3.6291
G1 X12.3 Z-4.0185
G1 X12.6 Z-4.1333
G1 X13.5 Z-4.3995
G1 X13.8 Z-4.4689
G1 X14.7 Z-4.6203
G1 X15.0 Z-4.6425
G1 X15.3 Z-4.6199
G1 X15.6 Z-4.5789
G1 X16.5 Z-4.4004
G1 X16.8 Z-4.3195
G1 X17.7 Z-4.0246
G1 X18.0 Z-3.8958
G1 X18.6 Z-3.6152
G1 X18.9 Z-3.4711
G1 X19.8 Z-2.909
G1 X20.1 Z-2.9088
G1 X21.3
G1 X21.55 Z-2.909
G0 Z1.0
G0 X-0.75 Y119.7
G0 Z0.999
G1 F100.0 Z-0.5
G1 F800.0 X7.5
G1 X7.8 Z-0.5572
G1 X8.4 Z-1.3005
G1 X8.7 Z-1.6219
G1 X9.3 Z-2.2046
G1 X9.6 Z-2.4493
G1 X10.2 Z-2.9054
G1 X10.5 Z-3.1054
G1 X11.1 Z-3.4563
G1 X11.4 Z-3.6291
G1 X12.3 Z-4.0184
G1 X12.6 Z-4.1333
G1 X13.5 Z-4.3994
G1 X13.8 Z-4.4688
G1 X14.7 Z-4.6202
G1 X15.0 Z-4.6424
G1 X15.3 Z-4.6198
G1 X15.6 Z-4.5788
G1 X16.5 Z-4.4003
G1 X16.8 Z-4.3194
G1 X17.7 Z-4.0245
G1 X18.0 Z-3.8957
G1 X18.6 Z-3.615
G1 X18.9 Z-3.4709
G1 X19.8 Z-2.9088
G1 X21.3
G1 X21.55
( Profile1 )
S1000
G0 Z5.0
G0 X0.0 Y-0.75
G0 Z-4.0
G1 F100.0 Z-6.0
G1 F200.0 X20.8
G3 X21.55 Y0.0 I0.0 J0.75
G1 Y120.0
G3 X20.8 Y120.75 I-0.75 J0.0
G1 X0.0
G3 X-0.75 Y120.0 I0.0 J-0.75
G1 Y0.0
G3 X0.0 Y-0.75 I0.75 J0.0
G1 F100.0 Z-7.0
G1 F200.0 X20.8
G3 X21.55 Y0.0 I0.0 J0.75
G1 Y120.0
G3 X20.8 Y120.75 I-0.75 J0.0
G1 X0.0
G3 X-0.75 Y120.0 I0.0 J-0.75
G1 Y0.0
G3 X0.0 Y-0.75 I0.75 J0.0
G1 F100.0 Z-8.0
G1 F200.0 X20.8
G3 X21.55 Y0.0 I0.0 J0.75
G1 Y120.0
G3 X20.8 Y120.75 I-0.75 J0.0
G1 X0.0
G3 X-0.75 Y120.0 I0.0 J-0.75
G1 Y0.0
G3 X0.0 Y-0.75 I0.75 J0.0
G1 F100.0 Z-9.0
G1 F200.0 X20.8
G3 X21.55 Y0.0 I0.0 J0.75
G1 Y120.0
G3 X20.8 Y120.75 I-0.75 J0.0
G1 X0.0
G3 X-0.75 Y120.0 I0.0 J-0.75
G1 Y0.0
G3 X0.0 Y-0.75 I0.75 J0.0
G1 F100.0 Z-9.7
G1 F200.0 X20.8
G3 X21.55 Y0.0 I0.0 J0.75
G1 Y120.0
G3 X20.8 Y120.75 I-0.75 J0.0
G1 X0.0
G3 X-0.75 Y120.0 I0.0 J-0.75
G1 Y0.0
G3 X0.0 Y-0.75 I0.75 J0.0
G0 Z5.0
M5
M30
