( Made using CamBam - http://www.cambam.co.uk )
( espacador 2/23/2019 11:08:45 AM )
( T0 : 1.5 )
G21 G90 G64 G40
G0 Z5.0
( T0 : 1.5 )
T0 M6
( 3DSurface1 )
G17
M3 S1000
G0 X18.85 Y16.15
G0 Z1.0
G1 F100.0 Z-0.5
G1 F200.0 X27.6524
G1 Y15.85
G1 X18.85
G1 Y16.15
G0 Z5.0
G0 Y17.35
G0 Z1.0
G1 F100.0 Z-0.5
G1 F200.0 X28.8524
G1 Y14.65
G1 X17.65
G1 Y17.35
G1 X18.85
G0 Z5.0
G0 Y18.55
G0 Z1.0
G1 F100.0 Z-0.5
G1 F200.0 X30.0524
G1 Y13.45
G1 X16.45
G1 Y18.55
G1 X18.85
G0 Z5.0
G0 Y19.75
G0 Z1.0
G1 F100.0 Z-0.5
G1 F200.0 X31.2524
G1 Y12.25
G1 X15.25
G1 Y19.75
G1 X18.85
G0 Z5.0
G0 Y20.95
G0 Z1.0
G1 F100.0 Z-0.5
G1 F200.0 X32.4524
G1 Y11.05
G1 X14.05
G1 Y20.95
G1 X18.85
G0 Z5.0
G0 Y22.15
G0 Z1.0
G1 F100.0 Z-0.5
G1 F200.0 X33.6583
G3 X33.6524 Y21.8 I10.3417 J-0.35
G1 Y10.2
G3 X33.6583 Y9.85 I10.3476 J0.0
G1 X12.85
G1 Y22.15
G1 X18.85
G0 Z5.0
G0 Y23.35
G0 Z1.0
G1 F100.0 Z-0.5
G1 F200.0 X34.9847
G3 X34.8524 Y21.8 I9.0153 J-1.55
G1 Y10.2
G3 X34.9847 Y8.65 I9.1476 J0.0
G1 X11.65
G1 Y23.35
G1 X18.85
G0 Z5.0
G0 Y24.55
G0 Z1.0
G1 F100.0 Z-0.5
G1 F200.0 X36.5433
G3 X36.0524 Y21.8 I7.4567 J-2.75
G1 Y10.2
G3 X36.5433 Y7.45 I7.9476 J0.0
G1 X10.45
G1 Y24.55
G1 X18.85
G0 Z5.0
G0 Y25.75
G0 Z1.0
G1 F100.0 Z-0.5
G1 F200.0 X38.5294
G3 X37.2524 Y21.8 I5.4706 J-3.95
G1 Y10.2
G3 X38.5294 Y6.25 I6.7476 J0.0
G1 X9.25
G1 Y25.75
G1 X18.85
G0 Z5.0
G0 Y26.95
G0 Z1.0
G1 F100.0 Z-0.5
G1 F200.0 X41.9376
G3 X38.4524 Y21.8 I2.0624 J-5.15
G1 Y10.2
G3 X41.9376 Y5.05 I5.5476 J0.0
G1 X8.05
G1 Y26.95
G1 X18.85
G0 Z5.0
G0 X100.3476 Y16.15
G0 Z1.0
G1 F100.0 Z-0.5
G1 F200.0 X109.15
G1 Y15.85
G1 X100.3476
G1 Y16.15
G0 Z5.0
G0 Y17.35
G0 Z1.0
G1 F100.0 Z-0.5
G1 F200.0 X110.35
G1 Y14.65
G1 X99.1476
G1 Y17.35
G1 X100.3476
G0 Z5.0
G0 Y18.55
G0 Z1.0
G1 F100.0 Z-0.5
G1 F200.0 X111.55
G1 Y13.45
G1 X97.9476
G1 Y18.55
G1 X100.3476
G0 Z5.0
G0 Y19.75
G0 Z1.0
G1 F100.0 Z-0.5
G1 F200.0 X112.75
G1 Y12.25
G1 X96.7476
G1 Y19.75
G1 X100.3476
G0 Z5.0
G0 Y20.95
G0 Z1.0
G1 F100.0 Z-0.5
G1 F200.0 X113.95
G1 Y11.05
G1 X95.5476
G1 Y20.95
G1 X100.3476
G0 Z5.0
G0 Y22.15
G0 Z1.0
G1 F100.0 Z-0.5
G1 F200.0 X115.15
G1 Y9.85
G1 X94.3417
G3 X94.3476 Y10.2 I-10.3417 J0.35
G1 Y21.8
G3 X94.3417 Y22.15 I-10.3476 J0.0
G1 X100.3476
G0 Z5.0
G0 Y23.35
G0 Z1.0
G1 F100.0 Z-0.5
G1 F200.0 X116.35
G1 Y8.65
G1 X93.0153
G3 X93.1476 Y10.2 I-9.0153 J1.55
G1 Y21.8
G3 X93.0153 Y23.35 I-9.1476 J0.0
G1 X100.3476
G0 Z5.0
G0 Y24.55
G0 Z1.0
G1 F100.0 Z-0.5
G1 F200.0 X117.55
G1 Y7.45
G1 X91.4567
G3 X91.9476 Y10.2 I-7.4567 J2.75
G1 Y21.8
G3 X91.4567 Y24.55 I-7.9476 J0.0
G1 X100.3476
G0 Z5.0
G0 Y25.75
G0 Z1.0
G1 F100.0 Z-0.5
G1 F200.0 X118.75
G1 Y6.25
G1 X89.4706
G3 X90.7476 Y10.2 I-5.4706 J3.95
G1 Y21.8
G3 X89.4706 Y25.75 I-6.7476 J0.0
G1 X100.3476
G0 Z5.0
G0 Y26.95
G0 Z1.0
G1 F100.0 Z-0.5
G1 F200.0 X119.95
G1 Y5.05
G1 X86.0624
G3 X89.5476 Y10.2 I-2.0624 J5.15
G1 Y21.8
G3 X86.0624 Y26.95 I-5.5476 J0.0
G1 X100.3476
G0 Z5.0
G0 X85.8576 Y22.3852
G0 Z1.0
G1 F100.0 Z-0.5
G3 F200.0 X84.0 Y23.7476 I-1.8576 J-0.5852
G1 X44.0
G3 X42.0524 Y21.8 I0.0 J-1.9476
G1 Y10.2
G3 X44.0 Y8.2524 I1.9476 J0.0
G1 X84.0
G3 X85.9476 Y10.2 I0.0 J1.9476
G1 Y21.8
G3 X85.8576 Y22.3852 I-1.9476 J0.0
G0 Z5.0
G0 X84.7153 Y22.0254
G0 Z1.0
G1 F100.0 Z-0.5
G3 F200.0 X84.0 Y22.55 I-0.7153 J-0.2254
G1 X44.0
G3 X43.25 Y21.8 I0.0 J-0.75
G1 Y10.2
G3 X44.0 Y9.45 I0.75 J0.0
G1 X84.0
G3 X84.75 Y10.2 I0.0 J0.75
G1 Y21.8
G3 X84.7153 Y22.0254 I-0.75 J0.0
G0 Z5.0
G0 X87.0022 Y22.7458
G0 Z1.0
G1 F100.0 Z-0.5
G2 F200.0 X87.1476 Y21.8 I-3.0022 J-0.9458
G1 Y10.2
G2 X84.0 Y7.0524 I-3.1476 J0.0
G1 X44.0
G2 X40.8524 Y10.2 I0.0 J3.1476
G1 Y21.8
G2 X44.0 Y24.9476 I3.1476 J0.0
G1 X84.0
G2 X87.0022 Y22.7458 I0.0 J-3.1476
G0 Z5.0
G0 X88.1467 Y23.1063
G0 Z1.0
G1 F100.0 Z-0.5
G2 F200.0 X88.3476 Y21.8 I-4.1467 J-1.3063
G1 Y10.2
G2 X84.0 Y5.8524 I-4.3476 J0.0
G1 X44.0
G2 X39.6524 Y10.2 I0.0 J4.3476
G1 Y21.8
G2 X44.0 Y26.1476 I4.3476 J0.0
G1 X84.0
G2 X88.1467 Y23.1063 I0.0 J-4.3476
G0 Z5.0
G0 Y28.15
G0 Z1.0
G1 F100.0 Z-0.5
G1 F200.0 X121.15
G1 Y3.85
G1 X6.85
G1 Y28.15
G1 X88.1467
G0 Z5.0
G0 Y29.35
G0 Z1.0
G1 F100.0 Z-0.5
G1 F200.0 X122.35
G1 Y2.65
G1 X5.65
G1 Y29.35
G1 X88.1467
G0 Z5.0
G0 Y30.55
G0 Z1.0
G1 F100.0 Z-0.5
G1 F200.0 X123.55
G1 Y1.45
G1 X4.45
G1 Y30.55
G1 X88.1467
G0 Z5.0
G0 Y31.75
G0 Z1.0
G1 F100.0 Z-0.5
G1 F200.0 X124.0
G2 X124.75 Y31.0 I0.0 J-0.75
G1 Y1.0
G2 X124.0 Y0.25 I-0.75 J0.0
G1 X4.0
G2 X3.25 Y1.0 I0.0 J0.75
G1 Y31.0
G2 X4.0 Y31.75 I0.75 J0.0
G1 X88.1467
G0 Z5.0
G0 X88.3476 Y17.1859
G0 Z0.5
G1 F100.0 Z-1.0
G2 F200.0 X121.15 Y17.1832 I15.6524 J-9309.1455
G1 Y14.8168
G2 X88.3476 Y14.8141 I-17.15 J9308.6065
G1 Y17.1859
G0 Z5.0
G0 X88.3456 Y18.3858
G0 Z0.5
G1 F100.0 Z-1.0
G2 F200.0 X122.35 Y18.3809 I15.6544 J-9310.3455
G1 Y13.6191
G2 X87.1476 Y13.6162 I-18.35 J9309.8042
G1 Y18.3838
G2 X88.3456 Y18.3858 I16.8524 J-9310.3435
G0 Z5.0
G0 X88.3436 Y19.5858
G0 Z0.5
G1 F100.0 Z-1.0
G2 F200.0 X123.55 Y19.5785 I15.6564 J-9311.5455
G1 Y12.4215
G2 X85.9476 Y12.4185 I-19.55 J9311.0018
G1 Y19.5815
G2 X88.3436 Y19.5858 I18.0524 J-9311.5412
G0 Z5.0
G0 X88.3416 Y20.7834
G0 Z0.5
G1 F100.0 Z-1.0
G2 F200.0 X123.9984 Y20.7751 I15.6584 J-9312.7431
G3 X124.75 Y21.5251 I0.0016 J0.75
G1 Y10.4749
G3 X123.9984 Y11.2249 I-0.75 J0.0
G2 X84.75 Y11.2233 I-19.9984 J9312.1984
G1 Y20.7767
G2 X88.3416 Y20.7834 I19.25 J-9312.7364
G0 Z5.0
G0 X124.75 Y22.3
G0 Z0.5
G1 F100.0 Z-1.0
G1 F200.0 Y21.5251
G0 Z5.0
G0 Y10.4749
G0 Z0.0
G1 F100.0 Z-1.0
G1 F200.0 Y9.7
G2 X124.0 Y8.95 I-0.75 J0.0
G1 X44.0
G2 X43.25 Y9.7 I0.0 J0.75
G1 Y22.3
G2 X44.0 Y23.05 I0.75 J0.0
G1 X124.0
G2 X124.75 Y22.3 I0.0 J-0.75
G1 Y31.0
G3 X124.0 Y31.75 I-0.75 J0.0
G1 X4.0
G3 X3.25 Y31.0 I0.0 J-0.75
G1 Y1.0
G3 X4.0 Y0.25 I0.75 J0.0
G1 X124.0
G3 X124.75 Y1.0 I0.0 J0.75
G1 Y9.7
G0 Z5.0
G0 X121.15 Y15.6495
G0 Z0.0
G1 F100.0 Z-1.5
G2 F200.0 X104.016 Y15.6648 I-5.8246 J3073.337
G3 X103.984 I-0.016 J-4.3476
G2 X88.3476 Y15.647 I-11.3094 J3073.3217
G1 Y16.353
G2 X103.984 Y16.3352 I4.3267 J-3073.3052
G3 X104.016 I0.016 J4.3476
G2 X121.15 Y16.3505 I11.3097 J-3073.2875
G1 Y15.6495
G0 Z5.0
G0 X122.35
G0 Z0.0
G1 F100.0 Z-1.5
G1 F200.0 Y14.452
G2 X104.0116 Y14.4648 I-7.0246 J3074.5345
G3 X103.9884 I-0.0116 J-3.1476
G2 X87.1476 Y14.4489 I-11.3139 J3074.5217
G1 Y17.5511
G2 X103.9884 Y17.5352 I5.5267 J-3074.5033
G3 X104.0116 I0.0116 J3.1476
G2 X122.35 Y17.548 I11.3141 J-3074.4875
G1 Y15.6495
G0 Z5.0
G0 X123.55
G0 Z0.0
G1 F100.0 Z-1.5
G1 F200.0 Y13.2549
G2 X104.0072 Y13.2648 I-8.2246 J3075.7315
G3 X103.9928 I-0.0072 J-1.9476
G2 X85.9476 Y13.2513 I-11.3183 J3075.7217
G1 Y18.7487
G2 X103.9928 Y18.7352 I6.7267 J-3075.7009
G3 X104.0072 I0.0072 J1.9476
G2 X123.55 Y18.7451 I11.3185 J-3075.6875
G1 Y15.6495
G0 Z5.0
G0 X124.75
G0 Z0.0
G1 F100.0 Z-1.5
G1 F200.0 Y11.3086
G3 X123.9979 Y12.0586 I-0.75 J0.0
G2 X104.0028 Y12.0672 I-8.6724 J3076.9279
G3 X103.9972 I-0.0028 J-0.75
G2 X84.75 Y12.0565 I-11.3227 J3076.9193
G1 Y19.9435
G2 X103.9972 Y19.9328 I7.9243 J-3076.8957
G3 X104.0028 I0.0028 J0.75
G2 X123.9979 Y19.9414 I11.3229 J-3076.885
G3 X124.75 Y20.6914 I0.0021 J0.75
G1 Y15.6495
G0 Z5.0
G0 X122.35
G0 Z-0.5
G1 F100.0 Z-2.0
G1 F200.0 Y15.5493
G1 X115.7091 Y15.5392
G1 X104.0063 Y15.5625
G3 X103.9937 I-0.0063 J-3.1476
G1 X92.2909 Y15.5392
G1 X87.1476 Y15.547
G1 Y16.453
G1 X92.2909 Y16.4608
G1 X103.9937 Y16.4375
G3 X104.0063 I0.0063 J3.1476
G1 X115.7091 Y16.4608
G1 X122.35 Y16.4507
G1 Y15.6495
G0 Z5.0
G0 X123.55
G0 Z-0.5
G1 F100.0 Z-2.0
G1 F200.0 Y14.3512
G1 X115.7088 Y14.3392
G1 X104.0039 Y14.3625
G3 X103.9961 I-0.0039 J-1.9476
G1 X92.2912 Y14.3392
G1 X85.9476 Y14.3489
G1 Y17.6511
G1 X92.2912 Y17.6608
G1 X103.9961 Y17.6375
G3 X104.0039 I0.0039 J1.9476
G1 X115.7088 Y17.6608
G1 X123.55 Y17.6488
G1 Y15.6495
G0 Z5.0
G0 X124.75
G0 Z-0.5
G1 F100.0 Z-2.0
G1 F200.0 Y12.4042
G3 X123.9989 Y13.1542 I-0.75 J0.0
G1 X115.7086 Y13.1416
G1 X104.0015 Y13.1649
G3 X103.9985 I-0.0015 J-0.75
G1 X92.2914 Y13.1416
G1 X84.75 Y13.1531
G1 Y18.8469
G1 X92.2914 Y18.8584
G1 X103.9985 Y18.8351
G3 X104.0015 I0.0015 J0.75
G1 X115.7086 Y18.8584
G1 X123.9989 Y18.8458
G3 X124.75 Y19.5958 I0.0011 J0.75
G1 Y15.6495
G0 Z5.0
G0 Y17.8789
G0 Z-1.0
G1 F100.0 Z-2.5
G1 F200.0 Y14.1211
G0 Z5.0
G0 Y22.8
G0 Z0.0
G1 F100.0 Z-1.5
G1 F200.0 Y20.6914
G0 Z5.0
G0 X3.25 Y21.6372
G0 Z0.0
G1 F100.0 Z-1.5
G1 F200.0 Y22.8
G0 Z5.0
G0 Y9.2
G0 Z0.0
G1 F100.0 Z-1.5
G1 F200.0 Y10.3628
G0 Z5.0
G0 X18.85 Y15.85
G0 Z0.5
G1 F100.0 Z-1.0
G1 F200.0 Y16.15
G1 X27.6524
G1 Y15.85
G1 X18.85
G0 Z5.0
G0 Y14.65
G0 Z0.5
G1 F100.0 Z-1.0
G1 F200.0 X17.65
G1 Y17.35
G1 X28.8524
G1 Y14.65
G1 X18.85
G0 Z5.0
G0 Y13.45
G0 Z0.5
G1 F100.0 Z-1.0
G1 F200.0 X16.45
G1 Y18.55
G1 X30.0524
G1 Y13.45
G1 X18.85
G0 Z5.0
G0 Y12.25
G0 Z0.5
G1 F100.0 Z-1.0
G1 F200.0 X15.25
G1 Y19.75
G1 X31.2524
G1 Y12.25
G1 X18.85
G0 Z5.0
G0 Y11.05
G0 Z0.5
G1 F100.0 Z-1.0
G1 F200.0 X14.05
G1 Y20.95
G1 X32.4524
G1 Y11.05
G1 X18.85
G0 Z5.0
G0 Y9.85
G0 Z0.5
G1 F100.0 Z-1.0
G1 F200.0 X12.85
G1 Y22.15
G1 X33.6524
G1 Y9.85
G1 X18.85
G0 Z5.0
G0 Y8.65
G0 Z0.5
G1 F100.0 Z-1.0
G1 F200.0 X11.65
G1 Y23.35
G1 X34.9129
G3 X34.8524 Y22.3 I9.0871 J-1.05
G1 Y9.7
G3 X34.9129 Y8.65 I9.1476 J0.0
G1 X18.85
G0 Z5.0
G0 Y7.45
G0 Z0.5
G1 F100.0 Z-1.0
G1 F200.0 X10.45
G1 Y24.55
G1 X36.3775
G3 X36.0524 Y22.3 I7.6225 J-2.25
G1 Y9.7
G3 X36.3775 Y7.45 I7.9476 J0.0
G1 X18.85
G0 Z5.0
G0 Y6.25
G0 Z0.5
G1 F100.0 Z-1.0
G1 F200.0 X9.25
G1 Y25.75
G1 X38.2011
G3 X37.2524 Y22.3 I5.7989 J-3.45
G1 Y9.7
G3 X38.2011 Y6.25 I6.7476 J0.0
G1 X18.85
G0 Z5.0
G0 Y5.05
G0 Z0.5
G1 F100.0 Z-1.0
G1 F200.0 X8.05
G1 Y26.95
G1 X40.9745
G3 X38.4524 Y22.3 I3.0255 J-4.65
G1 Y9.7
G3 X40.9745 Y5.05 I5.5476 J0.0
G1 X18.85
G0 Z5.0
G0 Y3.85
G0 Z0.5
G1 F100.0 Z-1.0
G1 F200.0 X6.85
G1 Y28.15
G1 X121.15
G1 Y26.6476
G1 X44.0
G3 X39.6524 Y22.3 I0.0 J-4.3476
G1 Y9.7
G3 X44.0 Y5.3524 I4.3476 J0.0
G1 X121.15
G1 Y3.85
G1 X18.85
G0 Z5.0
G0 Y2.65
G0 Z0.5
G1 F100.0 Z-1.0
G1 F200.0 X5.65
G1 Y29.35
G1 X122.35
G1 Y25.4476
G1 X44.0
G3 X40.8524 Y22.3 I0.0 J-3.1476
G1 Y9.7
G3 X44.0 Y6.5524 I3.1476 J0.0
G1 X122.35
G1 Y2.65
G1 X18.85
G0 Z5.0
G0 Y1.45
G0 Z0.5
G1 F100.0 Z-1.0
G1 F200.0 X123.55
G1 Y7.7524
G1 X44.0
G2 X42.0524 Y9.7 I0.0 J1.9476
G1 Y22.3
G2 X44.0 Y24.2476 I1.9476 J0.0
G1 X123.55
G1 Y30.55
G1 X4.45
G1 Y1.45
G1 X18.85
G0 Z5.0
G0 Y3.85
G0 Z0.0
G1 F100.0 Z-1.5
G1 F200.0 X6.85
G1 Y4.8524
G1 X121.15
G1 Y3.85
G1 X18.85
G0 Z5.0
G0 Y2.65
G0 Z0.0
G1 F100.0 Z-1.5
G1 F200.0 X5.65
G1 Y6.0524
G1 X122.35
G1 Y2.65
G1 X18.85
G0 Z5.0
G0 Y1.45
G0 Z0.0
G1 F100.0 Z-1.5
G1 F200.0 X123.55
G1 Y7.2524
G1 X4.45
G1 Y1.45
G1 X18.85
G0 Z5.0
G0 Y3.85
G0 Z-0.5
G1 F100.0 Z-2.0
G1 F200.0 X6.85
G1 Y4.3524
G1 X121.15
G1 Y3.85
G1 X18.85
G0 Z5.0
G0 Y2.65
G0 Z-0.5
G1 F100.0 Z-2.0
G1 F200.0 X5.65
G1 Y5.5524
G1 X122.35
G1 Y2.65
G1 X18.85
G0 Z5.0
G0 Y1.45
G0 Z-0.5
G1 F100.0 Z-2.0
G1 F200.0 X123.55
G1 Y6.7524
G1 X4.45
G1 Y1.45
G1 X18.85
G0 Z5.0
G0 Y3.85
G0 Z-1.0
G1 F100.0 Z-2.5
G1 F200.0 X6.85
G1 Y3.8524
G1 X121.15
G1 Y3.85
G1 X18.85
G0 Z5.0
G0 Y2.65
G0 Z-1.0
G1 F100.0 Z-2.5
G1 F200.0 X5.65
G1 Y5.0524
G1 X122.35
G1 Y2.65
G1 X18.85
G0 Z5.0
G0 Y1.45
G0 Z-1.0
G1 F100.0 Z-2.5
G1 F200.0 X123.55
G1 Y6.2524
G1 X4.45
G1 Y1.45
G1 X18.85
G0 Z5.0
G0 Y3.25
G0 Z-1.5
G1 F100.0 Z-3.0
G1 F200.0 X6.25
G1 Y3.9524
G1 X121.75
G1 Y3.25
G1 X18.85
G1 F100.0 Y2.65
G1 F200.0 X5.65
G1 Y4.5524
G1 X122.35
G1 Y2.65
G1 X18.85
G0 Z5.0
G0 Y1.45
G0 Z-1.5
G1 F100.0 Z-3.0
G1 F200.0 X123.55
G1 Y5.7524
G1 X4.45
G1 Y1.45
G1 X18.85
G0 Z5.0
G0 Y3.25
G0 Z-2.0
G1 F100.0 Z-3.5
G1 F200.0 X6.25
G1 Y3.4524
G1 X121.75
G1 Y3.25
G1 X18.85
G1 F100.0 Y2.65
G1 F200.0 X5.65
G1 Y4.0524
G1 X122.35
G1 Y2.65
G1 X18.85
G0 Z5.0
G0 Y1.45
G0 Z-2.0
G1 F100.0 Z-3.5
G1 F200.0 X123.55
G1 Y5.2524
G1 X4.45
G1 Y1.45
G1 X18.85
G0 Z5.0
G0 Y2.65
G0 Z-2.5
G1 F100.0 Z-4.0
G1 F200.0 X5.65
G1 Y3.5524
G1 X122.35
G1 Y2.65
G1 X18.85
G0 Z5.0
G0 Y1.45
G0 Z-2.5
G1 F100.0 Z-4.0
G1 F200.0 X123.55
G1 Y4.7524
G1 X4.45
G1 Y1.45
G1 X18.85
G0 Z5.0
G0 Y2.65
G0 Z-3.0
G1 F100.0 Z-4.5
G1 F200.0 X5.65
G1 Y3.0524
G1 X122.35
G1 Y2.65
G1 X18.85
G0 Z5.0
G0 Y1.45
G0 Z-3.0
G1 F100.0 Z-4.5
G1 F200.0 X123.55
G1 Y4.2524
G1 X4.45
G1 Y1.45
G1 X18.85
G1 F100.0 Y2.05
G1 Z-5.0
G1 F200.0 X5.05
G1 Y3.1524
G1 X122.95
G1 Y2.05
G1 X18.85
G1 F100.0 Y1.45
G1 F200.0 X123.55
G1 Y3.7524
G1 X4.45
G1 Y1.45
G1 X18.85
G1 F100.0 Y2.05
G1 Z-5.5
G1 F200.0 X5.05
G1 Y2.6524
G1 X122.95
G1 Y2.05
G1 X18.85
G1 F100.0 Y1.45
G1 F200.0 X123.55
G1 Y3.2524
G1 X4.45
G1 Y1.45
G1 X18.85
G1 F100.0 Y2.05
G1 Z-6.0
G1 F200.0 X5.05
G1 Y2.1524
G1 X122.95
G1 Y2.05
G1 X18.85
G1 F100.0 Y1.45
G1 F200.0 X123.55
G1 Y2.7524
G1 X4.45
G1 Y1.45
G1 X18.85
G1 F100.0 Z-6.5
G1 F200.0 X123.55
G1 Y2.2524
G1 X4.45
G1 Y1.45
G1 X18.85
G1 F100.0 Z-7.0
G1 F200.0 X123.55
G1 Y1.7524
G1 X4.45
G1 Y1.45
G1 X18.85
G0 Z5.0
G0 X18.8518 Y15.9058
G0 Z0.0
G1 F100.0 Z-1.5
G1 F200.0 X8.05 Y15.9086
G1 Y16.0914
G1 X38.4524 Y16.092
G1 Y15.908
G1 X18.8518 Y15.9058
G0 Z5.0
G0 X18.8517 Y14.7058
G0 Z0.0
G1 F100.0 Z-1.5
G1 F200.0 X6.85 Y14.7091
G1 Y17.2909
G1 X39.6524 Y17.2915
G1 Y14.7085
G1 X18.8517 Y14.7058
G0 Z5.0
G0 X18.8515 Y13.5058
G0 Z0.0
G1 F100.0 Z-1.5
G1 F200.0 X5.65 Y13.5096
G1 Y18.4904
G1 X40.8524 Y18.4911
G1 Y13.5089
G1 X18.8515 Y13.5058
G0 Z5.0
G0 X18.8514 Y12.3058
G0 Z0.0
G1 F100.0 Z-1.5
G1 F200.0 X4.45 Y12.3102
G1 Y19.6898
G1 X42.0524 Y19.6905
G1 Y12.3095
G1 X18.8514 Y12.3058
G0 Z5.0
G0 X18.8512 Y11.1082
G0 Z0.0
G1 F100.0 Z-1.5
G1 F200.0 X4.0004 Y11.1128
G3 X3.25 Y10.3628 I-0.0004 J-0.75
G1 Y21.6372
G3 X4.0004 Y20.8872 I0.75 J0.0
G1 X43.25 Y20.8876
G1 Y11.1124
G1 X18.8512 Y11.1082
G0 Z5.0
G0 X18.8495 Y15.5253
G0 Z-0.5
G1 F100.0 Z-2.0
G1 F200.0 X13.1766 Y15.523
G1 X6.85 Y15.525
G1 Y16.475
G1 X13.1766 Y16.477
G1 X23.9983 Y16.4727
G3 X24.0017 I0.0017 J4.3476
G1 X34.8234 Y16.477
G1 X39.6524 Y16.4755
G1 Y15.5245
G1 X34.8234 Y15.523
G1 X24.0017 Y15.5273
G3 X23.9983 I-0.0017 J-4.3476
G1 X18.8495 Y15.5253
G0 Z5.0
G0 X18.85 Y14.3253
G0 Z-0.5
G1 F100.0 Z-2.0
G1 F200.0 X13.1767 Y14.323
G1 X5.65 Y14.3253
G1 Y17.6747
G1 X13.1767 Y17.677
G1 X23.9988 Y17.6727
G3 X24.0012 I0.0012 J3.1476
G1 X34.8233 Y17.677
G1 X40.8524 Y17.6751
G1 Y14.3249
G1 X34.8233 Y14.323
G1 X24.0012 Y14.3273
G3 X23.9988 I-0.0012 J-3.1476
G1 X18.85 Y14.3253
G0 Z5.0
G0 X18.8504 Y13.1253
G0 Z-0.5
G1 F100.0 Z-2.0
G1 F200.0 X13.1767 Y13.123
G1 X4.45 Y13.1257
G1 Y18.8743
G1 X13.1767 Y18.877
G1 X23.9992 Y18.8727
G3 X24.0008 I0.0008 J1.9476
G1 X34.8233 Y18.877
G1 X42.0524 Y18.8747
G1 Y13.1253
G1 X34.8233 Y13.123
G1 X24.0008 Y13.1273
G3 X23.9992 I-0.0008 J-1.9476
G1 X18.8504 Y13.1253
G0 Z5.0
G0 X18.8509 Y11.9277
G0 Z-0.5
G1 F100.0 Z-2.0
G1 F200.0 X13.1768 Y11.9254
G1 X4.0002 Y11.9283
G3 X3.25 Y11.1783 I-0.0002 J-0.75
G1 Y20.8217
G3 X4.0002 Y20.0717 I0.75 J0.0
G1 X13.1768 Y20.0746
G1 X23.9997 Y20.0703
G3 X24.0003 I0.0003 J0.75
G1 X34.8232 Y20.0746
G1 X43.25 Y20.072
G1 Y11.928
G1 X34.8232 Y11.9254
G1 X24.0003 Y11.9297
G3 X23.9997 I-0.0003 J-0.75
G1 X18.8509 Y11.9277
G0 Z5.0
G0 Y27.1476
G0 Z0.0
G1 F100.0 Z-1.5
G1 F200.0 X6.85
G1 Y28.15
G1 X121.15
G1 Y27.1476
G1 X18.8509
G0 Z5.0
G0 Y25.9476
G0 Z0.0
G1 F100.0 Z-1.5
G1 F200.0 X5.65
G1 Y29.35
G1 X122.35
G1 Y25.9476
G1 X18.8509
G0 Z5.0
G0 Y24.7476
G0 Z0.0
G1 F100.0 Z-1.5
G1 F200.0 X4.45
G1 Y30.55
G1 X123.55
G1 Y24.7476
G1 X18.8509
G0 Z5.0
G0 Y23.55
G0 Z0.0
G1 F100.0 Z-1.5
G1 F200.0 X4.0
G3 X3.25 Y22.8 I0.0 J-0.75
G1 Y31.0
G2 X4.0 Y31.75 I0.75 J0.0
G1 X124.0
G2 X124.75 Y31.0 I0.0 J-0.75
G1 Y22.8
G3 X124.0 Y23.55 I-0.75 J0.0
G1 X18.8509
G0 Z5.0
G0 Y27.6476
G0 Z-0.5
G1 F100.0 Z-2.0
G1 F200.0 X6.85
G1 Y28.15
G1 X121.15
G1 Y27.6476
G1 X18.8509
G0 Z5.0
G0 Y26.4476
G0 Z-0.5
G1 F100.0 Z-2.0
G1 F200.0 X5.65
G1 Y29.35
G1 X122.35
G1 Y26.4476
G1 X18.8509
G0 Z5.0
G0 Y25.2476
G0 Z-0.5
G1 F100.0 Z-2.0
G1 F200.0 X4.45
G1 Y30.55
G1 X123.55
G1 Y25.2476
G1 X18.8509
G0 Z5.0
G0 Y24.05
G0 Z-0.5
G1 F100.0 Z-2.0
G1 F200.0 X4.0
G3 X3.25 Y23.3 I0.0 J-0.75
G1 Y31.0
G2 X4.0 Y31.75 I0.75 J0.0
G1 X124.0
G2 X124.75 Y31.0 I0.0 J-0.75
G1 Y23.3
G3 X124.0 Y24.05 I-0.75 J0.0
G1 X18.8509
G0 Z5.0
G0 X3.25 Y20.8217
G0 Z-1.0
G1 F100.0 Z-2.0
G1 F200.0 Y23.3
G0 Z5.0
G0 Y19.7787
G0 Z-1.0
G1 F100.0 Z-2.5
G1 F200.0 Y23.8
G0 Z5.0
G0 X124.75 Y23.3
G0 Z-1.0
G1 F100.0 Z-2.0
G1 F200.0 Y19.5958
G0 Z5.0
G0 X121.15 Y28.1476
G0 Z-1.0
G1 F100.0 Z-2.5
G1 F200.0 X6.85
G1 Y28.15
G1 X121.15
G1 Y28.1476
G0 Z5.0
G0 X122.35
G0 Z-1.0
G1 F100.0 Z-2.5
G1 F200.0 Y26.9476
G1 X5.65
G1 Y29.35
G1 X122.35
G1 Y28.1476
G0 Z5.0
G0 X123.55
G0 Z-1.0
G1 F100.0 Z-2.5
G1 F200.0 Y25.7476
G1 X4.45
G1 Y30.55
G1 X123.55
G1 Y28.1476
G0 Z5.0
G0 X124.75
G0 Z-1.0
G1 F100.0 Z-2.5
G1 F200.0 Y23.8
G3 X124.0 Y24.55 I-0.75 J0.0
G1 X4.0
G3 X3.25 Y23.8 I0.0 J-0.75
G1 Y31.0
G2 X4.0 Y31.75 I0.75 J0.0
G1 X124.0
G2 X124.75 Y31.0 I0.0 J-0.75
G1 Y28.1476
G0 Z5.0
G0 Y11.3086
G0 Z-0.5
G1 F100.0 Z-1.5
G1 F200.0 Y9.2
G2 X124.0 Y8.45 I-0.75 J0.0
G1 X4.0
G2 X3.25 Y9.2 I0.0 J0.75
G1 Y1.0
G3 X4.0 Y0.25 I0.75 J0.0
G1 X124.0
G3 X124.75 Y1.0 I0.0 J0.75
G1 Y9.2
G0 Z5.0
G0 Y12.4042
G0 Z-1.0
G1 F100.0 Z-2.0
G1 F200.0 Y8.7
G2 X124.0 Y7.95 I-0.75 J0.0
G1 X4.0
G2 X3.25 Y8.7 I0.0 J0.75
G1 Y1.0
G3 X4.0 Y0.25 I0.75 J0.0
G1 X124.0
G3 X124.75 Y1.0 I0.0 J0.75
G1 Y8.7
G0 Z5.0
G0 X3.25
G0 Z-1.0
G1 F100.0 Z-2.0
G1 F200.0 Y11.1783
G0 Z5.0
G0 Y8.2
G0 Z-1.0
G1 F100.0 Z-2.5
G1 F200.0 Y12.2213
G0 Z5.0
G0 X5.65 Y15.3683
G0 Z-1.0
G1 F100.0 Z-2.5
G1 F200.0 Y16.6317
G1 X40.8524 Y16.6322
G1 Y15.3678
G1 X5.65 Y15.3683
G0 Z5.0
G0 X4.45
G0 Z-1.0
G1 F100.0 Z-2.5
G1 F200.0 Y17.8313
G1 X42.0524 Y17.8318
G1 Y14.1682
G1 X4.45 Y14.1687
G1 Y15.3683
G0 Z5.0
G0 X3.25
G0 Z-1.0
G1 F100.0 Z-2.5
G1 F200.0 Y19.7787
G3 X4.0003 Y19.0287 I0.75 J0.0
G1 X43.25 Y19.029
G1 Y12.971
G1 X4.0003 Y12.9713
G3 X3.25 Y12.2213 I-0.0003 J-0.75
G1 Y15.3683
G0 Z5.0
G0 X4.45 Y15.7483
G0 Z-1.5
G1 F100.0 Z-3.0
G1 F200.0 X42.0524 Y15.7478
G1 Y16.2522
G1 X4.45 Y16.2517
G1 Y15.7483
G0 Z5.0
G0 X3.25 Y13.8009
G0 Z-1.5
G1 F100.0 Z-3.0
G1 F200.0 Y18.1991
G0 Z5.0
G0 X124.75 Y23.8
G0 Z-1.5
G1 F100.0 Z-2.5
G1 F200.0 Y17.8789
G2 X123.9978 Y17.1289 I-0.75 J0.0
G3 X103.3295 Y17.1575 I-19.9978 J-6963.6149
G1 X84.75 Y17.13
G1 Y14.869
G3 X104.6705 Y14.8425 I19.25 J6963.1894
G1 X123.9989 Y14.8711
G2 X124.75 Y14.1211 I0.0011 J-0.75
G1 Y8.2
G2 X124.0 Y7.45 I-0.75 J0.0
G1 X4.0
G2 X3.25 Y8.2 I0.0 J0.75
G1 Y1.0
G3 X4.0 Y0.25 I0.75 J0.0
G1 X124.0
G3 X124.75 Y1.0 I0.0 J0.75
G1 Y8.2
G0 Z5.0
G0 Y24.3
G0 Z-1.5
G1 F100.0 Z-3.0
G1 F200.0 Y7.7
G2 X124.0 Y6.95 I-0.75 J0.0
G1 X4.0
G2 X3.25 Y7.7 I0.0 J0.75
G1 Y1.0
G3 X4.0 Y0.25 I0.75 J0.0
G1 X124.0
G3 X124.75 Y1.0 I0.0 J0.75
G1 Y7.7
G0 Z5.0
G0 X121.75 Y28.0476
G0 Z-1.5
G1 F100.0 Z-3.0
G1 F200.0 X6.25
G1 Y28.75
G1 X121.75
G1 Y28.0476
G1 F100.0 Y27.4476
G1 F200.0 X5.65
G1 Y29.35
G1 X122.35
G1 Y27.4476
G1 X121.75
G0 Z5.0
G0 Y26.2476
G0 Z-1.5
G1 F100.0 Z-3.0
G1 F200.0 X4.45
G1 Y30.55
G1 X123.55
G1 Y26.2476
G1 X121.75
G0 Z5.0
G0 Y25.05
G0 Z-1.5
G1 F100.0 Z-3.0
G1 F200.0 X4.0
G3 X3.25 Y24.3 I0.0 J-0.75
G1 Y31.0
G2 X4.0 Y31.75 I0.75 J0.0
G1 X124.0
G2 X124.75 Y31.0 I0.0 J-0.75
G1 Y24.3
G3 X124.0 Y25.05 I-0.75 J0.0
G1 X121.75
G0 Z5.0
G0 X3.25 Y7.7
G0 Z-2.0
G1 F100.0 Z-3.0
G1 F200.0 Y13.8009
G2 X4.0003 Y14.5509 I0.75 J0.0
G1 X43.25 Y14.5506
G1 Y17.4494
G1 X4.0003 Y17.4491
G2 X3.25 Y18.1991 I-0.0003 J0.75
G1 Y24.3
G0 Z5.0
G0 X6.25 Y28.5476
G0 Z-2.0
G1 F100.0 Z-3.5
G1 F200.0 Y28.75
G1 X121.75
G1 Y28.5476
G1 X6.25
G1 F100.0 Y27.9476
G1 F200.0 X5.65
G1 Y29.35
G1 X122.35
G1 Y27.9476
G1 X6.25
G0 Z5.0
G0 Y26.7476
G0 Z-2.0
G1 F100.0 Z-3.5
G1 F200.0 X4.45
G1 Y30.55
G1 X123.55
G1 Y26.7476
G1 X6.25
G0 Z5.0
G0 Y25.55
G0 Z-2.0
G1 F100.0 Z-3.5
G1 F200.0 X4.0
G3 X3.25 Y24.8 I0.0 J-0.75
G1 Y31.0
G2 X4.0 Y31.75 I0.75 J0.0
G1 X124.0
G2 X124.75 Y31.0 I0.0 J-0.75
G1 Y24.8
G3 X124.0 Y25.55 I-0.75 J0.0
G1 X6.25
G0 Z5.0
G0 X3.25 Y7.2
G0 Z-2.0
G1 F100.0 Z-3.5
G1 F200.0 Y24.8
G0 Z5.0
G0 X124.75
G0 Z-2.5
G1 F100.0 Z-3.5
G1 F200.0 Y7.2
G2 X124.0 Y6.45 I-0.75 J0.0
G1 X4.0
G2 X3.25 Y7.2 I0.0 J0.75
G1 Y1.0
G3 X4.0 Y0.25 I0.75 J0.0
G1 X124.0
G3 X124.75 Y1.0 I0.0 J0.75
G1 Y7.2
G0 Z5.0
G0 Y25.3
G0 Z-2.5
G1 F100.0 Z-4.0
G1 F200.0 Y6.7
G2 X124.0 Y5.95 I-0.75 J0.0
G1 X4.0
G2 X3.25 Y6.7 I0.0 J0.75
G1 Y1.0
G3 X4.0 Y0.25 I0.75 J0.0
G1 X124.0
G3 X124.75 Y1.0 I0.0 J0.75
G1 Y6.7
G0 Z5.0
G0 X122.35 Y28.4476
G0 Z-2.5
G1 F100.0 Z-4.0
G1 F200.0 X5.65
G1 Y29.35
G1 X122.35
G1 Y28.4476
G0 Z5.0
G0 Y27.2476
G0 Z-2.5
G1 F100.0 Z-4.0
G1 F200.0 X4.45
G1 Y30.55
G1 X123.55
G1 Y27.2476
G1 X122.35
G0 Z5.0
G0 Y26.05
G0 Z-2.5
G1 F100.0 Z-4.0
G1 F200.0 X4.0
G3 X3.25 Y25.3 I0.0 J-0.75
G1 Y31.0
G2 X4.0 Y31.75 I0.75 J0.0
G1 X124.0
G2 X124.75 Y31.0 I0.0 J-0.75
G1 Y25.3
G3 X124.0 Y26.05 I-0.75 J0.0
G1 X122.35
G0 Z5.0
G0 X3.25 Y6.7
G0 Z-3.0
G1 F100.0 Z-4.0
G1 F200.0 Y25.3
G0 Z5.0
G0 X5.65 Y28.9476
G0 Z-3.0
G1 F100.0 Z-4.5
G1 F200.0 Y29.35
G1 X122.35
G1 Y28.9476
G1 X5.65
G0 Z5.0
G0 Y27.7476
G0 Z-3.0
G1 F100.0 Z-4.5
G1 F200.0 X4.45
G1 Y30.55
G1 X123.55
G1 Y27.7476
G1 X5.65
G0 Z5.0
G0 Y26.55
G0 Z-3.0
G1 F100.0 Z-4.5
G1 F200.0 X4.0
G3 X3.25 Y25.8 I0.0 J-0.75
G1 Y31.0
G2 X4.0 Y31.75 I0.75 J0.0
G1 X124.0
G2 X124.75 Y31.0 I0.0 J-0.75
G1 Y25.8
G3 X124.0 Y26.55 I-0.75 J0.0
G1 X5.65
G0 Z5.0
G0 X3.25 Y6.2
G0 Z-3.0
G1 F100.0 Z-4.5
G1 F200.0 Y25.8
G0 Z5.0
G0 X124.75
G0 Z-3.5
G1 F100.0 Z-4.5
G1 F200.0 Y6.2
G2 X124.0 Y5.45 I-0.75 J0.0
G1 X4.0
G2 X3.25 Y6.2 I0.0 J0.75
G1 Y1.0
G3 X4.0 Y0.25 I0.75 J0.0
G1 X124.0
G3 X124.75 Y1.0 I0.0 J0.75
G1 Y6.2
G0 Z5.0
G0 Y26.3
G0 Z-3.5
G1 F100.0 Z-5.0
G1 F200.0 Y5.7
G2 X124.0 Y4.95 I-0.75 J0.0
G1 X4.0
G2 X3.25 Y5.7 I0.0 J0.75
G1 Y1.0
G3 X4.0 Y0.25 I0.75 J0.0
G1 X124.0
G3 X124.75 Y1.0 I0.0 J0.75
G1 Y5.7
G0 Z5.0
G0 X122.95 Y28.8476
G0 Z-3.5
G1 F100.0 Z-5.0
G1 F200.0 X5.05
G1 Y29.95
G1 X122.95
G1 Y28.8476
G1 F100.0 X123.55
G1 F200.0 Y28.2476
G1 X4.45
G1 Y30.55
G1 X123.55
G1 Y28.8476
G0 Z5.0
G0 X124.75
G0 Z-3.5
G1 F100.0 Z-5.0
G1 F200.0 Y26.3
G3 X124.0 Y27.05 I-0.75 J0.0
G1 X4.0
G3 X3.25 Y26.3 I0.0 J-0.75
G1 Y31.0
G2 X4.0 Y31.75 I0.75 J0.0
G1 X124.0
G2 X124.75 Y31.0 I0.0 J-0.75
G1 Y28.8476
G0 Z5.0
G0 X3.25 Y5.7
G0 Z-4.0
G1 F100.0 Z-5.0
G1 F200.0 Y26.3
G0 Z5.0
G0 X5.05 Y29.3476
G0 Z-4.0
G1 F100.0 Z-5.5
G1 F200.0 Y29.95
G1 X122.95
G1 Y29.3476
G1 X5.05
G1 F100.0 Y28.7476
G1 F200.0 X4.45
G1 Y30.55
G1 X123.55
G1 Y28.7476
G1 X5.05
G0 Z5.0
G0 Y27.55
G0 Z-4.0
G1 F100.0 Z-5.5
G1 F200.0 X4.0
G3 X3.25 Y26.8 I0.0 J-0.75
G1 Y31.0
G2 X4.0 Y31.75 I0.75 J0.0
G1 X124.0
G2 X124.75 Y31.0 I0.0 J-0.75
G1 Y26.8
G3 X124.0 Y27.55 I-0.75 J0.0
G1 X5.05
G0 Z5.0
G0 X3.25 Y5.2
G0 Z-4.0
G1 F100.0 Z-5.5
G1 F200.0 Y26.8
G0 Z5.0
G0 X124.75
G0 Z-4.5
G1 F100.0 Z-5.5
G1 F200.0 Y5.2
G2 X124.0 Y4.45 I-0.75 J0.0
G1 X4.0
G2 X3.25 Y5.2 I0.0 J0.75
G1 Y1.0
G3 X4.0 Y0.25 I0.75 J0.0
G1 X124.0
G3 X124.75 Y1.0 I0.0 J0.75
G1 Y5.2
G0 Z5.0
G0 Y27.3
G0 Z-4.5
G1 F100.0 Z-6.0
G1 F200.0 Y4.7
G2 X124.0 Y3.95 I-0.75 J0.0
G1 X4.0
G2 X3.25 Y4.7 I0.0 J0.75
G1 Y1.0
G3 X4.0 Y0.25 I0.75 J0.0
G1 X124.0
G3 X124.75 Y1.0 I0.0 J0.75
G1 Y4.7
G0 Z5.0
G0 X122.95 Y29.8476
G0 Z-4.5
G1 F100.0 Z-6.0
G1 F200.0 X5.05
G1 Y29.95
G1 X122.95
G1 Y29.8476
G1 F100.0 Y29.2476
G1 F200.0 X4.45
G1 Y30.55
G1 X123.55
G1 Y29.2476
G1 X122.95
G0 Z5.0
G0 Y28.05
G0 Z-4.5
G1 F100.0 Z-6.0
G1 F200.0 X4.0
G3 X3.25 Y27.3 I0.0 J-0.75
G1 Y31.0
G2 X4.0 Y31.75 I0.75 J0.0
G1 X124.0
G2 X124.75 Y31.0 I0.0 J-0.75
G1 Y27.3
G3 X124.0 Y28.05 I-0.75 J0.0
G1 X122.95
G0 Z5.0
G0 X3.25 Y4.7
G0 Z-5.0
G1 F100.0 Z-6.0
G1 F200.0 Y27.3
G0 Z5.0
G0 X4.45 Y29.7476
G0 Z-5.0
G1 F100.0 Z-6.5
G1 F200.0 Y30.55
G1 X123.55
G1 Y29.7476
G1 X4.45
G0 Z5.0
G0 Y28.55
G0 Z-5.0
G1 F100.0 Z-6.5
G1 F200.0 X4.0
G3 X3.25 Y27.8 I0.0 J-0.75
G1 Y31.0
G2 X4.0 Y31.75 I0.75 J0.0
G1 X124.0
G2 X124.75 Y31.0 I0.0 J-0.75
G1 Y27.8
G3 X124.0 Y28.55 I-0.75 J0.0
G1 X4.45
G0 Z5.0
G0 X3.25 Y4.2
G0 Z-5.0
G1 F100.0 Z-6.5
G1 F200.0 Y27.8
G0 Z5.0
G0 X124.75
G0 Z-5.5
G1 F100.0 Z-6.5
G1 F200.0 Y4.2
G2 X124.0 Y3.45 I-0.75 J0.0
G1 X4.0
G2 X3.25 Y4.2 I0.0 J0.75
G1 Y1.0
G3 X4.0 Y0.25 I0.75 J0.0
G1 X124.0
G3 X124.75 Y1.0 I0.0 J0.75
G1 Y4.2
G0 Z5.0
G0 Y28.3
G0 Z-5.5
G1 F100.0 Z-7.0
G1 F200.0 Y3.7
G2 X124.0 Y2.95 I-0.75 J0.0
G1 X4.0
G2 X3.25 Y3.7 I0.0 J0.75
G1 Y1.0
G3 X4.0 Y0.25 I0.75 J0.0
G1 X124.0
G3 X124.75 Y1.0 I0.0 J0.75
G1 Y3.7
G0 Z5.0
G0 X124.15 Y1.8608
G0 Z-6.0
G1 F100.0 Z-7.5
G2 F200.0 X124.0 Y1.8524 I-0.15 J1.3392
G1 X4.0
G2 X3.85 Y1.8608 I0.0 J1.3476
G1 Y1.0
G3 X4.0 Y0.85 I0.15 J0.0
G1 X124.0
G3 X124.15 Y1.0 I0.0 J0.15
G1 Y1.8608
G0 Z5.0
G0 X123.55 Y30.2476
G0 Z-5.5
G1 F100.0 Z-7.0
G1 F200.0 X4.45
G1 Y30.55
G1 X123.55
G1 Y30.2476
G0 Z5.0
G0 Y29.05
G0 Z-5.5
G1 F100.0 Z-7.0
G1 F200.0 X4.0
G3 X3.25 Y28.3 I0.0 J-0.75
G1 Y31.0
G2 X4.0 Y31.75 I0.75 J0.0
G1 X124.0
G2 X124.75 Y31.0 I0.0 J-0.75
G1 Y28.3
G3 X124.0 Y29.05 I-0.75 J0.0
G1 X123.55
G0 Z5.0
G0 X3.25 Y3.7
G0 Z-6.0
G1 F100.0 Z-7.0
G1 F200.0 Y28.3
G0 Z5.0
G0 X3.85 Y30.1392
G0 Z-6.0
G1 F100.0 Z-7.5
G1 F200.0 Y31.0
G2 X4.0 Y31.15 I0.15 J0.0
G1 X124.0
G2 X124.15 Y31.0 I0.0 J-0.15
G1 Y30.1392
G3 X124.0 Y30.1476 I-0.15 J-1.3392
G1 X4.0
G3 X3.85 Y30.1392 I0.0 J-1.3476
G1 F100.0 X3.9165 Y29.5453
G3 F200.0 X3.25 Y28.8 I0.0835 J-0.7453
G1 Y31.0
G2 X4.0 Y31.75 I0.75 J0.0
G1 X124.0
G2 X124.75 Y31.0 I0.0 J-0.75
G1 Y28.8
G3 X124.0 Y29.55 I-0.75 J0.0
G1 X4.0
G3 X3.9165 Y29.5453 I0.0 J-0.75
G0 Z5.0
G0 X3.25 Y3.2
G0 Z-6.0
G1 F100.0 Z-7.5
G1 F200.0 Y28.8
G0 Z5.0
G0 X124.75
G0 Z-6.5
G1 F100.0 Z-7.5
G1 F200.0 Y3.2
G2 X124.0 Y2.45 I-0.75 J0.0
G1 X4.0
G2 X3.25 Y3.2 I0.0 J0.75
G1 Y1.0
G3 X4.0 Y0.25 I0.75 J0.0
G1 X124.0
G3 X124.75 Y1.0 I0.0 J0.75
G1 Y3.2
G0 Z5.0
G0 X124.15 Y1.3608
G0 Z-6.5
G1 F100.0 Z-8.0
G2 F200.0 X124.0 Y1.3524 I-0.15 J1.3392
G1 X4.0
G2 X3.85 Y1.3608 I0.0 J1.3476
G1 Y1.0
G3 X4.0 Y0.85 I0.15 J0.0
G1 X124.0
G3 X124.15 Y1.0 I0.0 J0.15
G1 Y1.3608
G0 Z5.0
G0 X124.75 Y29.3
G0 Z-6.5
G1 F100.0 Z-8.0
G1 F200.0 Y2.7
G2 X124.0 Y1.95 I-0.75 J0.0
G1 X4.0
G2 X3.25 Y2.7 I0.0 J0.75
G1 Y1.0
G3 X4.0 Y0.25 I0.75 J0.0
G1 X124.0
G3 X124.75 Y1.0 I0.0 J0.75
G1 Y2.7
G0 Z5.0
G0 X124.0283 Y0.8527
G0 Z-7.0
G1 F100.0 Z-8.5
G2 F200.0 X124.0 Y0.8524 I-0.0283 J1.3473
G1 X4.0
G2 X3.9717 Y0.8527 I0.0 J1.3476
G3 X4.0 Y0.85 I0.0283 J0.1473
G1 X124.0
G3 X124.0283 Y0.8527 I0.0 J0.15
G0 Z5.0
G0 X124.15 Y30.6392
G0 Z-6.5
G1 F100.0 Z-8.0
G3 F200.0 X124.0 Y30.6476 I-0.15 J-1.3392
G1 X4.0
G3 X3.85 Y30.6392 I0.0 J-1.3476
G1 Y31.0
G2 X4.0 Y31.15 I0.15 J0.0
G1 X124.0
G2 X124.15 Y31.0 I0.0 J-0.15
G1 Y30.6392
G1 F100.0 X124.0835 Y30.0453
G3 F200.0 X124.0 Y30.05 I-0.0835 J-0.7453
G1 X4.0
G3 X3.25 Y29.3 I0.0 J-0.75
G1 Y31.0
G2 X4.0 Y31.75 I0.75 J0.0
G1 X124.0
G2 X124.75 Y31.0 I0.0 J-0.75
G1 Y29.3
G3 X124.0835 Y30.0453 I-0.75 J0.0
G0 Z5.0
G0 X3.25 Y2.7
G0 Z-7.0
G1 F100.0 Z-8.0
G1 F200.0 Y29.3
G0 Z5.0
G0 X3.9717 Y31.1473
G0 Z-7.0
G1 F100.0 Z-8.5
G2 F200.0 X4.0 Y31.15 I0.0283 J-0.1473
G1 X124.0
G2 X124.0283 Y31.1473 I0.0 J-0.15
G3 X124.0 Y31.1476 I-0.0283 J-1.3473
G1 X4.0
G3 X3.9717 Y31.1473 I0.0 J-1.3476
G1 F100.0 X3.9842 Y30.5498
G3 F200.0 X3.25 Y29.8 I0.0158 J-0.7498
G1 Y31.0
G2 X4.0 Y31.75 I0.75 J0.0
G1 X124.0
G2 X124.75 Y31.0 I0.0 J-0.75
G1 Y29.8
G3 X124.0 Y30.55 I-0.75 J0.0
G1 X4.0
G3 X3.9842 Y30.5498 I0.0 J-0.75
G0 Z5.0
G0 X3.25 Y2.2
G0 Z-7.0
G1 F100.0 Z-8.5
G1 F200.0 Y29.8
G0 Z5.0
G0 X124.75
G0 Z-7.5
G1 F100.0 Z-8.5
G1 F200.0 Y2.2
G2 X124.0 Y1.45 I-0.75 J0.0
G1 X4.0
G2 X3.25 Y2.2 I0.0 J0.75
G1 Y1.0
G3 X4.0 Y0.25 I0.75 J0.0
G1 X124.0
G3 X124.75 Y1.0 I0.0 J0.75
G1 Y2.2
G0 Z5.0
G0 Y30.3
G0 Z-7.5
G1 F100.0 Z-9.0
G3 F200.0 X124.0 Y31.05 I-0.75 J0.0
G1 X4.0
G3 X3.25 Y30.3 I0.0 J-0.75
G1 Y31.0
G2 X4.0 Y31.75 I0.75 J0.0
G1 X124.0
G2 X124.75 Y31.0 I0.0 J-0.75
G1 Y30.3
G1 Y1.7
G2 X124.0 Y0.95 I-0.75 J0.0
G1 X4.0
G2 X3.25 Y1.7 I0.0 J0.75
G1 Y1.0
G3 X4.0 Y0.25 I0.75 J0.0
G1 X124.0
G3 X124.75 Y1.0 I0.0 J0.75
G1 Y1.7
G0 Z5.0
G0 X3.25
G0 Z-8.0
G1 F100.0 Z-9.0
G1 F200.0 Y30.3
G1 F100.0 Y30.8
G1 Z-9.5
G1 F200.0 Y31.0
G2 X4.0 Y31.75 I0.75 J0.0
G1 X124.0
G2 X124.75 Y31.0 I0.0 J-0.75
G1 Y30.8
G3 X124.0 Y31.55 I-0.75 J0.0
G1 X4.0
G3 X3.25 Y30.8 I0.0 J-0.75
G0 Z5.0
G0 Y1.2
G0 Z-8.0
G1 F100.0 Z-9.5
G1 F200.0 Y30.8
G0 Z5.0
G0 X124.75
G0 Z-8.5
G1 F100.0 Z-9.5
G1 F200.0 Y1.2
G2 X124.0 Y0.45 I-0.75 J0.0
G1 X4.0
G2 X3.25 Y1.2 I0.0 J0.75
G1 Y1.0
G3 X4.0 Y0.25 I0.75 J0.0
G1 X124.0
G3 X124.75 Y1.0 I0.0 J0.75
G1 Y1.2
G1 F100.0 Z-9.7
G1 F200.0 Y1.0
G2 X124.0 Y0.25 I-0.75 J0.0
G1 X4.0
G2 X3.25 Y1.0 I0.0 J0.75
G1 Y31.0
G2 X4.0 Y31.75 I0.75 J0.0
G1 X124.0
G2 X124.75 Y31.0 I0.0 J-0.75
G1 Y1.2
( Profile1 )
S1000
G0 Z5.0
G0 X4.0 Y0.25
G1 F100.0 Z-1.0
G1 F200.0 X124.0
G3 X124.75 Y1.0 I0.0 J0.75
G1 Y31.0
G3 X124.0 Y31.75 I-0.75 J0.0
G1 X4.0
G3 X3.25 Y31.0 I0.0 J-0.75
G1 Y1.0
G3 X4.0 Y0.25 I0.75 J0.0
G1 F100.0 Z-2.0
G1 F200.0 X124.0
G3 X124.75 Y1.0 I0.0 J0.75
G1 Y31.0
G3 X124.0 Y31.75 I-0.75 J0.0
G1 X4.0
G3 X3.25 Y31.0 I0.0 J-0.75
G1 Y1.0
G3 X4.0 Y0.25 I0.75 J0.0
G1 F100.0 Z-3.0
G1 F200.0 X124.0
G3 X124.75 Y1.0 I0.0 J0.75
G1 Y31.0
G3 X124.0 Y31.75 I-0.75 J0.0
G1 X4.0
G3 X3.25 Y31.0 I0.0 J-0.75
G1 Y1.0
G3 X4.0 Y0.25 I0.75 J0.0
G1 F100.0 Z-4.0
G1 F200.0 X124.0
G3 X124.75 Y1.0 I0.0 J0.75
G1 Y31.0
G3 X124.0 Y31.75 I-0.75 J0.0
G1 X4.0
G3 X3.25 Y31.0 I0.0 J-0.75
G1 Y1.0
G3 X4.0 Y0.25 I0.75 J0.0
G1 F100.0 Z-5.0
G1 F200.0 X124.0
G3 X124.75 Y1.0 I0.0 J0.75
G1 Y31.0
G3 X124.0 Y31.75 I-0.75 J0.0
G1 X4.0
G3 X3.25 Y31.0 I0.0 J-0.75
G1 Y1.0
G3 X4.0 Y0.25 I0.75 J0.0
G1 F100.0 Z-6.0
G1 F200.0 X124.0
G3 X124.75 Y1.0 I0.0 J0.75
G1 Y31.0
G3 X124.0 Y31.75 I-0.75 J0.0
G1 X4.0
G3 X3.25 Y31.0 I0.0 J-0.75
G1 Y1.0
G3 X4.0 Y0.25 I0.75 J0.0
G1 F100.0 Z-7.0
G1 F200.0 X124.0
G3 X124.75 Y1.0 I0.0 J0.75
G1 Y31.0
G3 X124.0 Y31.75 I-0.75 J0.0
G1 X4.0
G3 X3.25 Y31.0 I0.0 J-0.75
G1 Y1.0
G3 X4.0 Y0.25 I0.75 J0.0
G1 F100.0 Z-8.0
G1 F200.0 X124.0
G3 X124.75 Y1.0 I0.0 J0.75
G1 Y31.0
G3 X124.0 Y31.75 I-0.75 J0.0
G1 X4.0
G3 X3.25 Y31.0 I0.0 J-0.75
G1 Y1.0
G3 X4.0 Y0.25 I0.75 J0.0
G1 F100.0 Z-9.0
G1 F200.0 X124.0
G3 X124.75 Y1.0 I0.0 J0.75
G1 Y31.0
G3 X124.0 Y31.75 I-0.75 J0.0
G1 X4.0
G3 X3.25 Y31.0 I0.0 J-0.75
G1 Y1.0
G3 X4.0 Y0.25 I0.75 J0.0
G1 F100.0 Z-10.0
G1 F200.0 X124.0
G3 X124.75 Y1.0 I0.0 J0.75
G1 Y31.0
G3 X124.0 Y31.75 I-0.75 J0.0
G1 X4.0
G3 X3.25 Y31.0 I0.0 J-0.75
G1 Y1.0
G3 X4.0 Y0.25 I0.75 J0.0
G0 Z5.0
M5
M30
