( Made using CamBam - http://www.cambam.co.uk )
( espacador-quad2 3/29/2019 4:04:36 PM )
( T0 : 1.5 )
G21 G90 G64 G40
G0 Z3.0
( T0 : 1.5 )
T0 M6
( 3DSurface1 )
G17
M3 S1000
G0 X15.15 Y14.85
G0 Z1.0
G1 F100.0 Z-0.499
G1 F300.0 X14.85
G1 Y23.6524
G1 X15.15
G1 Y14.85
G0 Z3.0
G0 Y13.65
G0 Z1.0
G1 F100.0 Z-0.499
G1 F300.0 X13.65
G1 Y24.8524
G1 X16.35
G1 Y13.65
G1 X15.15
G0 Z3.0
G0 Y12.45
G0 Z1.0
G1 F100.0 Z-0.499
G1 F300.0 X12.45
G1 Y26.0524
G1 X17.55
G1 Y12.45
G1 X15.15
G0 Z3.0
G0 Y11.25
G0 Z1.0
G1 F100.0 Z-0.499
G1 F300.0 X11.25
G1 Y27.2524
G1 X18.75
G1 Y11.25
G1 X15.15
G0 Z3.0
G0 Y10.05
G0 Z1.0
G1 F100.0 Z-0.499
G1 F300.0 X10.05
G1 Y28.4524
G1 X19.95
G1 Y10.05
G1 X15.15
G0 Z3.0
G0 Y8.85
G0 Z1.0
G1 F100.0 Z-0.499
G1 F300.0 X8.85
G1 Y29.6874
G3 X9.7 Y29.6524 I0.85 J10.3126
G1 X20.3
G3 X21.15 Y29.6874 I0.0 J10.3476
G1 Y8.85
G1 X15.15
G0 Z3.0
G0 Y7.65
G0 Z1.0
G1 F100.0 Z-0.499
G1 F300.0 X7.65
G1 Y31.0851
G3 X9.7 Y30.8524 I2.05 J8.9149
G1 X20.3
G3 X22.35 Y31.0851 I0.0 J9.1476
G1 Y7.65
G1 X15.15
G0 Z3.0
G0 Y6.45
G0 Z1.0
G1 F100.0 Z-0.499
G1 F300.0 X6.45
G1 Y32.7473
G3 X9.7 Y32.0524 I3.25 J7.2527
G1 X20.3
G3 X23.55 Y32.7473 I0.0 J7.9476
G1 Y6.45
G1 X15.15
G0 Z3.0
G0 Y5.25
G0 Z1.0
G1 F100.0 Z-0.499
G1 F300.0 X5.25
G1 Y34.9278
G3 X9.7 Y33.2524 I4.45 J5.0722
G1 X20.3
G3 X24.75 Y34.9278 I0.0 J6.7476
G1 Y5.25
G1 X15.15
G0 Z3.0
G0 Y96.3476
G0 Z1.0
G1 F100.0 Z-0.499
G1 F300.0 X14.85
G1 Y105.15
G1 X15.15
G1 Y96.3476
G0 Z3.0
G0 Y95.1476
G0 Z1.0
G1 F100.0 Z-0.499
G1 F300.0 X13.65
G1 Y106.35
G1 X16.35
G1 Y95.1476
G1 X15.15
G0 Z3.0
G0 Y93.9476
G0 Z1.0
G1 F100.0 Z-0.499
G1 F300.0 X12.45
G1 Y107.55
G1 X17.55
G1 Y93.9476
G1 X15.15
G0 Z3.0
G0 Y92.7476
G0 Z1.0
G1 F100.0 Z-0.499
G1 F300.0 X11.25
G1 Y108.75
G1 X18.75
G1 Y92.7476
G1 X15.15
G0 Z3.0
G0 Y91.5476
G0 Z1.0
G1 F100.0 Z-0.499
G1 F300.0 X10.05
G1 Y109.95
G1 X19.95
G1 Y91.5476
G1 X15.15
G0 Z3.0
G0 Y90.3476
G0 Z1.0
G1 F100.0 Z-0.499
G1 F300.0 X9.7
G3 X8.85 Y90.3126 I0.0 J-10.3476
G1 Y111.15
G1 X21.15
G1 Y90.3126
G3 X20.3 Y90.3476 I-0.85 J-10.3126
G1 X15.15
G0 Z3.0
G0 Y89.1476
G0 Z1.0
G1 F100.0 Z-0.499
G1 F300.0 X9.7
G3 X7.65 Y88.9149 I0.0 J-9.1476
G1 Y112.35
G1 X22.35
G1 Y88.9149
G3 X20.3 Y89.1476 I-2.05 J-8.9149
G1 X15.15
G0 Z3.0
G0 Y87.9476
G0 Z1.0
G1 F100.0 Z-0.499
G1 F300.0 X9.7
G3 X6.45 Y87.2527 I0.0 J-7.9476
G1 Y113.55
G1 X23.55
G1 Y87.2527
G3 X20.3 Y87.9476 I-3.25 J-7.2527
G1 X15.15
G0 Z3.0
G0 Y86.7476
G0 Z1.0
G1 F100.0 Z-0.499
G1 F300.0 X9.7
G3 X5.25 Y85.0722 I0.0 J-6.7476
G1 Y114.75
G1 X24.75
G1 Y85.0722
G3 X20.3 Y86.7476 I-4.45 J-5.0722
G1 X15.15
G0 Z3.0
G0 Y81.9476
G0 Z1.0
G1 F100.0 Z-0.499
G1 F300.0 X9.7
G3 X7.7524 Y80.0 I0.0 J-1.9476
G1 Y40.0
G3 X9.7 Y38.0524 I1.9476 J0.0
G1 X20.3
G3 X22.2476 Y40.0 I0.0 J1.9476
G1 Y80.0
G3 X20.3 Y81.9476 I-1.9476 J0.0
G1 X15.15
G0 Z3.0
G0 Y80.75
G0 Z1.0
G1 F100.0 Z-0.499
G1 F300.0 X9.7
G3 X8.95 Y80.0 I0.0 J-0.75
G1 Y40.0
G3 X9.7 Y39.25 I0.75 J0.0
G1 X20.3
G3 X21.05 Y40.0 I0.0 J0.75
G1 Y80.0
G3 X20.3 Y80.75 I-0.75 J0.0
G1 X15.15
G0 Z3.0
G0 Y83.1476
G0 Z1.0
G1 F100.0 Z-0.499
G1 F300.0 X20.3
G2 X23.4476 Y80.0 I0.0 J-3.1476
G1 Y40.0
G2 X20.3 Y36.8524 I-3.1476 J0.0
G1 X9.7
G2 X6.5524 Y40.0 I0.0 J3.1476
G1 Y80.0
G2 X9.7 Y83.1476 I3.1476 J0.0
G1 X15.15
G0 Z3.0
G0 Y84.3476
G0 Z1.0
G1 F100.0 Z-0.499
G1 F300.0 X20.3
G2 X24.6476 Y80.0 I0.0 J-4.3476
G1 Y40.0
G2 X20.3 Y35.6524 I-4.3476 J0.0
G1 X9.7
G2 X5.3524 Y40.0 I0.0 J4.3476
G1 Y80.0
G2 X9.7 Y84.3476 I4.3476 J0.0
G1 X15.15
G0 Z3.0
G0 Y85.5476
G0 Z1.0
G1 F100.0 Z-0.499
G1 F300.0 X20.3
G2 X25.8476 Y80.0 I0.0 J-5.5476
G1 Y40.0
G2 X20.3 Y34.4524 I-5.5476 J0.0
G1 X9.7
G2 X4.1524 Y40.0 I0.0 J5.5476
G1 Y80.0
G2 X9.7 Y85.5476 I5.5476 J0.0
G1 X15.15
G0 Z3.0
G0 X25.95
G0 Z1.0
G1 F100.0 Z-0.499
G1 F300.0 Y4.05
G1 X4.05
G1 Y115.95
G1 X25.95
G1 Y85.5476
G0 Z3.0
G0 X27.15
G0 Z1.0
G1 F100.0 Z-0.499
G1 F300.0 Y2.85
G1 X2.85
G1 Y117.15
G1 X27.15
G1 Y85.5476
G0 Z3.0
G0 X28.35
G0 Z1.0
G1 F100.0 Z-0.499
G1 F300.0 Y1.65
G1 X1.65
G1 Y118.35
G1 X28.35
G1 Y85.5476
G0 Z3.0
G0 X29.55
G0 Z1.0
G1 F100.0 Z-0.499
G1 F300.0 Y0.45
G1 X0.45
G1 Y119.55
G1 X29.55
G1 Y85.5476
G0 Z3.0
G0 X30.75
G0 Z1.0
G1 F100.0 Z-0.499
G1 F300.0 Y0.0
G2 X30.0 Y-0.75 I-0.75 J0.0
G1 X0.0
G2 X-0.75 Y0.0 I0.0 J0.75
G1 Y120.0
G2 X0.0 Y120.75 I0.75 J0.0
G1 X30.0
G2 X30.75 Y120.0 I0.0 J-0.75
G1 Y85.5476
G0 Z3.0
G0 X15.4007 Y87.3476
G0 Z0.501
G1 F100.0 Z-0.998
G1 F300.0 X14.6018
G1 X14.6027 Y90.0919
G3 X14.5995 Y90.3094 I-7.3476 J0.0025
G3 X14.5993 Y109.9086 I-8599.4895 J9.6906
G1 X14.6007 Y114.15
G1 X15.4004
G1 X15.395 Y100.0076
G3 Y99.9924 I7.3476 J-0.0076
G1 X15.4007 Y87.3476
G1 F100.0 X16.0007 Y87.3475
G1 F300.0 X16.0006 Y86.7476
G1 X14.0016
G1 X14.0027 Y90.0921
G3 X13.9995 Y90.3008 I-6.7476 J0.0023
G3 X13.9993 Y109.9084 I-8598.8895 J9.6992
G1 X14.0009 Y114.75
G1 X16.0002
G1 X15.995 Y100.0069
G3 Y99.9931 I6.7476 J-0.0069
G1 X16.0007 Y87.3475
G0 Z3.0
G0 X17.2007 Y87.3474
G0 Z0.501
G1 F100.0 Z-0.998
G1 F300.0 X17.2003 Y85.5476
G1 X12.8012
G1 X12.8027 Y90.0925
G3 X12.7995 Y90.2822 I-5.5476 J0.0019
G3 X12.7993 Y109.9079 I-8597.6894 J9.7178
G1 X12.8013 Y115.95
G1 X17.1998
G1 X17.195 Y100.0057
G3 Y99.9943 I5.5476 J-0.0057
G1 X17.2007 Y87.3474
G0 Z3.0
G0 X18.4007 Y87.3472
G0 Z0.501
G1 F100.0 Z-0.998
G1 F300.0 X18.3999 Y84.3476
G1 X11.6008
G1 X11.6027 Y90.0929
G3 X11.5995 Y90.2613 I-4.3476 J0.0015
G3 X11.5993 Y109.9074 I-8596.4894 J9.7387
G1 X11.6017 Y117.15
G1 X18.3992
G1 X18.395 Y100.0045
G3 Y99.9955 I4.3476 J-0.0045
G1 X18.4007 Y87.3472
G0 Z3.0
G0 X19.6007 Y87.3471
G0 Z0.501
G1 F100.0 Z-0.998
G1 F300.0 X19.5994 Y83.1476
G1 X10.4004
G1 X10.4027 Y90.0933
G3 X10.3995 Y90.237 I-3.1476 J0.0011
G3 X10.3993 Y109.9069 I-8595.2894 J9.763
G1 X10.4021 Y118.35
G1 X19.5985
G1 X19.595 Y100.0032
G3 Y99.9968 I3.1476 J-0.0032
G1 X19.6007 Y87.3471
G0 Z3.0
G0 X20.8007 Y87.3469
G0 Z0.501
G1 F100.0 Z-0.998
G1 F300.0 X20.7987 Y81.9476
G1 X9.2
G1 X9.2027 Y90.0937
G3 X9.1994 Y90.2071 I-1.9476 J0.0007
G3 X9.1993 Y109.9064 I-8594.0894 J9.7929
G1 X9.2025 Y119.55
G1 X20.7977
G1 X20.795 Y100.002
G3 Y99.998 I1.9476 J-0.002
G1 X20.8007 Y87.3469
G0 Z3.0
G0 X21.9983 Y87.3468
G0 Z0.501
G1 F100.0 Z-0.998
G1 F300.0 X21.9955 Y80.75
G1 X8.0019
G1 X8.0051 Y90.0941
G3 X8.0018 Y90.1648 I-0.75 J0.0003
G3 X8.0017 Y109.906 I-8592.8917 J9.8352
G1 X8.0051 Y119.9997
G3 X7.2551 Y120.75 I-0.75 J0.0003
G1 X22.7449
G3 X21.9949 Y119.9994 I0.0 J-0.75
G1 X21.9926 Y100.0008
G3 Y99.9992 I0.75 J-0.0008
G1 X21.9983 Y87.3468
G0 Z3.0
G0 X22.7449 Y120.75
G0 Z0.002
G1 F100.0 Z-0.998
G1 F300.0 X30.0
G2 X30.75 Y120.0 I0.0 J-0.75
G1 Y0.0
G2 X30.0 Y-0.75 I-0.75 J0.0
G1 X22.7449
G0 Z3.0
G0 X15.4004 Y5.85
G0 Z0.501
G1 F100.0 Z-0.998
G1 F300.0 X14.5996
G1 X14.605 Y19.9924
G3 Y20.0076 I-7.3476 J0.0076
G1 X14.5993 Y32.6524
G1 X15.4007
G1 X15.395 Y20.0076
G3 Y19.9924 I7.3476 J-0.0076
G1 X15.4004 Y5.85
G1 F100.0 Y5.25
G1 F300.0 X13.9998
G1 X14.005 Y19.9931
G3 Y20.0069 I-6.7476 J0.0069
G1 X13.9994 Y33.2524
G1 X16.0006
G1 X15.995 Y20.0069
G3 Y19.9931 I6.7476 J-0.0069
G1 X16.0002 Y5.25
G1 X15.4004
G0 Z3.0
G0 Y4.05
G0 Z0.501
G1 F100.0 Z-0.998
G1 F300.0 X12.8002
G1 X12.805 Y19.9943
G3 Y20.0057 I-5.5476 J0.0057
G1 X12.7997 Y34.4524
G1 X17.2003
G1 X17.195 Y20.0057
G3 Y19.9943 I5.5476 J-0.0057
G1 X17.1998 Y4.05
G1 X15.4004
G0 Z3.0
G0 Y2.85
G0 Z0.501
G1 F100.0 Z-0.998
G1 F300.0 X11.6008
G1 X11.605 Y19.9955
G3 Y20.0045 I-4.3476 J0.0045
G1 X11.6001 Y35.6524
G1 X18.3999
G1 X18.395 Y20.0045
G3 Y19.9955 I4.3476 J-0.0045
G1 X18.3992 Y2.85
G1 X15.4004
G0 Z3.0
G0 Y1.65
G0 Z0.501
G1 F100.0 Z-0.998
G1 F300.0 X10.4015
G1 X10.405 Y19.9968
G3 Y20.0032 I-3.1476 J0.0032
G1 X10.4006 Y36.8524
G1 X19.5994
G1 X19.595 Y20.0032
G3 Y19.9968 I3.1476 J-0.0032
G1 X19.5985 Y1.65
G1 X15.4004
G0 Z3.0
G0 Y0.45
G0 Z0.501
G1 F100.0 Z-0.998
G1 F300.0 X9.2023
G1 X9.205 Y19.998
G3 Y20.002 I-1.9476 J0.002
G1 X9.2013 Y38.0524
G1 X20.7987
G1 X20.795 Y20.002
G3 Y19.998 I1.9476 J-0.002
G1 X20.7977 Y0.45
G1 X15.4004
G0 Z3.0
G0 Y-0.75
G0 Z0.501
G1 F100.0 Z-0.998
G1 F300.0 X7.2551
G3 X8.0051 Y0.0006 I0.0 J0.75
G1 X8.0074 Y19.9992
G3 Y20.0008 I-0.75 J0.0008
G1 X8.0045 Y39.25
G1 X21.9955
G1 X21.9926 Y20.0008
G3 Y19.9992 I0.75 J-0.0008
G1 X21.9949 Y0.0006
G3 X22.7449 Y-0.75 I0.75 J-0.0006
G1 X15.4004
G0 Z3.0
G0 X7.2551
G0 Z0.002
G1 F100.0 Z-0.998
G1 F300.0 X0.0
G2 X-0.75 Y0.0 I0.0 J0.75
G1 Y120.0
G2 X0.0 Y120.75 I0.75 J0.0
G1 X7.2551
G0 Z3.0
G0 X14.415 Y114.75
G0 Z0.002
G1 F100.0 Z-1.497
G1 F300.0 X15.585
G2 X15.5822 Y100.0071 I-8514.7195 J-5.7754
G3 Y99.9929 I6.7476 J-0.0071
G2 X15.5858 Y86.7476 I-8514.7168 J-8.9675
G1 X14.4142
G2 X14.4178 Y99.9929 I8514.7453 J4.278
G3 Y100.0071 I-6.7476 J0.0071
G2 X14.415 Y114.75 I8514.7416 J8.9673
G0 Z3.0
G0 X13.215 Y114.7508
G0 Z0.002
G1 F100.0 Z-1.497
G2 F300.0 X13.2159 Y115.95 I8515.9444 J-5.7764
G1 X16.7841
G2 X16.7822 Y100.0058 I-8515.9186 J-6.9754
G3 Y99.9942 I5.5476 J-0.0058
G2 X16.7851 Y85.5476 I-8515.9168 J-8.9687
G1 X13.2149
G2 X13.2178 Y99.9942 I8515.9446 J5.478
G3 Y100.0058 I-5.5476 J0.0058
G2 X13.215 Y114.7508 I8515.9416 J8.9685
G0 Z3.0
G0 X12.015 Y114.7516
G0 Z0.002
G1 F100.0 Z-1.497
G2 F300.0 X12.017 Y117.15 I8517.1444 J-5.7772
G1 X17.983
G2 X17.9822 Y100.0046 I-8517.1176 J-8.1754
G3 Y99.9954 I4.3476 J-0.0046
G2 X17.9843 Y84.3476 I-8517.1168 J-8.97
G1 X12.0157
G2 X12.0178 Y99.9954 I8517.1437 J6.678
G3 Y100.0046 I-4.3476 J0.0046
G2 X12.015 Y114.7516 I8517.1416 J8.9698
G0 Z3.0
G0 X10.815 Y114.7524
G0 Z0.002
G1 F100.0 Z-1.497
G2 F300.0 X10.8182 Y118.35 I8518.3444 J-5.7781
G1 X19.1818
G2 X19.1822 Y100.0033 I-8518.3163 J-9.3754
G3 Y99.9967 I3.1476 J-0.0033
G2 X19.1833 Y83.1476 I-8518.3168 J-8.9713
G1 X10.8167
G2 X10.8178 Y99.9967 I8518.3427 J7.878
G3 Y100.0033 I-3.1476 J0.0033
G2 X10.815 Y114.7524 I8518.3416 J8.9711
G0 Z3.0
G0 X9.615 Y114.7533
G0 Z0.002
G1 F100.0 Z-1.497
G2 F300.0 X9.6197 Y119.55 I8519.5444 J-5.7789
G1 X20.3803
G2 X20.3822 Y100.0021 I-8519.5149 J-10.5754
G3 Y99.9979 I1.9476 J-0.0021
G2 X20.3821 Y81.9476 I-8519.5168 J-8.9725
G1 X9.6179
G2 X9.6178 Y99.9979 I8519.5415 J9.078
G3 Y100.0021 I-1.9476 J0.0021
G2 X9.615 Y114.7533 I8519.5416 J8.9723
G0 Z3.0
G0 X8.4174 Y114.7541
G0 Z0.002
G1 F100.0 Z-1.497
G2 F300.0 X8.4226 Y119.999 I8520.742 J-5.7797
G3 X7.6726 Y120.75 I-0.75 J0.001
G1 X22.3274
G3 X21.5774 Y119.999 I0.0 J-0.75
G2 X21.5798 Y100.0008 I-8520.7119 J-11.0245
G3 Y99.9992 I0.75 J-0.0008
G2 X21.5783 Y80.75 I-8520.7144 J-8.9738
G1 X8.4217
G2 X8.4202 Y99.9992 I8520.7377 J10.2756
G3 Y100.0008 I-0.75 J0.0008
G2 X8.4174 Y114.7541 I8520.7392 J8.9736
G0 Z3.0
G0 X22.3274 Y120.75
G1 F100.0 Z-1.497
G1 F300.0 X30.0
G2 X30.75 Y120.0 I0.0 J-0.75
G1 Y0.0
G2 X30.0 Y-0.75 I-0.75 J0.0
G1 X22.3274
G0 Z3.0
G0 X15.585 Y5.25
G0 Z0.002
G1 F100.0 Z-1.497
G1 F300.0 X14.415
G2 X14.4178 Y19.9929 I8514.7444 J5.7756
G3 Y20.0071 I-6.7476 J0.0071
G2 X14.4142 Y33.2524 I8514.7416 J8.9673
G1 X15.5858
G2 X15.5822 Y20.0071 I-8514.7204 J-4.2778
G3 Y19.9929 I6.7476 J-0.0071
G2 X15.585 Y5.25 I-8514.7168 J-8.9675
G0 Z3.0
G0 X16.785 Y5.2492
G0 Z0.002
G1 F100.0 Z-1.497
G2 F300.0 X16.7841 Y4.05 I-8515.9195 J5.7762
G1 X13.2159
G2 X13.2178 Y19.9942 I8515.9435 J6.9756
G3 Y20.0058 I-5.5476 J0.0058
G2 X13.2149 Y34.4524 I8515.9416 J8.9685
G1 X16.7851
G2 X16.7822 Y20.0058 I-8515.9197 J-5.4778
G3 Y19.9942 I5.5476 J-0.0058
G2 X16.785 Y5.2492 I-8515.9168 J-8.9687
G0 Z3.0
G0 X17.985 Y5.2484
G0 Z0.002
G1 F100.0 Z-1.497
G2 F300.0 X17.983 Y2.85 I-8517.1195 J5.7771
G1 X12.017
G2 X12.0178 Y19.9954 I8517.1424 J8.1756
G3 Y20.0046 I-4.3476 J0.0046
G2 X12.0157 Y35.6524 I8517.1416 J8.9698
G1 X17.9843
G2 X17.9822 Y20.0046 I-8517.1189 J-6.6778
G3 Y19.9954 I4.3476 J-0.0046
G2 X17.985 Y5.2484 I-8517.1168 J-8.97
G0 Z3.0
G0 X19.185 Y5.2476
G0 Z0.002
G1 F100.0 Z-1.497
G2 F300.0 X19.1818 Y1.65 I-8518.3195 J5.7779
G1 X10.8182
G2 X10.8178 Y19.9967 I8518.3412 J9.3756
G3 Y20.0033 I-3.1476 J0.0033
G2 X10.8167 Y36.8524 I8518.3416 J8.9711
G1 X19.1833
G2 X19.1822 Y20.0033 I-8518.3178 J-7.8778
G3 Y19.9967 I3.1476 J-0.0033
G2 X19.185 Y5.2476 I-8518.3168 J-8.9713
G0 Z3.0
G0 X20.385 Y5.2467
G0 Z0.002
G1 F100.0 Z-1.497
G2 F300.0 X20.3803 Y0.45 I-8519.5195 J5.7787
G1 X9.6197
G2 X9.6178 Y19.9979 I8519.5398 J10.5756
G3 Y20.0021 I-1.9476 J0.0021
G2 X9.6179 Y38.0524 I8519.5416 J8.9723
G1 X20.3821
G2 X20.3822 Y20.0021 I-8519.5166 J-9.0778
G3 Y19.9979 I1.9476 J-0.0021
G2 X20.385 Y5.2467 I-8519.5168 J-8.9725
G0 Z3.0
G0 X21.5826 Y5.2459
G0 Z0.002
G1 F100.0 Z-1.497
G2 F300.0 X21.5774 Y0.001 I-8520.7171 J5.7795
G3 X22.3274 Y-0.75 I0.75 J-0.001
G1 X7.6726
G3 X8.4226 Y0.001 I0.0 J0.75
G2 X8.4202 Y19.9992 I8520.7368 J11.0246
G3 Y20.0008 I-0.75 J0.0008
G2 X8.4217 Y39.25 I8520.7392 J8.9736
G1 X21.5783
G2 X21.5798 Y20.0008 I-8520.7129 J-10.2754
G3 Y19.9992 I0.75 J-0.0008
G2 X21.5826 Y5.2459 I-8520.7144 J-8.9738
G0 Z3.0
G0 X7.6726 Y-0.75
G1 F100.0 Z-1.497
G1 F300.0 X0.0
G2 X-0.75 Y0.0 I0.0 J0.75
G1 Y120.0
G2 X0.0 Y120.75 I0.75 J0.0
G1 X7.6726
G0 Z3.0
G0 X14.9273 Y114.75
G0 Z-0.497
G1 F100.0 Z-1.996
G1 F300.0 X15.0727
G2 X15.0623 Y100.012 I-6860.7341 J-2.5197
G3 Y99.988 I6.7476 J-0.012
G2 X15.0731 Y86.7476 I-6860.7237 J-12.2183
G1 X14.9269
G2 X14.9377 Y99.988 I6860.8244 J1.0223
G3 Y100.012 I-6.7476 J0.012
G2 X14.9273 Y114.75 I6860.8136 J12.2181
G0 Z3.0
G0 Y115.95
G0 Z-0.497
G1 F100.0 Z-1.996
G1 F300.0 X16.2722
G2 X16.2623 Y100.0099 I-6861.9336 J-3.7197
G3 Y99.9901 I5.5476 J-0.0099
G2 X16.2729 Y85.5476 I-6861.9237 J-12.2204
G1 X13.7271
G2 X13.7377 Y99.9901 I6862.0241 J2.2223
G3 Y100.0099 I-5.5476 J0.0099
G2 X13.7278 Y115.95 I6862.0136 J12.2202
G1 X14.9273
G0 Z3.0
G0 Y117.15
G0 Z-0.497
G1 F100.0 Z-1.996
G1 F300.0 X17.4714
G2 X17.4623 Y100.0077 I-6863.1328 J-4.9197
G3 Y99.9923 I4.3476 J-0.0077
G2 X17.4724 Y84.3476 I-6863.1237 J-12.2225
G1 X12.5276
G2 X12.5377 Y99.9923 I6863.2236 J3.4223
G3 Y100.0077 I-4.3476 J0.0077
G2 X12.5286 Y117.15 I6863.2136 J12.2223
G1 X14.9273
G0 Z3.0
G0 Y118.35
G0 Z-0.497
G1 F100.0 Z-1.996
G1 F300.0 X18.6705
G2 X18.6623 Y100.0056 I-6864.3318 J-6.1197
G3 Y99.9944 I3.1476 J-0.0056
G2 X18.6717 Y83.1476 I-6864.3237 J-12.2247
G1 X11.3283
G2 X11.3377 Y99.9944 I6864.4229 J4.6223
G3 Y100.0056 I-3.1476 J0.0056
G2 X11.3295 Y118.35 I6864.4136 J12.2245
G1 X14.9273
G0 Z3.0
G0 Y119.55
G0 Z-0.497
G1 F100.0 Z-1.996
G1 F300.0 X19.8693
G2 X19.8623 Y100.0035 I-6865.5307 J-7.3197
G3 Y99.9965 I1.9476 J-0.0035
G2 X19.8707 Y81.9476 I-6865.5237 J-12.2268
G1 X10.1293
G2 X10.1377 Y99.9965 I6865.622 J5.8223
G3 Y100.0035 I-1.9476 J0.0035
G2 X10.1307 Y119.55 I6865.6136 J12.2266
G1 X14.9273
G0 Z3.0
G0 Y120.75
G0 Z-0.497
G1 F100.0 Z-1.996
G1 F300.0 X21.8164
G3 X21.0664 Y119.9992 I0.0 J-0.75
G2 X21.0599 Y100.0013 I-6866.7278 J-7.7689
G3 Y99.9987 I0.75 J-0.0013
G2 X21.0672 Y80.75 I-6866.7213 J-12.2289
G1 X8.9328
G2 X8.9401 Y99.9987 I6866.8185 J7.0199
G3 Y100.0013 I-0.75 J0.0013
G2 X8.9336 Y119.9992 I6866.8112 J12.2287
G3 X8.1836 Y120.75 I-0.75 J0.0008
G1 X14.9273
G0 Z3.0
G0 X21.8164
G0 Z-0.996
G1 F100.0 Z-1.996
G1 F300.0 X30.0
G2 X30.75 Y120.0 I0.0 J-0.75
G1 Y0.0
G2 X30.0 Y-0.75 I-0.75 J0.0
G1 X21.8164
G0 Z3.0
G0 X15.0727 Y5.25
G0 Z-0.497
G1 F100.0 Z-1.996
G1 F300.0 X14.9273
G2 X14.9377 Y19.988 I6860.824 J2.5199
G3 Y20.012 I-6.7476 J0.012
G2 X14.9269 Y33.2524 I6860.8136 J12.2181
G1 X15.0731
G2 X15.0623 Y20.012 I-6860.7345 J-1.0221
G3 Y19.988 I6.7476 J-0.012
G2 X15.0727 Y5.25 I-6860.7237 J-12.2183
G0 Z3.0
G0 X16.2727 Y5.2496
G0 Z-0.497
G1 F100.0 Z-1.996
G2 F300.0 X16.2722 Y4.05 I-6861.9341 J2.5202
G1 X13.7278
G2 X13.7377 Y19.9901 I6862.0234 J3.7199
G3 Y20.0099 I-5.5476 J0.0099
G2 X13.7271 Y34.4524 I6862.0136 J12.2202
G1 X16.2729
G2 X16.2623 Y20.0099 I-6861.9342 J-2.2221
G3 Y19.9901 I5.5476 J-0.0099
G2 X16.2727 Y5.2496 I-6861.9237 J-12.2204
G0 Z3.0
G0 X17.4727 Y5.2491
G0 Z-0.497
G1 F100.0 Z-1.996
G2 F300.0 X17.4714 Y2.85 I-6863.1341 J2.5206
G1 X12.5286
G2 X12.5377 Y19.9923 I6863.2227 J4.9199
G3 Y20.0077 I-4.3476 J0.0077
G2 X12.5276 Y35.6524 I6863.2136 J12.2223
G1 X17.4724
G2 X17.4623 Y20.0077 I-6863.1337 J-3.4221
G3 Y19.9923 I4.3476 J-0.0077
G2 X17.4727 Y5.2491 I-6863.1237 J-12.2225
G0 Z3.0
G0 X18.6727 Y5.2487
G0 Z-0.497
G1 F100.0 Z-1.996
G2 F300.0 X18.6705 Y1.65 I-6864.3341 J2.521
G1 X11.3295
G2 X11.3377 Y19.9944 I6864.4217 J6.1199
G3 Y20.0056 I-3.1476 J0.0056
G2 X11.3283 Y36.8524 I6864.4136 J12.2245
G1 X18.6717
G2 X18.6623 Y20.0056 I-6864.333 J-4.6221
G3 Y19.9944 I3.1476 J-0.0056
G2 X18.6727 Y5.2487 I-6864.3237 J-12.2247
G0 Z3.0
G0 X19.8727 Y5.2482
G0 Z-0.497
G1 F100.0 Z-1.996
G2 F300.0 X19.8693 Y0.45 I-6865.5341 J2.5215
G1 X10.1307
G2 X10.1377 Y19.9965 I6865.6205 J7.3199
G3 Y20.0035 I-1.9476 J0.0035
G2 X10.1293 Y38.0524 I6865.6136 J12.2266
G1 X19.8707
G2 X19.8623 Y20.0035 I-6865.5321 J-5.8221
G3 Y19.9965 I1.9476 J-0.0035
G2 X19.8727 Y5.2482 I-6865.5237 J-12.2268
G0 Z3.0
G0 X21.0703 Y5.2478
G0 Z-0.497
G1 F100.0 Z-1.996
G2 F300.0 X21.0664 Y0.0008 I-6866.7317 J2.5219
G3 X21.8164 Y-0.75 I0.75 J-0.0008
G1 X8.1836
G3 X8.9336 Y0.0008 I0.0 J0.75
G2 X8.9401 Y19.9987 I6866.8176 J7.7691
G3 Y20.0013 I-0.75 J0.0013
G2 X8.9328 Y39.25 I6866.8112 J12.2287
G1 X21.0672
G2 X21.0599 Y20.0013 I-6866.7286 J-7.0197
G3 Y19.9987 I0.75 J-0.0013
G2 X21.0703 Y5.2478 I-6866.7213 J-12.2289
G0 Z3.0
G0 X8.1836 Y-0.75
G0 Z-0.996
G1 F100.0 Z-1.996
G1 F300.0 X0.0
G2 X-0.75 Y0.0 I0.0 J0.75
G1 Y120.0
G2 X0.0 Y120.75 I0.75 J0.0
G1 X8.1836
G0 Z3.0
G0 X14.9043 Y115.35
G0 Z-0.996
G1 F100.0 Z-2.495
G1 F300.0 X15.0957
G1 X15.1067 Y103.1244
G3 Y96.8756 I1297.8121 J-3.1244
G1 X15.097 Y86.1476
G1 X14.903
G1 X14.8933 Y96.8756
G3 Y103.1244 I-1297.8345 J3.1244
G1 X14.9043 Y115.35
G1 F100.0 X14.3043 Y115.3505
G1 F300.0 X14.3049 Y115.95
G1 X15.6951
G1 X15.7067 Y103.124
G3 Y96.876 I1297.2121 J-3.124
G1 X15.6965 Y85.5476
G1 X14.3035
G1 X14.2933 Y96.876
G3 Y103.124 I-1297.2344 J3.124
G1 X14.3043 Y115.3505
G0 Z3.0
G0 X13.1043 Y115.3516
G0 Z-0.996
G1 F100.0 Z-2.495
G1 F300.0 X13.106 Y117.15
G1 X16.894
G1 X16.9067 Y103.1231
G3 Y96.8769 I1296.0121 J-3.1231
G1 X16.8954 Y84.3476
G1 X13.1046
G1 X13.0933 Y96.8769
G3 Y103.1231 I-1296.0344 J3.1231
G1 X13.1043 Y115.3516
G0 Z3.0
G0 X11.9043 Y115.3527
G0 Z-0.996
G1 F100.0 Z-2.495
G1 F300.0 X11.907 Y118.35
G1 X18.093
G1 X18.1067 Y103.1221
G3 Y96.8779 I1294.8121 J-3.1221
G1 X18.0943 Y83.1476
G1 X11.9057
G1 X11.8933 Y96.8779
G3 Y103.1221 I-1294.8344 J3.1221
G1 X11.9043 Y115.3527
G0 Z3.0
G0 X10.7043 Y115.3538
G0 Z-0.996
G1 F100.0 Z-2.495
G1 F300.0 X10.7081 Y119.55
G1 X19.2919
G1 X19.3067 Y103.1212
G3 Y96.8788 I1293.6121 J-3.1212
G1 X19.2932 Y81.9476
G1 X10.7068
G1 X10.6933 Y96.8788
G3 Y103.1212 I-1293.6344 J3.1212
G1 X10.7043 Y115.3538
G0 Z3.0
G0 X9.5067 Y115.3549
G0 Z-0.996
G1 F100.0 Z-2.495
G1 F300.0 X9.5109 Y119.9993
G3 X8.7609 Y120.75 I-0.75 J0.0007
G1 X21.2391
G3 X20.4891 Y119.9993 I0.0 J-0.75
G1 X20.5043 Y103.1203
G3 Y96.8797 I1292.4145 J-3.1203
G1 X20.4897 Y80.75
G1 X9.5103
G1 X9.4957 Y96.8797
G3 Y103.1203 I-1292.4368 J3.1203
G1 X9.5067 Y115.3549
G0 Z3.0
G0 X21.2391 Y120.75
G0 Z-1.495
G1 F100.0 Z-2.495
G1 F300.0 X30.0
G2 X30.75 Y120.0 I0.0 J-0.75
G1 Y0.0
G2 X30.0 Y-0.75 I-0.75 J0.0
G1 X21.2391
G0 Z3.0
G0 X15.0957 Y4.65
G0 Z-0.996
G1 F100.0 Z-2.495
G1 F300.0 X14.9043
G1 X14.8933 Y16.8756
G3 Y23.1244 I-1297.8345 J3.1244
G1 X14.903 Y33.8524
G1 X15.097
G1 X15.1067 Y23.1244
G3 Y16.8756 I1297.8121 J-3.1244
G1 X15.0957 Y4.65
G1 F100.0 X15.6957 Y4.6495
G1 F300.0 X15.6951 Y4.05
G1 X14.3049
G1 X14.2933 Y16.876
G3 Y23.124 I-1297.2344 J3.124
G1 X14.3035 Y34.4524
G1 X15.6965
G1 X15.7067 Y23.124
G3 Y16.876 I1297.2121 J-3.124
G1 X15.6957 Y4.6495
G0 Z3.0
G0 X16.8957 Y4.6484
G0 Z-0.996
G1 F100.0 Z-2.495
G1 F300.0 X16.894 Y2.85
G1 X13.106
G1 X13.0933 Y16.8769
G3 Y23.1231 I-1296.0344 J3.1231
G1 X13.1046 Y35.6524
G1 X16.8954
G1 X16.9067 Y23.1231
G3 Y16.8769 I1296.0121 J-3.1231
G1 X16.8957 Y4.6484
G0 Z3.0
G0 X18.0957 Y4.6473
G0 Z-0.996
G1 F100.0 Z-2.495
G1 F300.0 X18.093 Y1.65
G1 X11.907
G1 X11.8933 Y16.8779
G3 Y23.1221 I-1294.8344 J3.1221
G1 X11.9057 Y36.8524
G1 X18.0943
G1 X18.1067 Y23.1221
G3 Y16.8779 I1294.8121 J-3.1221
G1 X18.0957 Y4.6473
G0 Z3.0
G0 X19.2957 Y4.6462
G0 Z-0.996
G1 F100.0 Z-2.495
G1 F300.0 X19.2919 Y0.45
G1 X10.7081
G1 X10.6933 Y16.8788
G3 Y23.1212 I-1293.6344 J3.1212
G1 X10.7068 Y38.0524
G1 X19.2932
G1 X19.3067 Y23.1212
G3 Y16.8788 I1293.6121 J-3.1212
G1 X19.2957 Y4.6462
G0 Z3.0
G0 X20.4933 Y4.6451
G0 Z-0.996
G1 F100.0 Z-2.495
G1 F300.0 X20.4891 Y0.0007
G3 X21.2391 Y-0.75 I0.75 J-0.0007
G1 X8.7609
G3 X9.5109 Y0.0007 I0.0 J0.75
G1 X9.4957 Y16.8797
G3 Y23.1203 I-1292.4368 J3.1203
G1 X9.5103 Y39.25
G1 X20.4897
G1 X20.5043 Y23.1203
G3 Y16.8797 I1292.4145 J-3.1203
G1 X20.4933 Y4.6451
G0 Z3.0
G0 X8.7609 Y-0.75
G0 Z-1.495
G1 F100.0 Z-2.495
G1 F300.0 X0.0
G2 X-0.75 Y0.0 I0.0 J0.75
G1 Y120.0
G2 X0.0 Y120.75 I0.75 J0.0
G1 X8.7609
G0 Z3.0
G0 X14.9646 Y115.95
G0 Z-1.495
G1 F100.0 Z-2.994
G1 F300.0 X15.0354
G1 X15.0161 Y100.0067
G3 Y99.9933 I5.5476 J-0.0067
G1 X15.0336 Y85.5476
G1 X14.9664
G1 X14.9839 Y99.9933
G3 Y100.0067 I-5.5476 J0.0067
G1 X14.9646 Y115.95
G0 Z3.0
G0 Y117.15
G0 Z-1.495
G1 F100.0 Z-2.994
G1 F300.0 X16.2368
G1 X16.2161 Y100.0053
G3 Y99.9947 I4.3476 J-0.0053
G1 X16.235 Y84.3476
G1 X13.765
G1 X13.7839 Y99.9947
G3 Y100.0053 I-4.3476 J0.0053
G1 X13.7632 Y117.15
G1 X14.9646
G0 Z3.0
G0 Y118.35
G0 Z-1.495
G1 F100.0 Z-2.994
G1 F300.0 X17.4383
G1 X17.4161 Y100.0038
G3 Y99.9962 I3.1476 J-0.0038
G1 X17.4365 Y83.1476
G1 X12.5635
G1 X12.5839 Y99.9962
G3 Y100.0038 I-3.1476 J0.0038
G1 X12.5617 Y118.35
G1 X14.9646
G0 Z3.0
G0 Y119.55
G0 Z-1.495
G1 F100.0 Z-2.994
G1 F300.0 X18.6369
G1 X18.6384 Y118.4259
G1 X18.6161 Y100.0024
G3 Y99.9976 I1.9476 J-0.0024
G1 X18.6379 Y81.9476
G1 X11.3621
G1 X11.3839 Y99.9976
G3 Y100.0024 I-1.9476 J0.0024
G1 X11.3616 Y118.4259
G1 X11.3631 Y119.55
G1 X14.9646
G0 Z3.0
G0 Y120.75
G0 Z-1.495
G1 F100.0 Z-2.994
G1 F300.0 X20.5839
G3 X19.8339 Y119.999 I0.0 J-0.75
G1 X19.836 Y118.426
G1 X19.8137 Y100.0009
G3 Y99.9991 I0.75 J-0.0009
G1 X19.836 Y81.574
G1 X19.8349 Y80.75
G1 X10.165
G1 X10.1661 Y81.573
G3 X10.1641 Y81.6283 I-0.75 J0.001
G1 X10.1863 Y99.9991
G3 Y100.0009 I-0.75 J0.0009
G1 X10.164 Y118.426
G1 X10.1661 Y119.999
G3 X9.4161 Y120.75 I-0.75 J0.001
G1 X14.9646
G0 Z3.0
G0 Y117.15
G0 Z-1.994
G1 F100.0 Z-3.493
G1 F300.0 X15.3991
G1 X15.4009 Y115.7216
G1 X15.3745 Y100.0073
G3 Y99.9927 I4.3476 J-0.0073
G1 X15.4008 Y84.3476
G1 X14.5992
G1 X14.6255 Y99.9927
G3 Y100.0073 I-4.3476 J0.0073
G1 X14.5991 Y115.7216
G1 X14.6009 Y117.15
G1 X14.9646
G0 Z3.0
G0 Y118.35
G0 Z-1.994
G1 F100.0 Z-3.493
G1 F300.0 X16.5975
G1 X16.6009 Y115.7214
G1 X16.5745 Y100.0053
G3 Y99.9947 I3.1476 J-0.0053
G1 X16.6009 Y84.2786
G1 X16.5995 Y83.1476
G1 X13.4005
G1 X13.3991 Y84.2786
G1 X13.4255 Y99.9947
G3 Y100.0053 I-3.1476 J0.0053
G1 X13.3991 Y115.7214
G1 X13.4025 Y118.35
G1 X14.9646
G0 Z3.0
G0 Y119.55
G0 Z-1.994
G1 F100.0 Z-3.493
G1 F300.0 X12.204
G1 X12.1991 Y115.7212
G1 X12.2255 Y100.0033
G2 Y99.9967 I-1.9476 J-0.0033
G1 X12.1991 Y84.2788
G1 X12.2021 Y81.9476
G1 X17.7979
G1 X17.8009 Y84.2788
G1 X17.7745 Y99.9967
G2 Y100.0033 I1.9476 J0.0033
G1 X17.8009 Y115.7212
G1 X17.796 Y119.55
G1 X14.9646
G0 Z3.0
G0 Y118.35
G0 Z-2.493
G1 F100.0 Z-3.992
G1 F300.0 X15.5253
G1 X15.5312 Y115.1801
G1 X15.4946 Y100.0076
G3 Y99.9924 I3.1476 J-0.0076
G1 X15.5312 Y84.8199
G1 X15.5281 Y83.1476
G1 X14.4719
G1 X14.4688 Y84.8199
G1 X14.5054 Y99.9924
G3 Y100.0076 I-3.1476 J0.0076
G1 X14.4688 Y115.1801
G1 X14.4747 Y118.35
G1 X14.9646
G0 Z3.0
G0 Y119.55
G0 Z-2.493
G1 F100.0 Z-3.992
G1 F300.0 X13.2769
G1 X13.2688 Y115.1798
G1 X13.3054 Y100.0047
G2 Y99.9953 I-1.9476 J-0.0047
G1 X13.2688 Y84.8202
G1 X13.2741 Y81.9476
G1 X16.7259
G1 X16.7312 Y84.8202
G1 X16.6946 Y99.9953
G2 Y100.0047 I1.9476 J0.0047
G1 X16.7312 Y115.1798
G1 X16.7231 Y119.55
G1 X14.9646
G1 F100.0 X14.9919 Y119.5499
G1 Z-4.491
G1 F300.0 X14.9266 Y106.0816
G1 X14.9496 Y100.0074
G2 Y99.9926 I-1.9476 J-0.0074
G1 X14.9266 Y93.9184
G1 X14.9846 Y81.9476
G1 X15.0154
G1 X15.0734 Y93.9184
G1 X15.0504 Y99.9926
G2 Y100.0074 I1.9476 J0.0074
G1 X15.0734 Y106.0816
G1 X15.0081 Y119.55
G1 X14.9919
G1 Y119.5499
G0 Z3.0
G0 X20.5839 Y120.75
G0 Z-1.994
G1 F100.0 Z-2.994
G1 F300.0 X30.0
G2 X30.75 Y120.0 I0.0 J-0.75
G1 Y0.0
G2 X30.0 Y-0.75 I-0.75 J0.0
G1 X20.5839
G0 Z3.0
G0 X15.0354 Y4.05
G0 Z-1.495
G1 F100.0 Z-2.994
G1 F300.0 X14.9646
G1 X14.9839 Y19.9933
G3 Y20.0067 I-5.5476 J0.0067
G1 X14.9664 Y34.4524
G1 X15.0336
G1 X15.0161 Y20.0067
G3 Y19.9933 I5.5476 J-0.0067
G1 X15.0354 Y4.05
G0 Z3.0
G0 Y2.85
G0 Z-1.495
G1 F100.0 Z-2.994
G1 F300.0 X13.7632
G1 X13.7839 Y19.9947
G3 Y20.0053 I-4.3476 J0.0053
G1 X13.765 Y35.6524
G1 X16.235
G1 X16.2161 Y20.0053
G3 Y19.9947 I4.3476 J-0.0053
G1 X16.2368 Y2.85
G1 X15.0354
G0 Z3.0
G0 Y1.65
G0 Z-1.495
G1 F100.0 Z-2.994
G1 F300.0 X12.5617
G1 X12.5839 Y19.9962
G3 Y20.0038 I-3.1476 J0.0038
G1 X12.5635 Y36.8524
G1 X17.4365
G1 X17.4161 Y20.0038
G3 Y19.9962 I3.1476 J-0.0038
G1 X17.4383 Y1.65
G1 X15.0354
G0 Z3.0
G0 Y0.45
G0 Z-1.495
G1 F100.0 Z-2.994
G1 F300.0 X11.3631
G1 X11.3616 Y1.5741
G1 X11.3839 Y19.9976
G3 Y20.0024 I-1.9476 J0.0024
G1 X11.3621 Y38.0524
G1 X18.6379
G1 X18.6161 Y20.0024
G3 Y19.9976 I1.9476 J-0.0024
G1 X18.6384 Y1.5741
G1 X18.6369 Y0.45
G1 X15.0354
G0 Z3.0
G0 Y-0.75
G0 Z-1.495
G1 F100.0 Z-2.994
G1 F300.0 X9.4161
G3 X10.1661 Y0.001 I0.0 J0.75
G1 X10.164 Y1.574
G1 X10.1863 Y19.9991
G3 Y20.0009 I-0.75 J0.0009
G1 X10.164 Y38.426
G1 X10.1651 Y39.25
G1 X19.835
G1 X19.8339 Y38.427
G3 X19.8359 Y38.3717 I0.75 J-0.001
G1 X19.8137 Y20.0009
G3 Y19.9991 I0.75 J-0.0009
G1 X19.836 Y1.574
G1 X19.8339 Y0.001
G3 X20.5839 Y-0.75 I0.75 J-0.001
G1 X15.0354
G0 Z3.0
G0 Y2.85
G0 Z-1.994
G1 F100.0 Z-3.493
G1 F300.0 X14.6009
G1 X14.5991 Y4.2784
G1 X14.6255 Y19.9927
G3 Y20.0073 I-4.3476 J0.0073
G1 X14.5992 Y35.6524
G1 X15.4008
G1 X15.3745 Y20.0073
G3 Y19.9927 I4.3476 J-0.0073
G1 X15.4009 Y4.2784
G1 X15.3991 Y2.85
G1 X15.0354
G0 Z3.0
G0 Y1.65
G0 Z-1.994
G1 F100.0 Z-3.493
G1 F300.0 X13.4025
G1 X13.3991 Y4.2786
G1 X13.4255 Y19.9947
G3 Y20.0053 I-3.1476 J0.0053
G1 X13.3991 Y35.7214
G1 X13.4005 Y36.8524
G1 X16.5995
G1 X16.6009 Y35.7214
G1 X16.5745 Y20.0053
G3 Y19.9947 I3.1476 J-0.0053
G1 X16.6009 Y4.2786
G1 X16.5975 Y1.65
G1 X15.0354
G0 Z3.0
G0 Y0.45
G0 Z-1.994
G1 F100.0 Z-3.493
G1 F300.0 X17.796
G1 X17.8009 Y4.2788
G1 X17.7745 Y19.9967
G2 Y20.0033 I1.9476 J0.0033
G1 X17.8009 Y35.7212
G1 X17.7979 Y38.0524
G1 X12.2021
G1 X12.1991 Y35.7212
G1 X12.2255 Y20.0033
G2 Y19.9967 I-1.9476 J-0.0033
G1 X12.1991 Y4.2788
G1 X12.204 Y0.45
G1 X15.0354
G0 Z3.0
G0 Y1.65
G0 Z-2.493
G1 F100.0 Z-3.992
G1 F300.0 X14.4747
G1 X14.4688 Y4.8199
G1 X14.5054 Y19.9924
G3 Y20.0076 I-3.1476 J0.0076
G1 X14.4688 Y35.1801
G1 X14.4719 Y36.8524
G1 X15.5281
G1 X15.5312 Y35.1801
G1 X15.4946 Y20.0076
G3 Y19.9924 I3.1476 J-0.0076
G1 X15.5312 Y4.8199
G1 X15.5253 Y1.65
G1 X15.0354
G0 Z3.0
G0 Y0.45
G0 Z-2.493
G1 F100.0 Z-3.992
G1 F300.0 X16.7231
G1 X16.7312 Y4.8202
G1 X16.6946 Y19.9953
G2 Y20.0047 I1.9476 J0.0047
G1 X16.7312 Y35.1798
G1 X16.7259 Y38.0524
G1 X13.2741
G1 X13.2688 Y35.1798
G1 X13.3054 Y20.0047
G2 Y19.9953 I-1.9476 J-0.0047
G1 X13.2688 Y4.8202
G1 X13.2769 Y0.45
G1 X15.0354
G1 F100.0 X15.0081 Y0.4501
G1 Z-4.491
G1 F300.0 X15.0734 Y13.9184
G1 X15.0504 Y19.9926
G2 Y20.0074 I1.9476 J0.0074
G1 X15.0734 Y26.0816
G1 X15.0154 Y38.0524
G1 X14.9846
G1 X14.9266 Y26.0816
G1 X14.9496 Y20.0074
G2 Y19.9926 I-1.9476 J-0.0074
G1 X14.9266 Y13.9184
G1 X14.9919 Y0.45
G1 X15.0081
G1 Y0.4501
G0 Z3.0
G0 X9.4161 Y-0.75
G0 Z-1.994
G1 F100.0 Z-2.994
G1 F300.0 X0.0
G2 X-0.75 Y0.0 I0.0 J0.75
G1 Y120.0
G2 X0.0 Y120.75 I0.75 J0.0
G1 X9.4161
G1 F100.0 Z-3.493
G1 F300.0 X10.257
G2 X11.007 Y119.999 I0.0 J-0.75
G1 X11.0015 Y115.7209
G1 X11.0279 Y100.0013
G2 Y99.9987 I-0.75 J-0.0013
G1 X11.0015 Y84.2791
G1 X11.006 Y80.75
G1 X18.994
G1 X18.9985 Y84.2791
G1 X18.9721 Y99.9987
G2 Y100.0013 I0.75 J0.0013
G1 X18.9985 Y115.7209
G1 X18.993 Y119.999
G2 X19.743 Y120.75 I0.75 J0.001
G1 X30.0
G2 X30.75 Y120.0 I0.0 J-0.75
G1 Y0.0
G2 X30.0 Y-0.75 I-0.75 J0.0
G1 X19.743
G2 X18.993 Y0.001 I0.0 J0.75
G1 X18.9985 Y4.2791
G1 X18.9721 Y19.9987
G2 Y20.0013 I0.75 J0.0013
G1 X18.9985 Y35.7209
G1 X18.994 Y39.25
G1 X11.006
G1 X11.0015 Y35.7209
G1 X11.0279 Y20.0013
G2 Y19.9987 I-0.75 J-0.0013
G1 X11.0015 Y4.2791
G1 X11.007 Y0.001
G2 X10.257 Y-0.75 I-0.75 J-0.001
G1 X0.0
G2 X-0.75 Y0.0 I0.0 J0.75
G1 Y120.0
G2 X0.0 Y120.75 I0.75 J0.0
G1 X9.4161
G1 F100.0 X10.257
G1 F300.0 X19.743
G0 Z3.0
G0 X11.3302
G0 Z-2.493
G1 F100.0 Z-3.992
G1 F300.0 X18.6698
G0 Z3.0
G0 X13.0464
G0 Z-2.992
G1 F100.0 Z-4.491
G1 F300.0 X16.9536
G0 Z3.0
G0 X19.743 Y-0.75
G0 Z-2.493
G1 F100.0 Z-3.493
G1 F300.0 X10.257
G1 F100.0 Z-3.992
G1 F300.0 X0.0
G2 X-0.75 Y0.0 I0.0 J0.75
G1 Y120.0
G2 X0.0 Y120.75 I0.75 J0.0
G1 X11.3302
G2 X12.0802 Y119.9986 I0.0 J-0.75
G1 X12.0712 Y115.1795
G1 X12.1078 Y100.0018
G2 Y99.9982 I-0.75 J-0.0018
G1 X12.0712 Y84.8205
G1 X12.0788 Y80.75
G1 X17.9212
G1 X17.9288 Y84.8205
G1 X17.8922 Y99.9982
G2 Y100.0018 I0.75 J0.0018
G1 X17.9288 Y115.1795
G1 X17.9198 Y119.9986
G2 X18.6698 Y120.75 I0.75 J0.0014
G1 X30.0
G2 X30.75 Y120.0 I0.0 J-0.75
G1 Y0.0
G2 X30.0 Y-0.75 I-0.75 J0.0
G1 X18.6698
G2 X17.9198 Y0.0014 I0.0 J0.75
G1 X17.9288 Y4.8205
G1 X17.8922 Y19.9982
G2 Y20.0018 I0.75 J0.0018
G1 X17.9288 Y35.1795
G1 X17.9212 Y39.25
G1 X12.0788
G1 X12.0712 Y35.1795
G1 X12.1078 Y20.0018
G2 Y19.9982 I-0.75 J-0.0018
G1 X12.0712 Y4.8205
G1 X12.0802 Y0.0014
G2 X11.3302 Y-0.75 I-0.75 J-0.0014
G1 X10.257
G0 Z3.0
G0 X18.6698
G0 Z-2.992
G1 F100.0 Z-3.992
G1 F300.0 X11.3302
G1 F100.0 Z-4.491
G1 F300.0 X0.0
G2 X-0.75 Y0.0 I0.0 J0.75
G1 Y120.0
G2 X0.0 Y120.75 I0.75 J0.0
G1 X13.0464
G2 X13.7964 Y119.9964 I0.0 J-0.75
G1 X13.729 Y106.0823
G1 X13.752 Y100.0028
G2 Y99.9972 I-0.75 J-0.0028
G1 X13.729 Y93.9177
G1 X13.7928 Y80.75
G1 X16.2072
G1 X16.271 Y93.9177
G1 X16.248 Y99.9972
G2 Y100.0028 I0.75 J0.0028
G1 X16.271 Y106.0823
G1 X16.2036 Y119.9964
G2 X16.9536 Y120.75 I0.75 J0.0036
G1 X30.0
G2 X30.75 Y120.0 I0.0 J-0.75
G1 Y0.0
G2 X30.0 Y-0.75 I-0.75 J0.0
G1 X16.9536
G2 X16.2036 Y0.0036 I0.0 J0.75
G1 X16.271 Y13.9177
G1 X16.248 Y19.9972
G2 Y20.0028 I0.75 J0.0028
G1 X16.271 Y26.0823
G1 X16.2072 Y39.25
G1 X13.7928
G1 X13.729 Y26.0823
G1 X13.752 Y20.0028
G2 Y19.9972 I-0.75 J-0.0028
G1 X13.729 Y13.9177
G1 X13.7964 Y0.0036
G2 X13.0464 Y-0.75 I-0.75 J-0.0036
G1 X11.3302
G0 Z3.0
G0 X16.9536
G0 Z-3.491
G1 F100.0 Z-4.491
G1 F300.0 X13.0464
G1 F100.0 Z-4.99
G1 F300.0 X0.0
G2 X-0.75 Y0.0 I0.0 J0.75
G1 Y120.0
G2 X0.0 Y120.75 I0.75 J0.0
G1 X30.0
G2 X30.75 Y120.0 I0.0 J-0.75
G1 Y0.0
G2 X30.0 Y-0.75 I-0.75 J0.0
G1 X13.0464
G1 F100.0 Z-5.489
G1 F300.0 X0.0
G2 X-0.75 Y0.0 I0.0 J0.75
G1 Y120.0
G2 X0.0 Y120.75 I0.75 J0.0
G1 X30.0
G2 X30.75 Y120.0 I0.0 J-0.75
G1 Y0.0
G2 X30.0 Y-0.75 I-0.75 J0.0
G1 X13.0464
G1 F100.0 Z-5.988
G1 F300.0 X0.0
G2 X-0.75 Y0.0 I0.0 J0.75
G1 Y120.0
G2 X0.0 Y120.75 I0.75 J0.0
G1 X30.0
G2 X30.75 Y120.0 I0.0 J-0.75
G1 Y0.0
G2 X30.0 Y-0.75 I-0.75 J0.0
G1 X13.0464
G1 F100.0 Z-6.487
G1 F300.0 X0.0
G2 X-0.75 Y0.0 I0.0 J0.75
G1 Y120.0
G2 X0.0 Y120.75 I0.75 J0.0
G1 X30.0
G2 X30.75 Y120.0 I0.0 J-0.75
G1 Y0.0
G2 X30.0 Y-0.75 I-0.75 J0.0
G1 X13.0464
G1 F100.0 Z-6.986
G1 F300.0 X0.0
G2 X-0.75 Y0.0 I0.0 J0.75
G1 Y120.0
G2 X0.0 Y120.75 I0.75 J0.0
G1 X30.0
G2 X30.75 Y120.0 I0.0 J-0.75
G1 Y0.0
G2 X30.0 Y-0.75 I-0.75 J0.0
G1 X13.0464
G1 F100.0 Z-7.485
G1 F300.0 X0.0
G2 X-0.75 Y0.0 I0.0 J0.75
G1 Y120.0
G2 X0.0 Y120.75 I0.75 J0.0
G1 X30.0
G2 X30.75 Y120.0 I0.0 J-0.75
G1 Y0.0
G2 X30.0 Y-0.75 I-0.75 J0.0
G1 X13.0464
G1 F100.0 Z-7.984
G1 F300.0 X0.0
G2 X-0.75 Y0.0 I0.0 J0.75
G1 Y120.0
G2 X0.0 Y120.75 I0.75 J0.0
G1 X30.0
G2 X30.75 Y120.0 I0.0 J-0.75
G1 Y0.0
G2 X30.0 Y-0.75 I-0.75 J0.0
G1 X13.0464
G1 F100.0 Z-8.483
G1 F300.0 X0.0
G2 X-0.75 Y0.0 I0.0 J0.75
G1 Y120.0
G2 X0.0 Y120.75 I0.75 J0.0
G1 X30.0
G2 X30.75 Y120.0 I0.0 J-0.75
G1 Y0.0
G2 X30.0 Y-0.75 I-0.75 J0.0
G1 X13.0464
G1 F100.0 Z-8.982
G1 F300.0 X0.0
G2 X-0.75 Y0.0 I0.0 J0.75
G1 Y120.0
G2 X0.0 Y120.75 I0.75 J0.0
G1 X30.0
G2 X30.75 Y120.0 I0.0 J-0.75
G1 Y0.0
G2 X30.0 Y-0.75 I-0.75 J0.0
G1 X13.0464
G1 F100.0 Z-9.481
G1 F300.0 X0.0
G2 X-0.75 Y0.0 I0.0 J0.75
G1 Y120.0
G2 X0.0 Y120.75 I0.75 J0.0
G1 X30.0
G2 X30.75 Y120.0 I0.0 J-0.75
G1 Y0.0
G2 X30.0 Y-0.75 I-0.75 J0.0
G1 X13.0464
G1 F100.0 Z-9.7
G1 F300.0 X0.0
G2 X-0.75 Y0.0 I0.0 J0.75
G1 Y120.0
G2 X0.0 Y120.75 I0.75 J0.0
G1 X30.0
G2 X30.75 Y120.0 I0.0 J-0.75
G1 Y0.0
G2 X30.0 Y-0.75 I-0.75 J0.0
G1 X13.0464
( 3DSurface2 )
S1000
G0 Z3.0
G0 X32.25 Y40.0
G0 Z1.0
G1 F100.0 Z-0.499
G3 F300.0 X33.0 Y39.25 I0.75 J0.0
G1 X44.6
G3 X45.35 Y40.0 I0.0 J0.75
G0 Z3.0
G0 X39.35 Y33.2524
G0 Z1.0
G1 F100.0 Z-0.499
G1 F300.0 Y5.25
G1 X38.25
G1 Y33.2524
G1 X39.35
G0 Z3.0
G0 Y34.4524
G0 Z1.0
G1 F100.0 Z-0.499
G1 F300.0 X40.55
G1 Y4.05
G1 X37.05
G1 Y34.4524
G1 X39.35
G0 Z3.0
G0 Y35.6524
G0 Z1.0
G1 F100.0 Z-0.499
G1 F300.0 X41.75
G1 Y2.85
G1 X35.85
G1 Y35.6524
G1 X39.35
G0 Z3.0
G0 Y36.8524
G0 Z1.0
G1 F100.0 Z-0.499
G1 F300.0 X42.95
G1 Y1.65
G1 X34.65
G1 Y36.8524
G1 X39.35
G0 Z3.0
G0 Y38.0524
G0 Z1.0
G1 F100.0 Z-0.499
G1 F300.0 X33.45
G1 Y0.45
G1 X44.15
G1 Y38.0524
G1 X39.35
G0 Z3.0
G0 Y33.2524
G0 Z0.501
G1 F100.0 Z-0.998
G1 F300.0 Y5.25
G1 X38.25
G1 Y33.2524
G1 X39.35
G0 Z3.0
G0 Y34.4524
G0 Z0.501
G1 F100.0 Z-0.998
G1 F300.0 X40.55
G1 Y4.05
G1 X37.05
G1 Y34.4524
G1 X39.35
G0 Z3.0
G0 Y35.6524
G0 Z0.501
G1 F100.0 Z-0.998
G1 F300.0 X41.75
G1 Y2.85
G1 X35.85
G1 Y35.6524
G1 X39.35
G0 Z3.0
G0 Y36.8524
G0 Z0.501
G1 F100.0 Z-0.998
G1 F300.0 X42.95
G1 Y1.65
G1 X34.65
G1 Y36.8524
G1 X39.35
G0 Z3.0
G0 Y38.0524
G0 Z0.501
G1 F100.0 Z-0.998
G1 F300.0 X33.45
G1 Y0.45
G1 X44.15
G1 Y38.0524
G1 X39.35
G0 Z3.0
G0 Y33.2524
G0 Z0.002
G1 F100.0 Z-1.497
G1 F300.0 Y5.25
G1 X38.25
G1 Y33.2524
G1 X39.35
G0 Z3.0
G0 Y34.4524
G0 Z0.002
G1 F100.0 Z-1.497
G1 F300.0 X40.55
G1 Y4.05
G1 X37.05
G1 Y34.4524
G1 X39.35
G0 Z3.0
G0 Y35.6524
G0 Z0.002
G1 F100.0 Z-1.497
G1 F300.0 X41.75
G1 Y2.85
G1 X35.85
G1 Y35.6524
G1 X39.35
G0 Z3.0
G0 Y36.8524
G0 Z0.002
G1 F100.0 Z-1.497
G1 F300.0 X42.95
G1 Y1.65
G1 X34.65
G1 Y36.8524
G1 X39.35
G0 Z3.0
G0 Y38.0524
G0 Z0.002
G1 F100.0 Z-1.497
G1 F300.0 X33.45
G1 Y0.45
G1 X44.15
G1 Y38.0524
G1 X39.35
G0 Z3.0
G0 Y33.2524
G0 Z-0.497
G1 F100.0 Z-1.996
G1 F300.0 Y5.25
G1 X38.25
G1 Y33.2524
G1 X39.35
G0 Z3.0
G0 Y34.4524
G0 Z-0.497
G1 F100.0 Z-1.996
G1 F300.0 X40.55
G1 Y4.05
G1 X37.05
G1 Y34.4524
G1 X39.35
G0 Z3.0
G0 Y35.6524
G0 Z-0.497
G1 F100.0 Z-1.996
G1 F300.0 X41.75
G1 Y2.85
G1 X35.85
G1 Y35.6524
G1 X39.35
G0 Z3.0
G0 Y36.8524
G0 Z-0.497
G1 F100.0 Z-1.996
G1 F300.0 X42.95
G1 Y1.65
G1 X34.65
G1 Y36.8524
G1 X39.35
G0 Z3.0
G0 Y38.0524
G0 Z-0.497
G1 F100.0 Z-1.996
G1 F300.0 X33.45
G1 Y0.45
G1 X44.15
G1 Y38.0524
G1 X39.35
G0 Z3.0
G0 Y33.2524
G0 Z-0.996
G1 F100.0 Z-2.495
G1 F300.0 Y5.25
G1 X38.25
G1 Y33.2524
G1 X39.35
G0 Z3.0
G0 Y34.4524
G0 Z-0.996
G1 F100.0 Z-2.495
G1 F300.0 X40.55
G1 Y4.05
G1 X37.05
G1 Y34.4524
G1 X39.35
G0 Z3.0
G0 Y35.6524
G0 Z-0.996
G1 F100.0 Z-2.495
G1 F300.0 X41.75
G1 Y2.85
G1 X35.85
G1 Y35.6524
G1 X39.35
G0 Z3.0
G0 Y36.8524
G0 Z-0.996
G1 F100.0 Z-2.495
G1 F300.0 X42.95
G1 Y1.65
G1 X34.65
G1 Y36.8524
G1 X39.35
G0 Z3.0
G0 Y38.0524
G0 Z-0.996
G1 F100.0 Z-2.495
G1 F300.0 X33.45
G1 Y0.45
G1 X44.15
G1 Y38.0524
G1 X39.35
G0 Z3.0
G0 X32.25 Y80.0
G0 Z1.0
G1 F100.0 Z-0.499
G1 F300.0 Y120.0
G2 X33.0 Y120.75 I0.75 J0.0
G1 X44.6
G2 X45.35 Y120.0 I0.0 J-0.75
G1 Y80.0
G1 Y40.0
G1 Y0.0
G2 X44.6 Y-0.75 I-0.75 J0.0
G1 X33.0
G2 X32.25 Y0.0 I0.0 J0.75
G1 Y40.0
G1 Y80.0
G2 X33.0 Y80.75 I0.75 J0.0
G1 X44.6
G2 X45.35 Y80.0 I0.0 J-0.75
G0 Z3.0
G0 X39.35 Y86.7476
G0 Z1.0
G1 F100.0 Z-0.499
G1 F300.0 X38.25
G1 Y114.75
G1 X39.35
G1 Y86.7476
G0 Z3.0
G0 Y85.5476
G0 Z1.0
G1 F100.0 Z-0.499
G1 F300.0 X37.05
G1 Y115.95
G1 X40.55
G1 Y85.5476
G1 X39.35
G0 Z3.0
G0 Y84.3476
G0 Z1.0
G1 F100.0 Z-0.499
G1 F300.0 X35.85
G1 Y117.15
G1 X41.75
G1 Y84.3476
G1 X39.35
G0 Z3.0
G0 Y83.1476
G0 Z1.0
G1 F100.0 Z-0.499
G1 F300.0 X34.65
G1 Y118.35
G1 X42.95
G1 Y83.1476
G1 X39.35
G0 Z3.0
G0 Y81.9476
G0 Z1.0
G1 F100.0 Z-0.499
G1 F300.0 X44.15
G1 Y119.55
G1 X33.45
G1 Y81.9476
G1 X39.35
G0 Z3.0
G0 Y86.7476
G0 Z0.501
G1 F100.0 Z-0.998
G1 F300.0 X38.25
G1 Y114.75
G1 X39.35
G1 Y86.7476
G0 Z3.0
G0 Y85.5476
G0 Z0.501
G1 F100.0 Z-0.998
G1 F300.0 X37.05
G1 Y115.95
G1 X40.55
G1 Y85.5476
G1 X39.35
G0 Z3.0
G0 Y84.3476
G0 Z0.501
G1 F100.0 Z-0.998
G1 F300.0 X35.85
G1 Y117.15
G1 X41.75
G1 Y84.3476
G1 X39.35
G0 Z3.0
G0 Y83.1476
G0 Z0.501
G1 F100.0 Z-0.998
G1 F300.0 X34.65
G1 Y118.35
G1 X42.95
G1 Y83.1476
G1 X39.35
G0 Z3.0
G0 Y81.9476
G0 Z0.501
G1 F100.0 Z-0.998
G1 F300.0 X44.15
G1 Y119.55
G1 X33.45
G1 Y81.9476
G1 X39.35
G0 Z3.0
G0 Y86.7476
G0 Z0.002
G1 F100.0 Z-1.497
G1 F300.0 X38.25
G1 Y114.75
G1 X39.35
G1 Y86.7476
G0 Z3.0
G0 Y85.5476
G0 Z0.002
G1 F100.0 Z-1.497
G1 F300.0 X37.05
G1 Y115.95
G1 X40.55
G1 Y85.5476
G1 X39.35
G0 Z3.0
G0 Y84.3476
G0 Z0.002
G1 F100.0 Z-1.497
G1 F300.0 X35.85
G1 Y117.15
G1 X41.75
G1 Y84.3476
G1 X39.35
G0 Z3.0
G0 Y83.1476
G0 Z0.002
G1 F100.0 Z-1.497
G1 F300.0 X34.65
G1 Y118.35
G1 X42.95
G1 Y83.1476
G1 X39.35
G0 Z3.0
G0 Y81.9476
G0 Z0.002
G1 F100.0 Z-1.497
G1 F300.0 X44.15
G1 Y119.55
G1 X33.45
G1 Y81.9476
G1 X39.35
G0 Z3.0
G0 Y86.7476
G0 Z-0.497
G1 F100.0 Z-1.996
G1 F300.0 X38.25
G1 Y114.75
G1 X39.35
G1 Y86.7476
G0 Z3.0
G0 Y85.5476
G0 Z-0.497
G1 F100.0 Z-1.996
G1 F300.0 X37.05
G1 Y115.95
G1 X40.55
G1 Y85.5476
G1 X39.35
G0 Z3.0
G0 Y84.3476
G0 Z-0.497
G1 F100.0 Z-1.996
G1 F300.0 X35.85
G1 Y117.15
G1 X41.75
G1 Y84.3476
G1 X39.35
G0 Z3.0
G0 Y83.1476
G0 Z-0.497
G1 F100.0 Z-1.996
G1 F300.0 X34.65
G1 Y118.35
G1 X42.95
G1 Y83.1476
G1 X39.35
G0 Z3.0
G0 Y81.9476
G0 Z-0.497
G1 F100.0 Z-1.996
G1 F300.0 X44.15
G1 Y119.55
G1 X33.45
G1 Y81.9476
G1 X39.35
G0 Z3.0
G0 Y86.7476
G0 Z-0.996
G1 F100.0 Z-2.495
G1 F300.0 X38.25
G1 Y114.75
G1 X39.35
G1 Y86.7476
G0 Z3.0
G0 Y85.5476
G0 Z-0.996
G1 F100.0 Z-2.495
G1 F300.0 X37.05
G1 Y115.95
G1 X40.55
G1 Y85.5476
G1 X39.35
G0 Z3.0
G0 Y84.3476
G0 Z-0.996
G1 F100.0 Z-2.495
G1 F300.0 X35.85
G1 Y117.15
G1 X41.75
G1 Y84.3476
G1 X39.35
G0 Z3.0
G0 Y83.1476
G0 Z-0.996
G1 F100.0 Z-2.495
G1 F300.0 X34.65
G1 Y118.35
G1 X42.95
G1 Y83.1476
G1 X39.35
G0 Z3.0
G0 Y81.9476
G0 Z-0.996
G1 F100.0 Z-2.495
G1 F300.0 X44.15
G1 Y119.55
G1 X33.45
G1 Y81.9476
G1 X39.35
G0 Z3.0
G0 X32.25 Y80.0
G0 Z0.501
G1 F100.0 Z-0.998
G1 F300.0 Y120.0
G2 X33.0 Y120.75 I0.75 J0.0
G1 X44.6
G2 X45.35 Y120.0 I0.0 J-0.75
G1 Y80.0
G1 Y40.0
G1 Y0.0
G2 X44.6 Y-0.75 I-0.75 J0.0
G1 X33.0
G2 X32.25 Y0.0 I0.0 J0.75
G1 Y40.0
G1 Y80.0
G2 X33.0 Y80.75 I0.75 J0.0
G1 X44.6
G2 X45.35 Y80.0 I0.0 J-0.75
G0 Z3.0
G0 X32.25 Y40.0
G0 Z0.002
G1 F100.0 Z-0.998
G3 F300.0 X33.0 Y39.25 I0.75 J0.0
G1 X44.6
G3 X45.35 Y40.0 I0.0 J0.75
G0 Z3.0
G0 X32.25
G0 Z0.002
G1 F100.0 Z-1.497
G3 F300.0 X33.0 Y39.25 I0.75 J0.0
G1 X44.6
G3 X45.35 Y40.0 I0.0 J0.75
G0 Z3.0
G0 X32.25 Y80.0
G0 Z0.002
G1 F100.0 Z-1.497
G1 F300.0 Y120.0
G2 X33.0 Y120.75 I0.75 J0.0
G1 X44.6
G2 X45.35 Y120.0 I0.0 J-0.75
G1 Y80.0
G1 Y40.0
G1 Y0.0
G2 X44.6 Y-0.75 I-0.75 J0.0
G1 X33.0
G2 X32.25 Y0.0 I0.0 J0.75
G1 Y40.0
G1 Y80.0
G2 X33.0 Y80.75 I0.75 J0.0
G1 X44.6
G2 X45.35 Y80.0 I0.0 J-0.75
G0 Z3.0
G0 X32.25
G0 Z-0.497
G1 F100.0 Z-1.996
G1 F300.0 Y120.0
G2 X33.0 Y120.75 I0.75 J0.0
G1 X44.6
G2 X45.35 Y120.0 I0.0 J-0.75
G1 Y80.0
G1 Y40.0
G1 Y0.0
G2 X44.6 Y-0.75 I-0.75 J0.0
G1 X33.0
G2 X32.25 Y0.0 I0.0 J0.75
G1 Y40.0
G1 Y80.0
G2 X33.0 Y80.75 I0.75 J0.0
G1 X44.6
G2 X45.35 Y80.0 I0.0 J-0.75
G0 Z3.0
G0 X32.25 Y40.0
G0 Z-0.996
G1 F100.0 Z-1.996
G3 F300.0 X33.0 Y39.25 I0.75 J0.0
G1 X44.6
G3 X45.35 Y40.0 I0.0 J0.75
G0 Z3.0
G0 X32.25
G0 Z-0.996
G1 F100.0 Z-2.495
G3 F300.0 X33.0 Y39.25 I0.75 J0.0
G1 X44.6
G3 X45.35 Y40.0 I0.0 J0.75
G0 Z3.0
G0 X32.25 Y80.0
G0 Z-0.996
G1 F100.0 Z-2.495
G1 F300.0 Y120.0
G2 X33.0 Y120.75 I0.75 J0.0
G1 X44.6
G2 X45.35 Y120.0 I0.0 J-0.75
G1 Y80.0
G1 Y40.0
G1 Y0.0
G2 X44.6 Y-0.75 I-0.75 J0.0
G1 X33.0
G2 X32.25 Y0.0 I0.0 J0.75
G1 Y40.0
G1 Y80.0
G2 X33.0 Y80.75 I0.75 J0.0
G1 X44.6
G2 X45.35 Y80.0 I0.0 J-0.75
G0 Z3.0
G0 X38.8261 Y85.5476
G0 Z-1.495
G1 F100.0 Z-2.994
G1 F300.0 X38.7779
G1 X38.7777 Y85.7549
G1 Y114.2451
G1 X38.7798 Y115.95
G1 X38.8235
G2 X38.8261 Y85.5476 I-8533.8293 J-15.95
G0 Z3.0
G0 Y84.3476
G0 Z-1.495
G1 F100.0 Z-2.994
G1 F300.0 X37.5795
G1 X37.5777 Y85.7541
G1 Y114.2459
G1 X37.5814 Y117.15
G1 X40.0211
G2 X40.024 Y84.3476 I-8535.027 J-17.15
G1 X38.8261
G0 Z3.0
G0 Y83.1476
G0 Z-1.495
G1 F100.0 Z-2.994
G1 F300.0 X36.381
G1 X36.3777 Y85.7534
G1 Y114.2466
G1 X36.3829 Y118.35
G1 X41.2186
G2 X41.2217 Y83.1476 I-8536.2245 J-18.35
G1 X38.8261
G0 Z3.0
G0 Y81.9476
G0 Z-1.495
G1 F100.0 Z-2.994
G1 F300.0 X35.1826
G1 X35.1777 Y85.7526
G1 Y114.2474
G1 X35.1845 Y119.55
G1 X42.416
G2 X42.4193 Y81.9476 I-8537.4218 J-19.55
G1 X38.8261
G0 Z3.0
G0 Y80.75
G0 Z-1.495
G1 F100.0 Z-2.994
G1 F300.0 X33.9865
G1 X33.9801 Y85.7518
G1 Y114.2482
G1 X33.9875 Y119.999
G3 X33.2375 Y120.75 I-0.75 J0.001
G1 X44.3625
G3 X43.6125 Y119.9982 I0.0 J-0.75
G2 X43.6143 Y80.75 I-8538.6184 J-19.9982
G1 X38.8261
G0 Z3.0
G0 X44.3625 Y120.75
G0 Z-1.994
G1 F100.0 Z-2.994
G1 F300.0 X44.6
G2 X45.35 Y120.0 I0.0 J-0.75
G1 Y0.0
G2 X44.6 Y-0.75 I-0.75 J0.0
G1 X44.3625
G0 Z3.0
G0 X38.8202 Y4.05
G0 Z-1.495
G1 F100.0 Z-2.994
G1 F300.0 X38.7765
G2 X38.7739 Y34.4524 I8533.8293 J15.95
G1 X38.8221
G1 X38.8223 Y34.2451
G1 Y5.7549
G1 X38.8202 Y4.05
G0 Z3.0
G0 Y2.85
G0 Z-1.495
G1 F100.0 Z-2.994
G1 F300.0 X37.5789
G2 X37.576 Y35.6524 I8535.027 J17.15
G1 X40.0205
G1 X40.0223 Y34.2459
G1 Y5.7541
G1 X40.0186 Y2.85
G1 X38.8202
G0 Z3.0
G0 Y1.65
G0 Z-1.495
G1 F100.0 Z-2.994
G1 F300.0 X36.3814
G2 X36.3783 Y36.8524 I8536.2245 J18.35
G1 X41.219
G1 X41.2223 Y34.2466
G1 Y5.7534
G1 X41.2171 Y1.65
G1 X38.8202
G0 Z3.0
G0 Y0.45
G0 Z-1.495
G1 F100.0 Z-2.994
G1 F300.0 X35.184
G2 X35.1807 Y38.0524 I8537.4218 J19.55
G1 X42.4175
G1 X42.4223 Y34.2474
G1 Y5.7526
G1 X42.4155 Y0.45
G1 X38.8202
G0 Z3.0
G0 Y-0.75
G0 Z-1.495
G1 F100.0 Z-2.994
G1 F300.0 X33.2375
G3 X33.9875 Y0.0018 I0.0 J0.75
G2 X33.9857 Y39.25 I8538.6184 J19.9982
G1 X43.6135
G1 X43.6199 Y34.2482
G1 Y5.7518
G1 X43.6125 Y0.001
G3 X44.3625 Y-0.75 I0.75 J-0.001
G1 X38.8202
G0 Z3.0
G0 X33.2375
G0 Z-1.994
G1 F100.0 Z-2.994
G1 F300.0 X33.0
G2 X32.25 Y0.0 I0.0 J0.75
G1 Y120.0
G2 X33.0 Y120.75 I0.75 J0.0
G1 X33.2375
G0 Z3.0
G0 X38.4113 Y117.15
G0 Z-1.994
G1 F100.0 Z-3.493
G1 F300.0 X39.2164
G2 X39.1846 Y100.019 I-3423.3031 J-2.1983
G3 Y99.981 I4.3476 J-0.019
G2 X39.2171 Y84.3476 I-3423.2713 J-14.9327
G1 X38.383
G2 X38.4142 Y99.9818 I3561.2982 J0.7274
G3 X38.3861 Y100.4937 I-4.3476 J0.0182
G1 X38.4113 Y117.15
G0 Z3.0
G0 X37.2113 Y117.1518
G0 Z-1.994
G1 F100.0 Z-3.493
G1 F300.0 X37.2132 Y118.35
G1 X40.4155
G2 X40.3846 Y100.0137 I-3424.5022 J-3.3983
G3 Y99.9863 I3.1476 J-0.0137
G2 X40.4166 Y83.1476 I-3424.4713 J-14.9379
G1 X37.1835
G2 X37.2142 Y99.9868 I3562.4977 J1.9274
G3 X37.186 Y100.4206 I-3.1476 J0.0132
G1 X37.2113 Y117.1518
G0 Z3.0
G0 X36.0113 Y117.1536
G0 Z-1.994
G1 F100.0 Z-3.493
G1 F300.0 X36.0142 Y119.0268
G3 X35.9857 Y119.3614 I-1.9476 J0.003
G1 X35.986 Y119.55
G1 X41.6141
G2 X41.5846 Y100.0085 I-3425.7008 J-4.5983
G3 Y99.9915 I1.9476 J-0.0085
G2 X41.6158 Y81.9476 I-3425.6713 J-14.9432
G1 X35.9843
G2 X36.0142 Y99.9918 I3563.6969 J3.1274
G3 X35.9858 Y100.3312 I-1.9476 J0.0082
G1 X36.0113 Y117.1536
G0 Z3.0
G0 X34.8137 Y117.1555
G0 Z-1.994
G1 F100.0 Z-3.493
G1 F300.0 X34.8166 Y119.0286
G3 X34.788 Y119.2349 I-0.75 J0.0011
G1 X34.789 Y119.999
G3 X34.039 Y120.75 I-0.75 J0.001
G1 X43.561
G3 X42.811 Y119.9989 I0.0 J-0.75
G2 X42.7822 Y100.0033 I-3426.8977 J-5.0472
G3 Y99.9967 I0.75 J-0.0033
G2 X42.8121 Y80.75 I-3426.8688 J-14.9484
G1 X34.788
G2 X34.8166 Y99.9969 I3564.8932 J4.325
G3 X34.788 Y100.205 I-0.75 J0.0031
G1 X34.8137 Y117.1555
G0 Z3.0
G0 X38.2573 Y117.1498
G0 Z-2.493
G1 F100.0 Z-3.992
G1 F300.0 X38.2593 Y118.35
G1 X39.3403
G1 X39.3056 Y100.0059
G3 Y99.9941 I3.1476 J-0.0059
G1 X39.3374 Y83.1476
G1 X38.2568
G1 X38.254 Y84.8823
G1 X38.2851 Y99.9935
G3 X38.2549 Y100.4354 I-3.1476 J0.0065
G1 X38.2851 Y115.1105
G3 X38.2547 Y115.5538 I-3.1476 J0.0065
G1 X38.2573 Y117.1498
G0 Z3.0
G0 X37.0573 Y117.1518
G0 Z-2.493
G1 F100.0 Z-3.992
G1 F300.0 X37.0612 Y119.55
G1 X40.5388
G1 X40.5406 Y118.5407
G1 X40.5056 Y100.0037
G3 Y99.9963 I1.9476 J-0.0037
G1 X40.5397 Y81.9476
G1 X37.0588
G1 X37.054 Y84.8826
G1 X37.0851 Y99.996
G3 X37.0547 Y100.3431 I-1.9476 J0.004
G1 X37.0851 Y115.113
G3 X37.0545 Y115.4609 I-1.9476 J0.004
G1 X37.0573 Y117.1518
G0 Z3.0
G0 X35.8597 Y117.1537
G0 Z-2.493
G1 F100.0 Z-3.992
G1 F300.0 X35.8644 Y119.9988
G3 X35.1144 Y120.75 I-0.75 J0.0012
G1 X42.4856
G3 X41.7356 Y119.9987 I0.0 J-0.75
G1 X41.7382 Y118.5406
G1 X41.7032 Y100.0014
G3 Y99.9986 I0.75 J-0.0014
G1 X41.7382 Y81.4594
G1 X41.737 Y80.75
G1 X35.8631
G1 X35.8564 Y84.8828
G1 X35.8875 Y99.9985
G3 X35.8568 Y100.2125 I-0.75 J0.0015
G1 X35.8875 Y115.1155
G3 X35.8567 Y115.3298 I-0.75 J0.0015
G1 X35.8597 Y117.1537
G0 Z3.0
G0 X38.7966 Y117.1425
G0 Z-2.992
G1 F100.0 Z-4.491
G1 F300.0 X38.8058 Y119.55
G1 X38.8452
G3 X38.8583 Y119.498 I1.8949 J0.45
G1 X38.7925 Y102.9122
G3 X38.8579 Y102.4039 I1.9476 J-0.0077
G1 X38.8467 Y100.0091
G3 Y99.9909 I1.9476 J-0.0091
G1 X38.8603 Y97.0948
G1 X38.8002 Y81.9476
G1 X38.8001
G1 X38.7682 Y90.2713
G1 X38.7997 Y99.9937
G3 Y100.0063 I-1.9476 J0.0063
G1 X38.7682 Y109.7287
G1 X38.7966 Y117.1425
G0 Z3.0
G0 X37.599 Y117.1471
G0 Z-2.992
G1 F100.0 Z-4.491
G1 F300.0 X37.6099 Y119.9971
G3 X36.8599 Y120.75 I-0.75 J0.0029
G1 X40.7401
G3 X40.0567 Y119.6911 I0.0 J-0.75
G1 X39.9901 Y102.9075
G3 X40.0564 Y102.5961 I0.75 J-0.003
G1 X40.0443 Y100.0035
G3 Y99.9965 I0.75 J-0.0035
G1 X40.0579 Y97.0952
G1 X39.9931 Y80.75
G1 X37.607
G1 X37.5706 Y90.271
G1 X37.6021 Y99.9976
G3 Y100.0024 I-0.75 J0.0024
G1 X37.5706 Y109.729
G1 X37.599 Y117.1471
G0 Z3.0
G0 X43.561 Y120.75
G0 Z-2.493
G1 F100.0 Z-3.493
G1 F300.0 X44.6
G2 X45.35 Y120.0 I0.0 J-0.75
G1 Y0.0
G2 X44.6 Y-0.75 I-0.75 J0.0
G1 X43.561
G0 Z3.0
G0 X39.1887 Y2.85
G0 Z-1.994
G1 F100.0 Z-3.493
G1 F300.0 X38.3836
G2 X38.4154 Y19.981 I3423.3031 J2.1983
G3 Y20.019 I-4.3476 J0.019
G2 X38.3829 Y35.6524 I3423.2713 J14.9327
G1 X39.217
G2 X39.1858 Y20.0182 I-3561.3598 J-0.7268
G3 X39.2139 Y19.5063 I4.3476 J-0.0182
G1 X39.1887 Y2.85
G0 Z3.0
G0 Y1.65
G0 Z-1.994
G1 F100.0 Z-3.493
G1 F300.0 X37.1845
G2 X37.2154 Y19.9863 I3424.5022 J3.3983
G3 Y20.0137 I-3.1476 J0.0137
G2 X37.1834 Y36.8524 I3424.4713 J14.9379
G1 X40.4165
G2 X40.3858 Y20.0132 I-3562.5594 J-1.9268
G3 X40.414 Y19.5794 I3.1476 J-0.0132
G1 X40.3868 Y1.65
G1 X39.1887
G0 Z3.0
G0 Y0.45
G0 Z-1.994
G1 F100.0 Z-3.493
G1 F300.0 X35.9859
G2 X36.0154 Y19.9915 I3425.7008 J4.5983
G3 Y20.0085 I-1.9476 J0.0085
G2 X35.9842 Y38.0524 I3425.6713 J14.9432
G1 X41.6157
G2 X41.5858 Y20.0082 I-3563.7585 J-3.1268
G3 X41.6142 Y19.6688 I1.9476 J-0.0082
G1 X41.5858 Y0.9732
G3 X41.6143 Y0.6386 I1.9476 J-0.003
G1 X41.614 Y0.45
G1 X39.1887
G0 Z3.0
G0 Y-0.75
G0 Z-1.994
G1 F100.0 Z-3.493
G1 F300.0 X34.039
G3 X34.789 Y0.0011 I0.0 J0.75
G2 X34.8178 Y19.9967 I3426.8977 J5.0472
G3 Y20.0033 I-0.75 J0.0033
G2 X34.7879 Y39.25 I3426.8688 J14.9484
G1 X42.812
G2 X42.7834 Y20.0031 I-3564.9549 J-4.3244
G3 X42.812 Y19.795 I0.75 J-0.0031
G1 X42.7834 Y0.9714
G3 X42.812 Y0.765 I0.75 J-0.0011
G1 X42.811 Y0.001
G3 X43.561 Y-0.75 I0.75 J-0.001
G1 X39.1887
G0 Z3.0
G0 Y1.65
G0 Z-2.493
G1 F100.0 Z-3.992
G1 F300.0 X38.2597
G1 X38.2944 Y19.9941
G3 Y20.0059 I-3.1476 J0.0059
G1 X38.2626 Y36.8524
G1 X39.3432
G1 X39.346 Y35.1177
G1 X39.3149 Y20.0065
G3 X39.3451 Y19.5645 I3.1476 J-0.0065
G1 X39.3149 Y4.8895
G3 X39.3453 Y4.4462 I3.1476 J-0.0065
G1 X39.3407 Y1.65
G1 X39.1887
G0 Z3.0
G0 Y0.45
G0 Z-2.493
G1 F100.0 Z-3.992
G1 F300.0 X37.0612
G1 X37.0594 Y1.4593
G1 X37.0944 Y19.9963
G3 Y20.0037 I-1.9476 J0.0037
G1 X37.0603 Y38.0524
G1 X40.5412
G1 X40.546 Y35.1174
G1 X40.5149 Y20.004
G3 X40.5453 Y19.6569 I1.9476 J-0.004
G1 X40.5149 Y4.887
G3 X40.5455 Y4.5391 I1.9476 J-0.004
G1 X40.5388 Y0.45
G1 X39.1887
G0 Z3.0
G0 Y-0.75
G0 Z-2.493
G1 F100.0 Z-3.992
G1 F300.0 X35.1144
G3 X35.8644 Y0.0013 I0.0 J0.75
G1 X35.8618 Y1.4594
G1 X35.8968 Y19.9986
G3 Y20.0014 I-0.75 J0.0014
G1 X35.8618 Y38.5406
G1 X35.863 Y39.25
G1 X41.7369
G1 X41.7436 Y35.1172
G1 X41.7125 Y20.0015
G3 X41.7432 Y19.7875 I0.75 J-0.0015
G1 X41.7125 Y4.8845
G3 X41.7433 Y4.6702 I0.75 J-0.0015
G1 X41.7356 Y0.0012
G3 X42.4856 Y-0.75 I0.75 J-0.0012
G1 X39.1887
G0 Z3.0
G0 X38.7942 Y0.45
G0 Z-2.992
G1 F100.0 Z-4.491
G1 F300.0 X38.7548
G3 X38.7417 Y0.502 I-1.8949 J-0.45
G1 X38.8075 Y17.0878
G3 X38.7421 Y17.5961 I-1.9476 J0.0077
G1 X38.7533 Y19.9909
G3 Y20.0091 I-1.9476 J0.0091
G1 X38.7397 Y22.9052
G1 X38.7998 Y38.0524
G1 X38.7999
G1 X38.8318 Y29.7287
G1 X38.8003 Y20.0063
G3 Y19.9937 I1.9476 J-0.0063
G1 X38.8318 Y10.2713
G1 X38.7942 Y0.45
G0 Z3.0
G0 X39.9918 Y0.4454
G0 Z-2.992
G1 F100.0 Z-4.491
G1 F300.0 X39.9901 Y0.0029
G3 X40.7401 Y-0.75 I0.75 J-0.0029
G1 X36.8599
G3 X37.5433 Y0.3089 I0.0 J0.75
G1 X37.6099 Y17.0925
G3 X37.5436 Y17.4039 I-0.75 J0.003
G1 X37.5557 Y19.9965
G3 Y20.0035 I-0.75 J0.0035
G1 X37.5421 Y22.9048
G1 X37.6069 Y39.25
G1 X39.993
G1 X40.0294 Y29.729
G1 X39.9979 Y20.0024
G3 Y19.9976 I0.75 J-0.0024
G1 X40.0294 Y10.271
G1 X39.9918 Y0.4454
G0 Z3.0
G0 X42.4856 Y120.75
G0 Z-2.992
G1 F100.0 Z-3.992
G1 F300.0 X44.6
G2 X45.35 Y120.0 I0.0 J-0.75
G1 Y0.0
G2 X44.6 Y-0.75 I-0.75 J0.0
G1 X42.4856
G0 Z3.0
G0 X40.7401 Y120.75
G0 Z-3.491
G1 F100.0 Z-4.491
G1 F300.0 X40.8079
G1 X44.6
G2 X45.35 Y120.0 I0.0 J-0.75
G1 Y0.0
G2 X44.6 Y-0.75 I-0.75 J0.0
G1 X40.7401
G0 Z3.0
G0 X34.039
G0 Z-2.493
G1 F100.0 Z-3.493
G1 F300.0 X33.0
G2 X32.25 Y0.0 I0.0 J0.75
G1 Y120.0
G2 X33.0 Y120.75 I0.75 J0.0
G1 X34.039
G0 Z3.0
G0 X35.1144 Y-0.75
G0 Z-2.992
G1 F100.0 Z-3.992
G1 F300.0 X33.0
G2 X32.25 Y0.0 I0.0 J0.75
G1 Y120.0
G2 X33.0 Y120.75 I0.75 J0.0
G1 X35.1144
G0 Z3.0
G0 X36.8599 Y-0.75
G0 Z-3.491
G1 F100.0 Z-4.491
G1 F300.0 X36.7921
G1 X33.0
G2 X32.25 Y0.0 I0.0 J0.75
G1 Y120.0
G2 X33.0 Y120.75 I0.75 J0.0
G1 X36.8599
G1 F100.0 Z-4.99
G1 F300.0 X44.6
G2 X45.35 Y120.0 I0.0 J-0.75
G1 Y0.0
G2 X44.6 Y-0.75 I-0.75 J0.0
G1 X33.0
G2 X32.25 Y0.0 I0.0 J0.75
G1 Y120.0
G2 X33.0 Y120.75 I0.75 J0.0
G1 X36.8599
G1 F100.0 Z-5.489
G1 F300.0 X44.6
G2 X45.35 Y120.0 I0.0 J-0.75
G1 Y0.0
G2 X44.6 Y-0.75 I-0.75 J0.0
G1 X33.0
G2 X32.25 Y0.0 I0.0 J0.75
G1 Y120.0
G2 X33.0 Y120.75 I0.75 J0.0
G1 X36.8599
G1 F100.0 Z-5.988
G1 F300.0 X44.6
G2 X45.35 Y120.0 I0.0 J-0.75
G1 Y0.0
G2 X44.6 Y-0.75 I-0.75 J0.0
G1 X33.0
G2 X32.25 Y0.0 I0.0 J0.75
G1 Y120.0
G2 X33.0 Y120.75 I0.75 J0.0
G1 X36.8599
G1 F100.0 Z-6.487
G1 F300.0 X44.6
G2 X45.35 Y120.0 I0.0 J-0.75
G1 Y0.0
G2 X44.6 Y-0.75 I-0.75 J0.0
G1 X33.0
G2 X32.25 Y0.0 I0.0 J0.75
G1 Y120.0
G2 X33.0 Y120.75 I0.75 J0.0
G1 X36.8599
G1 F100.0 Z-6.986
G1 F300.0 X44.6
G2 X45.35 Y120.0 I0.0 J-0.75
G1 Y0.0
G2 X44.6 Y-0.75 I-0.75 J0.0
G1 X33.0
G2 X32.25 Y0.0 I0.0 J0.75
G1 Y120.0
G2 X33.0 Y120.75 I0.75 J0.0
G1 X36.8599
G1 F100.0 Z-7.485
G1 F300.0 X44.6
G2 X45.35 Y120.0 I0.0 J-0.75
G1 Y0.0
G2 X44.6 Y-0.75 I-0.75 J0.0
G1 X33.0
G2 X32.25 Y0.0 I0.0 J0.75
G1 Y120.0
G2 X33.0 Y120.75 I0.75 J0.0
G1 X36.8599
G1 F100.0 Z-7.984
G1 F300.0 X44.6
G2 X45.35 Y120.0 I0.0 J-0.75
G1 Y0.0
G2 X44.6 Y-0.75 I-0.75 J0.0
G1 X33.0
G2 X32.25 Y0.0 I0.0 J0.75
G1 Y120.0
G2 X33.0 Y120.75 I0.75 J0.0
G1 X36.8599
G1 F100.0 Z-8.483
G1 F300.0 X44.6
G2 X45.35 Y120.0 I0.0 J-0.75
G1 Y0.0
G2 X44.6 Y-0.75 I-0.75 J0.0
G1 X33.0
G2 X32.25 Y0.0 I0.0 J0.75
G1 Y120.0
G2 X33.0 Y120.75 I0.75 J0.0
G1 X36.8599
G1 F100.0 Z-8.982
G1 F300.0 X44.6
G2 X45.35 Y120.0 I0.0 J-0.75
G1 Y0.0
G2 X44.6 Y-0.75 I-0.75 J0.0
G1 X33.0
G2 X32.25 Y0.0 I0.0 J0.75
G1 Y120.0
G2 X33.0 Y120.75 I0.75 J0.0
G1 X36.8599
G1 F100.0 Z-9.481
G1 F300.0 X44.6
G2 X45.35 Y120.0 I0.0 J-0.75
G1 Y0.0
G2 X44.6 Y-0.75 I-0.75 J0.0
G1 X33.0
G2 X32.25 Y0.0 I0.0 J0.75
G1 Y120.0
G2 X33.0 Y120.75 I0.75 J0.0
G1 X36.8599
G1 F100.0 Z-9.7
G1 F300.0 X44.6
G2 X45.35 Y120.0 I0.0 J-0.75
G1 Y0.0
G2 X44.6 Y-0.75 I-0.75 J0.0
G1 X33.0
G2 X32.25 Y0.0 I0.0 J0.75
G1 Y120.0
G2 X33.0 Y120.75 I0.75 J0.0
G1 X36.8599
G0 Z3.0
M5
M30
